;FLAVOR:Marlin
;TIME:6880
;Filament used: 6.68251m
;Layer height: 0.2
;MINX:-29.8
;MINY:-15.302
;MINZ:0.3
;MAXX:29.785
;MAXY:15.302
;MAXZ:48.1
;Generated with Cura_SteamEngine 4.13.1
M104 S200
M105
M109 S200
M82 ;absolute extrusion mode

G92 E0
G92 E0
;LAYER_COUNT:240
;LAYER:0
M107
;MESH:benchy.stl
G0 F3600 X-6.083 Y-.83 Z0.3
;TYPE:WALL-INNER
G1 F1800 X-5.995 Y-.392 E0.02229
G1 X-5.984 Y0.076 E0.04564
G1 X-6.04 Y0.552 E0.06956
G1 X-6.171 Y0.924 E0.08923
G1 X-6.324 Y1.118 E0.10156
G1 X-6.499 Y1.216 E0.11156
G1 X-7.278 Y1.287 E0.15059
G1 X-7.275 Y0.869 E0.17144
G1 X-7.273 Y-.889 E0.25915
G1 X-7.275 Y-1.339 E0.2816
G1 X-6.499 Y-1.291 E0.32039
G1 X-6.347 Y-1.238 E0.32842
G1 X-6.234 Y-1.138 E0.33595
G1 X-6.083 Y-.83 E0.35306
G0 F3600 X-5.701 Y-.959
;TYPE:WALL-OUTER
G1 F1800 X-5.596 Y-.435 E0.37973
G1 X-5.583 Y0.092 E0.40603
G1 X-5.648 Y0.643 E0.43371
G1 X-5.816 Y1.119 E0.45889
G1 X-6.06 Y1.429 E0.47857
G1 X-6.347 Y1.589 E0.49497
G1 X-6.42 Y1.609 E0.49874
G1 X-6.928 Y1.676 E0.52431
G1 X-7.456 Y1.693 E0.55066
G1 X-7.631 Y1.667 E0.55949
G1 X-7.684 Y1.561 E0.5654
G1 X-7.672 Y0.97 E0.59489
G1 X-7.675 Y0.869 E0.59993
G1 X-7.673 Y-.888 E0.68759
G1 X-7.677 Y-1.661 E0.72616
G1 X-7.642 Y-1.733 E0.73015
G1 X-6.936 Y-1.744 E0.76538
G1 X-6.408 Y-1.683 E0.79189
G1 X-6.14 Y-1.59 E0.80605
G1 X-5.91 Y-1.385 E0.82142
G1 X-5.701 Y-.959 E0.84509
G0 F3600 X-5.662 Y-.763
G0 X-6.454 Y-.698
;TYPE:SKIN
G1 F1800 X-6.385 Y-.352 E0.86269
G1 X-6.374 Y0.055 E0.883
G1 X-6.423 Y0.466 E0.90365
G1 X-6.581 Y0.814 E0.92272
G1 X-6.885 Y0.86 E0.93806
G1 X-6.883 Y-.924 E1.02707
G1 X-6.55 Y-.896 E1.04374
G1 X-6.454 Y-.698 E1.05472
G0 F3600 X-6.702 Y-.48
G1 F1800 X-6.565 Y-.342 E1.06442
G0 F3600 X-6.704 Y0.084
G1 F1800 X-6.573 Y0.214 E1.07362
G0 F3600 X-7.253 Y-.889
G0 X-9.276 Y-.879
G0 X-10.194 Y-1.08
G0 X-10.143 Y-2.295
G0 X-10.631 Y-3.072
G0 X-11.567 Y-3.509
G0 X-12.771 Y-3.529
G0 X-13.759 Y-3.145
G0 X-14.235 Y-2.421
G0 X-13.689 Y-1.427
G0 X-12.318 Y-1.544
;TYPE:WALL-INNER
G1 F1800 X-12.638 Y-1.446 E1.09032
G1 X-12.292 Y-1.611 E1.09316
G1 X-12.318 Y-1.544
G0 F3600 X-16.329 Y0.451
G0 X-16.317 Y2.389
G0 X-16.684 Y3.165
G0 X-17.477 Y3.334
G0 X-18.182 Y2.563
G0 X-21.465 Y0.959
G1 F1800 X-21.874 Y1.156 E1.11581
G1 X-22.134 Y1.407 E1.13383
G1 X-22.306 Y1.452 E1.1427
G1 X-22.587 Y1.446 E1.15673
G1 X-22.833 Y1.363 E1.16968
G1 X-23.038 Y1.206 E1.18256
G1 X-23.184 Y0.969 E1.19645
G1 X-23.294 Y0.568 E1.21719
G1 X-23.336 Y-0.005 E1.24586
G1 X-23.317 Y-.466 E1.26888
G1 X-23.214 Y-.958 E1.29396
G1 X-23.085 Y-1.217 E1.30839
G1 X-22.921 Y-1.381 E1.31996
G1 X-22.596 Y-1.513 E1.33746
G1 X-22.379 Y-1.514 E1.34829
G1 X-22.198 Y-1.437 E1.3581
G1 X-21.727 Y-1.154 E1.38552
G1 X-21.229 Y-.998 E1.41155
G1 X-20.824 Y-1.034 E1.43184
G1 X-20.413 Y-1.277 E1.45566
G1 X-20.125 Y-1.708 E1.48152
G1 X-20.084 Y-1.959 E1.49421
G1 X-20.049 Y-1.845
G1 X-19.728 Y-1.506 E1.5175
G1 X-19.323 Y-1.363 E1.53893
G1 X-18.9 Y-1.37 E1.56003
G1 X-18.384 Y-1.43 E1.58595
G1 X-18.292 Y-1.414 E1.59061
G1 X-18.283 Y-1.377 E1.59251
G1 X-18.317 Y-.793 E1.62169
G1 X-18.308 Y0.093 E1.6659
G1 X-18.313 Y1.333 E1.72776
G1 X-18.301 Y1.964 E1.75925
G1 X-18.345 Y2.581 E1.79011
G1 X-18.224 Y3.023 E1.81297
G1 X-17.964 Y3.311 E1.83233
G1 X-17.51 Y3.494 E1.85675
G1 X-17.036 Y3.499 E1.8804
G1 X-16.581 Y3.296 E1.90526
G1 X-16.29 Y2.928 E1.92866
G1 X-16.156 Y2.406 E1.95555
G1 X-16.172 Y1.669 E1.99233
G1 X-16.173 Y1.422 E2.00465
G1 X-16.169 Y0.806 E2.03539
G1 X-16.17 Y-.6 E2.10553
G1 X-16.167 Y-1.215 E2.13621
G1 X-16.162 Y-1.4 E2.14545
G1 X-15.729 Y-1.39 E2.16706
G1 X-15.15 Y-1.426 E2.196
G1 X-14.683 Y-1.596 E2.22079
G1 X-14.396 Y-1.889 E2.24125
G1 X-14.353 Y-2.004 E2.24738
G1 X-14.135 Y-1.596 E2.26344
G1 X-13.77 Y-1.283 E2.28743
G1 X-13.404 Y-1.167 E2.30658
G1 X-13.302 Y-1.186 E2.31176
G1 X-13.389 Y-1.13 E2.31208
G1 X-13.648 Y-.691 E2.33751
G1 X-13.725 Y-.234 E2.36063
G1 X-13.647 Y0.156 E2.38047
G1 X-13.426 Y0.474 E2.39979
G1 X-12.992 Y0.689 E2.42395
G1 X-12.433 Y0.799 E2.45238
G1 X-12.237 Y0.898 E2.46333
G1 X-12.05 Y1.099 E2.47703
G1 X-11.984 Y1.267 E2.48603
G1 X-12.044 Y1.479 E2.49703
G1 X-12.179 Y1.551 E2.50466
G1 X-12.335 Y1.46 E2.51367
G1 X-12.771 Y1.175 E2.53966
G1 X-13.188 Y1.082 E2.56097
G1 X-13.682 Y1.138 E2.58577
G1 X-14.11 Y1.394 E2.61066
G1 X-14.355 Y1.8 E2.63431
G1 X-14.396 Y2.313 E2.65999
G1 X-14.263 Y2.757 E2.68311
G1 X-13.964 Y3.147 E2.70763
G1 X-13.573 Y3.404 E2.73097
G1 X-13.005 Y3.591 E2.76081
G1 X-12.437 Y3.656 E2.78933
G1 X-11.833 Y3.634 E2.81948
G1 X-11.208 Y3.48 E2.8516
G1 X-10.693 Y3.199 E2.88087
G1 X-10.261 Y2.796 E2.91034
G1 X-9.907 Y2.223 E2.94394
G1 X-9.715 Y1.596 E2.97666
G1 X-9.694 Y1.038 E3.00452
G1 X-9.845 Y0.354 E3.03946
G1 X-10.075 Y-.242 E3.07134
G1 X-10.314 Y-.527 E3.08989
G1 X-10.134 Y-.737 E3.10369
G1 X-9.972 Y-1.255 E3.13077
G1 X-9.929 Y-1.877 E3.16187
G1 X-9.986 Y-2.337 E3.185
G1 X-10.166 Y-2.774 E3.20858
G1 X-10.521 Y-3.192 E3.23594
G1 X-10.932 Y-3.47 E3.26069
G1 X-11.534 Y-3.667 E3.2923
G1 X-12.212 Y-3.73 E3.32627
G1 X-12.801 Y-3.688 E3.35573
G1 X-13.363 Y-3.539 E3.38473
G1 X-13.854 Y-3.277 E3.4125
G1 X-14.211 Y-2.931 E3.4373
G1 X-14.27 Y-2.79 E3.44493
G1 X-14.473 Y-3.229 E3.46153
G1 X-14.849 Y-3.492 E3.48442
G1 X-15.302 Y-3.559 E3.50726
G1 X-16.024 Y-3.55 E3.54329
G1 X-16.202 Y-3.553 E3.55217
G1 X-16.766 Y-3.554 E3.58031
G1 X-17.208 Y-3.552 E3.60236
G1 X-18.011 Y-3.554 E3.64242
G1 X-18.559 Y-3.546 E3.66976
G1 X-19.201 Y-3.59 E3.70187
G1 X-19.654 Y-3.469 E3.72526
G1 X-19.953 Y-3.219 E3.74471
G1 X-20.16 Y-2.823 E3.767
G1 X-20.181 Y-2.62 E3.77718
G1 X-20.456 Y-2.996 E3.79138
G1 X-20.971 Y-3.39 E3.82373
G1 X-21.565 Y-3.632 E3.85573
G1 X-22.151 Y-3.722 E3.88531
G1 X-22.844 Y-3.703 E3.9199
G1 X-23.459 Y-3.564 E3.95135
G1 X-24.085 Y-3.263 E3.98601
G1 X-24.58 Y-2.862 E4.01779
G1 X-25.012 Y-2.304 E4.05299
G1 X-25.271 Y-1.761 E4.08301
G1 X-25.296 Y-1.667 E4.08786
G1 X-25.296 Y-2.304 E4.10115
G1 X-25.296 Y-4.868 E4.22907
G1 X-25.239 Y-5.264 E4.24903
G1 X-25.119 Y-5.551 E4.26455
G1 X-24.933 Y-5.781 E4.2793
G1 X-24.694 Y-5.949 E4.29388
G1 X-24.198 Y-6.08 E4.31947
G1 X-.692 Y-7.516 E5.49438
G1 X0.003 Y-7.536 E5.52907
G1 X0.673 Y-7.521 E5.5625
G1 X1.337 Y-7.479 E5.59569
G1 X2.152 Y-7.381 E5.63665
G1 X2.843 Y-7.262 E5.67163
G1 X3.628 Y-7.083 E5.7118
G1 X4.264 Y-6.903 E5.74477
G1 X4.878 Y-6.7 E5.77704
G1 X5.342 Y-6.526 E5.80176
G1 X5.922 Y-6.281 E5.83317
G1 X6.542 Y-5.986 E5.86743
G1 X7.019 Y-5.732 E5.89439
G1 X7.491 Y-5.457 E5.92164
G1 X7.957 Y-5.164 E5.9491
G1 X8.459 Y-4.817 E5.97955
G1 X8.948 Y-4.446 E6.01017
G1 X9.568 Y-3.93 E6.05042
G1 X10.117 Y-3.416 E6.08794
G1 X10.483 Y-3.044 E6.11397
G1 X10.838 Y-2.654 E6.14028
G1 X11.205 Y-2.219 E6.16868
G1 X11.5 Y-1.84 E6.19264
G1 X11.919 Y-1.256 E6.2285
G1 X12.198 Y-.83 E6.2539
G1 X12.456 Y-.404 E6.27875
G1 X12.562 Y-.132 E6.29331
G1 X12.567 Y0.103 E6.30504
G1 X12.488 Y0.347 E6.31784
G1 X12.186 Y0.848 E6.34702
G1 X11.888 Y1.307 E6.37432
G1 X11.525 Y1.814 E6.40543
G1 X11.108 Y2.337 E6.4388
G1 X11.096 Y2.241 E6.44363
G1 X10.846 Y1.817 E6.46819
G1 X10.382 Y1.565 E6.49453
G1 X9.752 Y1.482 E6.52623
G1 X9.686 Y1.467 E6.52961
G1 X10.246 Y0.666 E6.57837
G1 X10.599 Y0.174 E6.60858
G1 X10.951 Y-.413 E6.64273
G1 X11.063 Y-.902 E6.66776
G1 X10.991 Y-1.448 E6.69523
G1 X10.741 Y-1.841 E6.71847
G1 X10.396 Y-2.055 E6.73872
G1 X9.881 Y-2.12 E6.76462
G1 X9.469 Y-2.114 E6.78518
G1 X7.874 Y-2.119 E6.86475
G1 X7.281 Y-2.025 E6.89471
G1 X6.872 Y-1.743 E6.91949
G1 X6.769 Y-1.534 E6.93112
G1 X6.561 Y-1.826 E6.94136
G1 X6.225 Y-2.055 E6.96165
G1 X5.823 Y-2.131 E6.98206
G1 X5.404 Y-1.988 E7.00415
G1 X5.11 Y-1.722 E7.02393
G1 X4.818 Y-1.235 E7.05226
G1 X4.569 Y-.516 E7.09022
G1 X4.537 Y-.429 E7.09484
G1 X4.481 Y-.569 E7.09738
G1 X4.316 Y-1.123 E7.11437
G1 X4.127 Y-1.595 E7.13973
G1 X3.762 Y-1.944 E7.16493
G1 X3.357 Y-2.098 E7.18654
G1 X2.868 Y-2.104 E7.21094
G1 X2.487 Y-1.94 E7.23164
G1 X2.2 Y-1.574 E7.25484
G1 X2.172 Y-1.44 E7.26167
G1 X1.915 Y-1.834 E7.27769
G1 X1.534 Y-2.076 E7.30021
G1 X1.122 Y-2.126 E7.32092
G1 X0.668 Y-1.95 E7.34521
G1 X0.267 Y-1.569 E7.3728
G1 X0.174 Y-1.412 E7.38191
G1 X-.116 Y-1.802 E7.40616
G1 X-.517 Y-2.067 E7.43014
G1 X-.913 Y-2.129 E7.45013
G1 X-1.401 Y-1.992 E7.47542
G1 X-1.752 Y-1.698 E7.49826
G1 X-1.934 Y-1.273 E7.52133
G1 X-1.895 Y-.796 E7.54521
G1 X-1.663 Y-.266 E7.57407
G1 X-1.274 Y0.417 E7.61328
G1 X-1.06 Y0.75 E7.63303
G1 X-1.255 Y1.034 E7.65022
G1 X-1.544 Y1.538 E7.6792
G1 X-1.73 Y1.857 E7.69763
G1 X-1.881 Y1.491 E7.70753
G1 X-2.272 Y1.076 E7.73598
G1 X-2.77 Y0.828 E7.76373
G1 X-3.204 Y0.76 E7.78565
G1 X-3.754 Y0.845 E7.81342
G1 X-3.877 Y0.914 E7.82045
G1 X-3.833 Y0.729 E7.8237
G1 X-3.784 Y0.171 E7.85164
G1 X-3.787 Y-.386 E7.87943
G1 X-3.856 Y-.983 E7.90942
G1 X-4.011 Y-1.584 E7.94038
G1 X-4.247 Y-2.116 E7.96942
G1 X-4.562 Y-2.58 E7.9974
G1 X-5.048 Y-3.034 E8.03058
G1 X-5.605 Y-3.326 E8.06195
G1 X-6.366 Y-3.5 E8.1009
G1 X-7.02 Y-3.55 E8.13362
G1 X-7.684 Y-3.549 E8.16675
G1 X-8.177 Y-3.567 E8.19136
G1 X-8.71 Y-3.518 E8.21807
G1 X-9.177 Y-3.289 E8.24401
G1 X-9.447 Y-2.927 E8.26654
G1 X-9.509 Y-2.46 E8.29005
G1 X-9.466 Y-1.93 E8.31658
G1 X-9.477 Y-1.076 E8.35919
G1 X-9.475 Y-.686 E8.37864
G1 X-9.475 Y0.354 E8.43053
G1 X-9.475 Y1.258 E8.46966
G1 X-9.473 Y1.833 E8.49511
G1 X-9.486 Y2.393 E8.52305
G1 X-9.39 Y2.868 E8.54723
G1 X-9.19 Y3.213 E8.56713
G1 X-8.828 Y3.466 E8.58916
G1 X-8.375 Y3.518 E8.61191
G1 X-7.748 Y3.473 E8.64327
G1 X-7.046 Y3.482 E8.6783
G1 X-6.429 Y3.438 E8.70916
G1 X-5.802 Y3.307 E8.74111
G1 X-5.206 Y3.032 E8.77386
G1 X-4.796 Y2.699 E8.80021
G1 X-4.618 Y3.178 E8.82571
G1 X-4.248 Y3.607 E8.85397
G1 X-3.756 Y3.883 E8.88211
G1 X-3.196 Y3.97 E8.91039
G1 X-2.642 Y3.859 E8.93858
G1 X-2.155 Y3.556 E8.96719
G1 X-1.85 Y3.163 E8.99201
G1 X-1.747 Y3.343 E9.00236
G1 X-1.362 Y3.609 E9.0257
G1 X-.887 Y3.693 E9.04977
G1 X-.505 Y3.576 E9.0697
G1 X-.135 Y3.237 E9.09474
G1 X0.116 Y2.855 E9.11754
G1 X0.412 Y3.33 E9.14546
G1 X0.75 Y3.604 E9.16717
G1 X1.241 Y3.712 E9.19225
G1 X1.699 Y3.608 E9.21568
G1 X2.091 Y3.311 E9.24022
G1 X2.285 Y2.858 E9.26481
G1 X2.265 Y2.334 E9.29097
G1 X2.077 Y1.892 E9.31493
G1 X1.616 Y1.115 E9.36
G1 X1.4 Y0.743 E9.38146
G1 X1.496 Y0.473 E9.39576
G1 X1.706 Y0.14 E9.4154
G1 X2.096 Y-.531 E9.45412
G1 X2.154 Y-.687 E9.46243
G1 X2.362 Y-0.069 E9.49496
G1 X2.565 Y0.422 E9.52146
G1 X2.708 Y0.811 E9.54214
G1 X2.986 Y1.545 E9.5813
G1 X3.184 Y2.09 E9.61023
G1 X3.396 Y2.556 E9.63577
G1 X3.435 Y2.715 E9.64394
G1 X3.372 Y2.906 E9.65397
G1 X3.069 Y3.627 E9.69299
G1 X2.862 Y3.963 E9.71268
G1 X2.731 Y4.03 E9.72002
G1 X2.179 Y4.198 E9.74881
G1 X1.877 Y4.432 E9.76787
G1 X1.706 Y4.767 E9.78663
G1 X1.691 Y5.202 E9.80835
G1 X1.833 Y5.633 E9.83099
G1 X2.106 Y5.982 E9.85309
G1 X2.528 Y6.193 E9.87663
G1 X3.008 Y6.217 E9.90061
G1 X3.558 Y6.085 E9.92883
G1 X4.106 Y5.814 E9.95933
G1 X4.507 Y5.418 E9.98744
G1 X4.778 Y4.962 E10.01391
G1 X5.087 Y4.232 E10.05346
G1 X5.385 Y3.46 E10.09474
G1 X5.523 Y3.084 E10.11472
G1 X6.342 Y0.79 E10.23625
G1 X6.577 Y0.082 E10.27346
G1 X6.805 Y-.427 E10.30129
G1 X6.835 Y-.355 E10.30518
G1 X7.182 Y-0.078 E10.32733
G1 X7.595 Y0.041 E10.34878
G1 X8.004 Y0.069 E10.36923
G1 X7.824 Y0.324 E10.37622
G1 X7.222 Y1.162 E10.4277
G1 X6.831 Y1.72 E10.46169
G1 X6.623 Y2.226 E10.48898
G1 X6.599 Y2.696 E10.51246
G1 X6.768 Y3.206 E10.53927
G1 X7.021 Y3.497 E10.5585
G1 X7.328 Y3.66 E10.57585
G1 X7.818 Y3.701 E10.60038
G1 X8.295 Y3.674 E10.62421
G1 X9.061 Y3.683 E10.66243
G1 X9.837 Y3.682 E10.70115
G1 X9.744 Y3.768 E10.70747
G1 X9.303 Y4.157 E10.7368
G1 X8.76 Y4.594 E10.77158
G1 X8.308 Y4.924 E10.7995
G1 X7.771 Y5.283 E10.83173
G1 X7.37 Y5.531 E10.85525
G1 X6.835 Y5.833 E10.8859
G1 X6.101 Y6.2 E10.92684
G1 X5.662 Y6.392 E10.95074
G1 X5.085 Y6.626 E10.98181
G1 X4.611 Y6.791 E11.00685
G1 X4.052 Y6.969 E11.03612
G1 X3.525 Y7.109 E11.06332
G1 X2.794 Y7.272 E11.10069
G1 X2.508 Y7.324 E11.11519
G1 X2.006 Y7.402 E11.14053
G1 X1.411 Y7.472 E11.17042
G1 X0.89 Y7.51 E11.19649
G1 X0.287 Y7.534 E11.22659
G1 X-.32 Y7.53 E11.25688
G1 X-.836 Y7.508 E11.28264
G1 X-8.561 Y7.033 E11.66877
G1 X-10.541 Y6.914 E11.76773
G1 X-21.862 Y6.224 E12.33359
G1 X-24.221 Y6.076 E12.45151
G1 X-24.573 Y6 E12.46948
G1 X-24.828 Y5.866 E12.48385
G1 X-25.048 Y5.655 E12.49906
G1 X-25.193 Y5.403 E12.51356
G1 X-25.297 Y4.864 E12.54095
G1 X-25.297 Y1.583 E12.70464
G1 X-25.176 Y1.922 E12.7226
G1 X-24.89 Y2.423 E12.75138
G1 X-24.422 Y2.939 E12.78613
G1 X-23.849 Y3.328 E12.82068
G1 X-23.315 Y3.538 E12.84931
G1 X-22.688 Y3.648 E12.88107
G1 X-21.995 Y3.637 E12.91565
G1 X-21.348 Y3.494 E12.94871
G1 X-20.833 Y3.238 E12.9774
G1 X-20.382 Y2.824 E13.00794
G1 X-20.086 Y2.299 E13.03801
G1 X-20.022 Y1.896 E13.05837
G1 X-20.194 Y1.439 E13.08273
G1 X-20.571 Y1.099 E13.10806
G1 X-21.015 Y0.946 E13.13149
G1 X-21.465 Y0.959 E13.15395
G0 F3600 X-21.368 Y1.356
;TYPE:WALL-OUTER
G1 F1800 X-21.642 Y1.488 E13.16912
G1 X-21.931 Y1.767 E13.18916
G1 X-22.258 Y1.853 E13.20603
G1 X-22.656 Y1.845 E13.22589
G1 X-23.024 Y1.721 E13.24527
G1 X-23.34 Y1.479 E13.26512
G1 X-23.555 Y1.129 E13.28562
G1 X-23.69 Y0.637 E13.31107
G1 X-23.737 Y-0.001 E13.34299
G1 X-23.716 Y-.511 E13.36845
G1 X-23.594 Y-1.092 E13.39807
G1 X-23.413 Y-1.455 E13.41831
G1 X-23.148 Y-1.72 E13.437
G1 X-22.674 Y-1.913 E13.46254
G1 X-22.297 Y-1.914 E13.48134
G1 X-22.016 Y-1.794 E13.49659
G1 X-21.562 Y-1.521 E13.52302
G1 X-21.185 Y-1.403 E13.54273
G1 X-20.95 Y-1.424 E13.5545
G1 X-20.695 Y-1.575 E13.56928
G1 X-20.506 Y-1.858 E13.58626
G1 X-20.457 Y-2.157 E13.60138
G1 X-20.53 Y-2.419 E13.61495
G1 X-20.745 Y-2.713 E13.63312
G1 X-21.172 Y-3.04 E13.65995
G1 X-21.672 Y-3.244 E13.68689
G1 X-22.176 Y-3.321 E13.71233
G1 X-22.794 Y-3.304 E13.74317
G1 X-23.327 Y-3.184 E13.77043
G1 X-23.869 Y-2.923 E13.80044
G1 X-24.292 Y-2.58 E13.82761
G1 X-24.669 Y-2.093 E13.85834
G1 X-24.894 Y-1.621 E13.88442
G1 X-25.05 Y-1.047 E13.9141
G1 X-25.122 Y-.463 E13.94346
G1 X-25.138 Y0.082 E13.97066
G1 X-25.095 Y0.685 E14.00082
G1 X-24.985 Y1.266 E14.03032
G1 X-24.811 Y1.754 E14.05617
G1 X-24.564 Y2.187 E14.08104
G1 X-24.158 Y2.635 E14.1112
G1 X-23.661 Y2.972 E14.14116
G1 X-23.206 Y3.151 E14.16555
G1 X-22.656 Y3.247 E14.19341
G1 X-22.042 Y3.238 E14.22404
G1 X-21.482 Y3.114 E14.25266
G1 X-21.062 Y2.905 E14.27606
G1 X-20.699 Y2.572 E14.30064
G1 X-20.47 Y2.165 E14.32394
G1 X-20.434 Y1.938 E14.3354
G1 X-20.534 Y1.671 E14.34963
G1 X-20.778 Y1.451 E14.36602
G1 X-21.077 Y1.348 E14.3818
G1 X-21.368 Y1.356 E14.39632
G0 F3600 X-21.548 Y1.442
G0 X-21.677 Y1.172
G0 X-18.167 Y2.347
G0 X-17.869 Y3.174
G0 X-17.069 Y3.337
G0 X-16.656 Y2.746
G1 F1800 X-16.557 Y2.36 E14.4162
G1 X-16.572 Y1.678 E14.45023
G1 X-16.573 Y1.419 E14.46316
G1 X-16.569 Y0.805 E14.49379
G1 X-16.57 Y-.602 E14.56398
G1 X-16.567 Y-1.226 E14.59512
G1 X-16.553 Y-1.751 E14.62132
G1 X-16.464 Y-1.808 E14.62659
G1 X-15.737 Y-1.79 E14.66287
G1 X-15.233 Y-1.822 E14.68807
G1 X-14.905 Y-1.941 E14.70548
G1 X-14.741 Y-2.108 E14.71715
G1 X-14.656 Y-2.338 E14.72939
G1 X-14.663 Y-2.687 E14.7468
G1 X-14.791 Y-2.963 E14.76198
G1 X-15.001 Y-3.11 E14.77477
G1 X-15.329 Y-3.159 E14.79131
G1 X-16.026 Y-3.15 E14.82609
G1 X-16.206 Y-3.153 E14.83507
G1 X-16.765 Y-3.154 E14.86296
G1 X-17.207 Y-3.152 E14.88501
G1 X-18.009 Y-3.154 E14.92502
G1 X-18.568 Y-3.146 E14.95292
G1 X-19.162 Y-3.186 E14.98262
G1 X-19.465 Y-3.105 E14.99826
G1 X-19.635 Y-2.963 E15.00932
G1 X-19.77 Y-2.705 E15.02384
G1 X-19.802 Y-2.402 E15.03904
G1 X-19.694 Y-2.052 E15.05732
G1 X-19.504 Y-1.851 E15.07112
G1 X-19.258 Y-1.764 E15.08413
G1 X-18.927 Y-1.77 E15.10065
G1 X-18.371 Y-1.834 E15.12857
G1 X-18.098 Y-1.786 E15.1424
G1 X-17.94 Y-1.662 E15.15242
G1 X-17.881 Y-1.413 E15.16519
G1 X-17.917 Y-.784 E15.19662
G1 X-17.908 Y0.095 E15.24048
G1 X-17.913 Y1.33 E15.30209
G1 X-17.901 Y1.977 E15.33438
G1 X-17.941 Y2.541 E15.36259
G1 X-17.863 Y2.826 E15.37733
G1 X-17.729 Y2.975 E15.38732
G1 X-17.431 Y3.095 E15.40335
G1 X-17.119 Y3.098 E15.41892
G1 X-16.834 Y2.971 E15.43449
G1 X-16.656 Y2.746 E15.4488
G0 F3600 X-16.607 Y2.553
G0 X-16.317 Y2.628
G0 X-13.351 Y-.997
G0 X-13.093 Y-.845
G1 F1800 X-13.266 Y-.552 E15.46577
G1 X-13.318 Y-.24 E15.48155
G1 X-13.271 Y-0.004 E15.49356
G1 X-13.156 Y0.161 E15.50359
G1 X-12.862 Y0.307 E15.51997
G1 X-12.302 Y0.418 E15.54845
G1 X-11.994 Y0.573 E15.56566
G1 X-11.704 Y0.883 E15.58683
G1 X-11.578 Y1.208 E15.60422
G1 X-11.602 Y1.508 E15.61924
G1 X-11.742 Y1.758 E15.63353
G1 X-12.001 Y1.932 E15.6491
G1 X-12.265 Y1.964 E15.66237
G1 X-12.536 Y1.806 E15.67802
G1 X-12.929 Y1.55 E15.70142
G1 X-13.21 Y1.487 E15.71579
G1 X-13.551 Y1.526 E15.73291
G1 X-13.819 Y1.686 E15.74848
G1 X-13.964 Y1.926 E15.76247
G1 X-13.991 Y2.27 E15.77968
G1 X-13.901 Y2.572 E15.79541
G1 X-13.688 Y2.85 E15.81288
G1 X-13.398 Y3.041 E15.8302
G1 X-12.919 Y3.198 E15.85535
G1 X-12.421 Y3.255 E15.88036
G1 X-11.889 Y3.236 E15.90692
G1 X-11.354 Y3.104 E15.93441
G1 X-10.929 Y2.872 E15.95857
G1 X-10.573 Y2.54 E15.98285
G1 X-10.274 Y2.057 E16.01119
G1 X-10.113 Y1.529 E16.03873
G1 X-10.096 Y1.074 E16.06145
G1 X-10.229 Y0.47 E16.0923
G1 X-10.424 Y-0.036 E16.11936
G1 X-10.642 Y-.295 E16.13625
G1 X-10.926 Y-.453 E16.15246
G1 X-11.034 Y-.489 E16.15814
G1 X-10.723 Y-.666 E16.169
G1 X-10.491 Y-.935 E16.18673
G1 X-10.368 Y-1.329 E16.20732
G1 X-10.331 Y-1.866 E16.23417
G1 X-10.376 Y-2.234 E16.25267
G1 X-10.512 Y-2.563 E16.27043
G1 X-10.79 Y-2.891 E16.29188
G1 X-11.11 Y-3.107 E16.31114
G1 X-11.616 Y-3.273 E16.33771
G1 X-12.216 Y-3.329 E16.36777
G1 X-12.735 Y-3.292 E16.39373
G1 X-13.215 Y-3.164 E16.41852
G1 X-13.616 Y-2.95 E16.44119
G1 X-13.874 Y-2.701 E16.45908
G1 X-13.995 Y-2.411 E16.47476
G1 X-13.966 Y-2.128 E16.48895
G1 X-13.818 Y-1.851 E16.50462
G1 X-13.572 Y-1.64 E16.52079
G1 X-13.379 Y-1.579 E16.53089
G1 X-13.093 Y-1.632 E16.5454
G1 X-12.648 Y-1.913 E16.57166
G1 X-12.327 Y-2.021 E16.58855
G1 X-12.074 Y-1.981 E16.60133
G1 X-11.916 Y-1.814 E16.6128
G1 X-11.866 Y-1.593 E16.62411
G1 X-11.931 Y-1.379 E16.63526
G1 X-12.064 Y-1.227 E16.64534
G1 X-12.279 Y-1.11 E16.65755
G1 X-12.862 Y-.994 E16.68721
G1 X-13.093 Y-.845 E16.70092
G0 F3600 X-13.194 Y-.673
G0 X-13.452 Y-.825
G0 X-14.197 Y1.849
G0 X-14.117 Y2.684
G0 X-13.503 Y3.259
G0 X-12.667 Y3.467
G0 X-8.854 Y3.324
G0 X-8.682 Y3.08
G1 F1800 X-8.366 Y3.116 E16.71679
G1 X-7.759 Y3.073 E16.74715
G1 X-7.058 Y3.082 E16.78213
G1 X-6.484 Y3.041 E16.81084
G1 X-5.928 Y2.925 E16.83917
G1 X-5.419 Y2.69 E16.86714
G1 X-4.997 Y2.348 E16.89424
G1 X-4.629 Y1.864 E16.92458
G1 X-4.386 Y1.321 E16.95425
G1 X-4.229 Y0.665 E16.98791
G1 X-4.184 Y0.155 E17.01345
G1 X-4.187 Y-.362 E17.03924
G1 X-4.25 Y-.91 E17.06676
G1 X-4.39 Y-1.452 E17.09469
G1 X-4.598 Y-1.921 E17.12029
G1 X-4.868 Y-2.318 E17.14424
G1 X-5.282 Y-2.705 E17.17251
G1 X-5.745 Y-2.948 E17.1986
G1 X-6.426 Y-3.103 E17.23345
G1 X-7.035 Y-3.15 E17.26392
G1 X-7.697 Y-3.149 E17.29695
G1 X-8.166 Y-3.166 E17.32036
G1 X-8.6 Y-3.126 E17.3421
G1 X-8.914 Y-2.972 E17.35955
G1 X-9.064 Y-2.771 E17.37207
G1 X-9.107 Y-2.45 E17.38822
G1 X-9.066 Y-1.946 E17.41345
G1 X-9.077 Y-1.075 E17.45691
G1 X-9.075 Y-.686 E17.47632
G1 X-9.075 Y1.257 E17.57325
G1 X-9.073 Y1.842 E17.60244
G1 X-9.085 Y2.358 E17.62819
G1 X-9.011 Y2.724 E17.64682
G1 X-8.888 Y2.936 E17.65905
G1 X-8.682 Y3.08 E17.67159
G0 F3600 X-8.484 Y3.102
G0 X-8.518 Y3.4
G0 X-3.769 Y3.759
G0 X-3.623 Y3.499
G1 F1800 X-3.205 Y3.564 E17.69269
G1 X-2.792 Y3.481 E17.71371
G1 X-2.427 Y3.254 E17.73515
G1 X-2.171 Y2.924 E17.75599
G1 X-2.042 Y2.524 E17.77696
G1 X-2.062 Y2.1 E17.79813
G1 X-2.223 Y1.712 E17.81909
G1 X-2.514 Y1.402 E17.8403
G1 X-2.893 Y1.214 E17.86141
G1 X-3.205 Y1.165 E17.87717
G1 X-3.622 Y1.229 E17.89821
G1 X-3.992 Y1.436 E17.91937
G1 X-4.268 Y1.758 E17.93786
G1 X-4.414 Y2.151 E17.95878
G1 X-4.414 Y2.578 E17.98008
G1 X-4.268 Y2.971 E18.001
G1 X-3.991 Y3.293 E18.02219
G1 X-3.623 Y3.499 E18.04323
G0 F3600 X-3.426 Y3.529
G0 X-3.472 Y3.825
G0 X1.241 Y3.547
G0 X2.157 Y2.902
G0 X1.882 Y2.783
G1 F1800 X1.868 Y2.423 E18.0612
G1 X1.719 Y2.073 E18.08018
G1 X1.272 Y1.319 E18.12391
G1 X1.001 Y0.853 E18.1508
G1 X0.998 Y0.597 E18.16358
G1 X1.144 Y0.281 E18.18094
G1 X1.364 Y-0.067 E18.20148
G1 X1.728 Y-.694 E18.23765
G1 X1.836 Y-1.031 E18.25531
G1 X1.802 Y-1.274 E18.26755
G1 X1.627 Y-1.543 E18.28356
G1 X1.396 Y-1.69 E18.29722
G1 X1.173 Y-1.717 E18.30843
G1 X0.886 Y-1.606 E18.32378
G1 X0.583 Y-1.317 E18.34467
G1 X0.373 Y-.964 E18.36516
G1 X0.192 Y-.546 E18.38789
G1 X-0.087 Y-1.092 E18.41848
G1 X-.395 Y-1.507 E18.44426
G1 X-.665 Y-1.685 E18.4604
G1 X-.889 Y-1.72 E18.47171
G1 X-1.21 Y-1.63 E18.48834
G1 X-1.422 Y-1.453 E18.50212
G1 X-1.527 Y-1.207 E18.51546
G1 X-1.502 Y-.895 E18.53108
G1 X-1.305 Y-.446 E18.55554
G1 X-.932 Y0.21 E18.59319
G1 X-.64 Y0.663 E18.62008
G1 X-.607 Y0.797 E18.62696
G1 X-.916 Y1.247 E18.6542
G1 X-1.198 Y1.739 E18.68249
G1 X-1.476 Y2.217 E18.71008
G1 X-1.595 Y2.565 E18.72842
G1 X-1.582 Y2.827 E18.74151
G1 X-1.445 Y3.065 E18.75521
G1 X-1.206 Y3.23 E18.7697
G1 X-.912 Y3.282 E18.7846
G1 X-.708 Y3.22 E18.79523
G1 X-.442 Y2.976 E18.81324
G1 X-.127 Y2.498 E18.8418
G1 X0.104 Y2.001 E18.86915
G1 X0.419 Y2.585 E18.90225
G1 X0.716 Y3.062 E18.93028
G1 X0.928 Y3.234 E18.9439
G1 X1.239 Y3.302 E18.95979
G1 X1.526 Y3.237 E18.97447
G1 X1.765 Y3.056 E18.98942
G1 X1.882 Y2.783 E19.00424
G0 F3600 X1.875 Y2.583
G0 X2.175 Y2.571
G0 X1.853 Y5.179
G0 X2.618 Y6.097
G0 X2.632 Y5.798
G1 F1800 X2.971 Y5.815 E19.02118
G1 X3.421 Y5.707 E19.04426
G1 X3.871 Y5.484 E19.06932
G1 X4.189 Y5.17 E19.09162
G1 X4.42 Y4.781 E19.11419
G1 X4.716 Y4.082 E19.15206
G1 X5.011 Y3.319 E19.19287
G1 X5.147 Y2.948 E19.21258
G1 X5.909 Y0.808 E19.32592
G1 X5.964 Y0.658 E19.33389
G1 X6.201 Y-0.056 E19.37142
G1 X6.459 Y-.633 E19.40295
G1 X6.533 Y-1.001 E19.42168
G1 X6.465 Y-1.271 E19.43557
G1 X6.277 Y-1.536 E19.45178
G1 X6.069 Y-1.677 E19.46432
G1 X5.852 Y-1.718 E19.47534
G1 X5.611 Y-1.636 E19.48804
G1 X5.422 Y-1.465 E19.50075
G1 X5.182 Y-1.065 E19.52402
G1 X4.947 Y-.385 E19.55992
G1 X4.765 Y0.109 E19.58618
G1 X4.588 Y0.711 E19.61749
G1 X4.575 Y0.752 E19.61963
G1 X4.305 Y0.064 E19.64143
G1 X4.105 Y-.431 E19.66806
G1 X3.938 Y-.991 E19.69722
G1 X3.788 Y-1.366 E19.71737
G1 X3.544 Y-1.599 E19.7342
G1 X3.281 Y-1.699 E19.74824
G1 X2.948 Y-1.703 E19.76485
G1 X2.739 Y-1.613 E19.7762
G1 X2.573 Y-1.401 E19.78964
G1 X2.516 Y-1.127 E19.8036
G1 X2.548 Y-.77 E19.82148
G1 X2.737 Y-.21 E19.85097
G1 X2.935 Y0.269 E19.87683
G1 X3.083 Y0.671 E19.8982
G1 X3.362 Y1.408 E19.93751
G1 X3.555 Y1.939 E19.9657
G1 X3.775 Y2.425 E19.99232
G1 X3.85 Y2.73 E20.00799
G1 X3.745 Y3.052 E20.02488
G1 X3.434 Y3.792 E20.06493
G1 X3.252 Y4.144 E20.0847
G1 X3.095 Y4.293 E20.0955
G1 X2.879 Y4.403 E20.10759
G1 X2.366 Y4.559 E20.13434
G1 X2.193 Y4.693 E20.14526
G1 X2.103 Y4.87 E20.15517
G1 X2.093 Y5.145 E20.1689
G1 X2.191 Y5.441 E20.18445
G1 X2.366 Y5.665 E20.19863
G1 X2.632 Y5.798 E20.21347
G0 F3600 X2.832 Y5.808
G0 X2.818 Y6.106
G0 X9.902 Y3.509
G0 X10.974 Y2.733
G0 X10.701 Y1.853
G0 X10.558 Y2.116
G1 F1800 X10.256 Y1.952 E20.23062
G1 X9.738 Y1.884 E20.25668
G1 X9.025 Y1.927 E20.29232
G1 X8.889 Y1.931 E20.2991
G1 X9.358 Y1.237 E20.34089
G1 X9.919 Y0.437 E20.38964
G1 X10.264 Y-0.046 E20.41925
G1 X10.575 Y-.564 E20.4494
G1 X10.657 Y-.921 E20.46767
G1 X10.606 Y-1.308 E20.48715
G1 X10.453 Y-1.549 E20.50139
G1 X10.259 Y-1.669 E20.51277
G1 X9.859 Y-1.72 E20.53289
G1 X9.474 Y-1.714 E20.5521
G1 X8.415 Y-1.717 E20.60493
G1 X7.905 Y-1.719 E20.63037
G1 X7.433 Y-1.644 E20.65422
G1 X7.185 Y-1.473 E20.66925
G1 X7.057 Y-1.212 E20.68375
G1 X7.049 Y-.876 E20.70052
G1 X7.164 Y-.604 E20.71525
G1 X7.369 Y-.44 E20.72835
G1 X7.665 Y-.355 E20.74371
G1 X8.187 Y-.319 E20.76982
G1 X8.812 Y-.371 E20.80111
G1 X8.513 Y0.043 E20.81325
G1 X8.151 Y0.555 E20.84453
G1 X7.548 Y1.394 E20.89608
G1 X7.184 Y1.913 E20.92771
G1 X7.019 Y2.315 E20.94939
G1 X7.002 Y2.642 E20.96572
G1 X7.122 Y3.004 E20.98475
G1 X7.274 Y3.178 E20.99628
G1 X7.443 Y3.268 E21.00583
G1 X7.824 Y3.3 E21.0249
G1 X8.292 Y3.274 E21.04829
G1 X9.063 Y3.283 E21.08676
G1 X9.802 Y3.283 E21.12363
G1 X10.223 Y3.25 E21.14469
G1 X10.477 Y3.149 E21.15833
G1 X10.652 Y2.955 E21.17137
G1 X10.74 Y2.628 E21.18826
G1 X10.709 Y2.372 E21.20113
G1 X10.558 Y2.116 E21.21595
G0 F3600 X10.382 Y2.021
G0 X10.525 Y1.758
G0 X12.549 Y-.446
G0 X12.817 Y-.579
G1 F1800 X12.96 Y-.211 E21.23565
G1 X12.968 Y0.162 E21.25426
G1 X12.855 Y0.513 E21.27266
G1 X12.526 Y1.059 E21.30446
G1 X12.213 Y1.54 E21.33309
G1 X11.848 Y2.049 E21.36434
G1 X11.536 Y2.449 E21.38965
G1 X11.201 Y2.845 E21.41553
G1 X10.859 Y3.225 E21.44104
G1 X10.388 Y3.713 E21.47487
G1 X10.009 Y4.068 E21.50078
G1 X9.569 Y4.457 E21.53008
G1 X8.996 Y4.917 E21.56674
G1 X8.53 Y5.257 E21.59552
G1 X7.993 Y5.616 E21.62775
G1 X7.567 Y5.879 E21.65272
G1 X7.014 Y6.191 E21.6844
G1 X6.28 Y6.558 E21.72534
G1 X5.812 Y6.763 E21.75083
G1 X5.228 Y7 E21.78228
G1 X4.742 Y7.169 E21.80795
G1 X4.169 Y7.351 E21.83794
G1 X3.612 Y7.5 E21.86671
G1 X2.881 Y7.662 E21.90406
G1 X2.57 Y7.719 E21.91984
G1 X2.065 Y7.798 E21.94534
G1 X1.44 Y7.871 E21.97673
G1 X0.906 Y7.91 E22.00344
G1 X0.3 Y7.934 E22.0337
G1 X-.338 Y7.93 E22.06553
G1 X-.854 Y7.907 E22.0913
G1 X-8.586 Y7.432 E22.47778
G1 X-10.566 Y7.313 E22.57674
G1 X-21.887 Y6.623 E23.14259
G1 X-24.277 Y6.473 E23.26207
G1 X-24.711 Y6.38 E23.28421
G1 X-25.066 Y6.193 E23.30423
G1 X-25.367 Y5.903 E23.32508
G1 X-25.567 Y5.556 E23.34506
G1 X-25.682 Y5.105 E23.36828
G1 X-25.697 Y4.875 E23.37978
G1 X-25.696 Y-4.897 E23.86731
G1 X-25.628 Y-5.37 E23.89115
G1 X-25.466 Y-5.757 E23.91208
G1 X-25.208 Y-6.077 E23.93259
G1 X-24.878 Y-6.308 E23.95268
G1 X-24.461 Y-6.451 E23.97468
G1 X-24.237 Y-6.478 E23.98593
G1 X-.703 Y-7.916 E25.16224
G1 X0.001 Y-7.936 E25.19738
G1 X0.684 Y-7.921 E25.23146
G1 X1.372 Y-7.877 E25.26585
G1 X2.211 Y-7.777 E25.30801
G1 X2.925 Y-7.653 E25.34416
G1 X3.729 Y-7.47 E25.3853
G1 X4.379 Y-7.286 E25.419
G1 X5.003 Y-7.08 E25.45179
G1 X5.49 Y-6.897 E25.47774
G1 X6.089 Y-6.644 E25.51018
G1 X6.723 Y-6.343 E25.5452
G1 X7.22 Y-6.078 E25.5733
G1 X7.692 Y-5.803 E25.60055
G1 X8.184 Y-5.493 E25.62956
G1 X8.701 Y-5.136 E25.66091
G1 X9.19 Y-4.765 E25.69153
G1 X9.833 Y-4.23 E25.73326
G1 X10.402 Y-3.697 E25.77216
G1 X10.768 Y-3.325 E25.7982
G1 X11.144 Y-2.912 E25.82606
G1 X11.511 Y-2.477 E25.85445
G1 X11.825 Y-2.073 E25.87998
G1 X12.254 Y-1.475 E25.9167
G1 X12.533 Y-1.049 E25.94211
G1 X12.817 Y-.579 E25.9695
G0 F3600 X12.889 Y-.393
G0 X12.174 Y-0.056
;TYPE:SKIN
G1 F1800 X12.131 Y0.185 E25.98172
G1 X11.856 Y0.641 E26.00828
G1 X11.57 Y1.081 E26.03446
G1 X11.211 Y1.584 E26.06529
G1 X11.182 Y1.619 E26.06756
G1 X11.127 Y1.526 E26.07295
G1 X10.505 Y1.188 E26.10827
G1 X10.37 Y1.17 E26.11506
G1 X10.564 Y0.894 E26.1319
G1 X10.925 Y0.388 E26.16291
G1 X11.317 Y-.265 E26.2009
G1 X11.459 Y-.883 E26.23254
G1 X11.403 Y-1.305 E26.25378
G1 X11.865 Y-.627 E26.29471
G1 X12.174 Y-0.056 E26.3271
G0 F3600 X10.512 Y-2.433
G1 F1800 X9.903 Y-2.51 E26.35773
G1 X9.465 Y-2.504 E26.37958
G1 X7.844 Y-2.509 E26.46045
G1 X7.133 Y-2.396 E26.49637
G1 X6.777 Y-2.151 E26.51793
G1 X6.377 Y-2.423 E26.54206
G1 X5.794 Y-2.533 E26.57166
G1 X5.201 Y-2.331 E26.60292
G1 X4.806 Y-1.972 E26.62955
G1 X4.56 Y-1.563 E26.65336
G1 X4.458 Y-1.819 E26.66711
G1 X3.974 Y-2.281 E26.70049
G1 X3.431 Y-2.488 E26.72948
G1 X2.79 Y-2.495 E26.76146
G1 X2.241 Y-2.259 E26.79127
G1 X2.152 Y-2.146 E26.79845
G1 X1.669 Y-2.452 E26.82698
G1 X1.072 Y-2.525 E26.85698
G1 X0.455 Y-2.286 E26.88999
G1 X0.195 Y-2.039 E26.90789
G1 X0.157 Y-2.09 E26.91106
G1 X-.373 Y-2.439 E26.94272
G1 X-.937 Y-2.527 E26.9712
G1 X-1.587 Y-2.345 E27.00487
G1 X-2.074 Y-1.938 E27.03654
G1 X-2.33 Y-1.338 E27.06908
G1 X-2.279 Y-.699 E27.10106
G1 X-2.012 Y-0.091 E27.13419
G1 X-1.608 Y0.62 E27.17499
G1 X-1.528 Y0.743 E27.18231
G1 X-1.731 Y1.081 E27.20198
G1 X-2.036 Y0.758 E27.22414
G1 X-2.651 Y0.452 E27.25842
G1 X-3.204 Y0.366 E27.28634
G1 X-3.413 Y0.398 E27.29688
G1 X-3.394 Y0.187 E27.30745
G1 X-3.397 Y-.409 E27.33719
G1 X-3.472 Y-1.055 E27.36963
G1 X-3.641 Y-1.713 E27.40353
G1 X-3.904 Y-2.306 E27.43589
G1 X-4.264 Y-2.835 E27.46782
G1 X-4.82 Y-3.355 E27.5058
G1 X-5.469 Y-3.695 E27.54235
G1 X-6.307 Y-3.886 E27.58523
G1 X-7.006 Y-3.94 E27.62021
G1 X-7.67 Y-3.939 E27.65333
G1 X-8.188 Y-3.957 E27.67919
G1 X-8.817 Y-3.9 E27.7107
G1 X-9.433 Y-3.597 E27.74495
G1 X-9.82 Y-3.079 E27.77721
G1 X-9.833 Y-2.983 E27.78204
G1 X-10.258 Y-3.485 E27.81486
G1 X-10.759 Y-3.823 E27.84501
G1 X-11.454 Y-4.051 E27.8815
G1 X-12.208 Y-4.122 E27.91928
G1 X-12.865 Y-4.074 E27.95215
G1 X-13.507 Y-3.904 E27.98528
G1 X-14.086 Y-3.595 E28.01803
G1 X-14.182 Y-3.501 E28.02473
G1 X-14.701 Y-3.864 E28.05633
G1 X-15.276 Y-3.949 E28.08533
G1 X-16.022 Y-3.94 E28.12255
G1 X-16.198 Y-3.943 E28.13133
G1 X-16.766 Y-3.944 E28.15967
G1 X-17.21 Y-3.942 E28.18182
G1 X-18.013 Y-3.944 E28.22188
G1 X-18.538 Y-3.936 E28.24807
G1 X-19.239 Y-3.984 E28.28313
G1 X-19.838 Y-3.824 E28.31406
G1 X-20.263 Y-3.468 E28.34172
G1 X-20.311 Y-3.375 E28.34694
G1 X-20.776 Y-3.731 E28.37616
G1 X-21.46 Y-4.01 E28.41301
G1 X-22.126 Y-4.112 E28.44663
G1 X-22.893 Y-4.091 E28.48491
G1 X-23.588 Y-3.935 E28.52044
G1 X-24.295 Y-3.595 E28.55958
G1 X-24.861 Y-3.137 E28.59591
G1 X-24.906 Y-3.079 E28.59957
G1 X-24.906 Y-4.841 E28.68748
G1 X-24.861 Y-5.158 E28.70345
G1 X-24.78 Y-5.349 E28.7138
G1 X-24.526 Y-5.591 E28.7313
G1 X-24.141 Y-5.692 E28.75116
G1 X-.668 Y-7.126 E29.92442
G1 X0.007 Y-7.146 E29.95811
G1 X0.648 Y-7.131 E29.9901
G1 X1.3 Y-7.089 E30.02269
G1 X2.105 Y-6.993 E30.06314
G1 X2.767 Y-6.88 E30.09664
G1 X3.532 Y-6.705 E30.1358
G1 X4.136 Y-6.535 E30.1671
G1 X4.748 Y-6.332 E30.19927
G1 X5.197 Y-6.164 E30.22319
G1 X5.754 Y-5.928 E30.25337
G1 X6.366 Y-5.637 E30.28718
G1 X6.836 Y-5.387 E30.31373
G1 X7.325 Y-5.102 E30.34197
G1 X7.719 Y-4.854 E30.3652
G1 X8.23 Y-4.501 E30.39618
G1 X8.698 Y-4.146 E30.42549
G1 X9.31 Y-3.637 E30.4652
G1 X9.844 Y-3.137 E30.5017
G1 X10.512 Y-2.433 E30.55012
G0 F3600 X9.756 Y-2.688
G1 F1800 X8.02 Y-4.424 E30.6726
G1 X7.95 Y-4.494
G0 F3600 X8.058 Y-2.689
G1 F1800 X4.537 Y-6.21 E30.92103
G1 X4.467 Y-6.28
G0 F3600 X3.719 Y-6.462
G1 F1800 X7.539 Y-2.643 E31.19051
G0 F3600 X7.054 Y-2.561
G1 F1800 X2.968 Y-6.648 E31.47884
G0 F3600 X2.269 Y-6.781
G1 F1800 X6.482 Y-2.568 E31.77609
G0 F3600 X5.77 Y-2.714
G1 F1800 X1.617 Y-6.868 E32.06914
G0 F3600 X0.992 Y-6.926
G1 F1800 X5.347 Y-2.571 E32.37641
G0 F3600 X4.979 Y-2.374
G1 F1800 X0.398 Y-6.955 E32.69962
G0 F3600 X-.171 Y-6.96
G1 F1800 X4.683 Y-2.105 E33.04213
G1 X4.753 Y-2.035
G0 F3600 X3.609 Y-2.612
G1 F1800 X-.718 Y-6.94 E33.34746
G0 F3600 X-1.251 Y-6.908
G1 F1800 X2.983 Y-2.672 E33.64626
G0 F3600 X2.517 Y-2.573
G1 F1800 X-1.784 Y-6.875 E33.94976
G0 F3600 X-2.317 Y-6.843
G1 F1800 X2.124 Y-2.401 E34.26313
G1 X2.194 Y-2.331
G0 F3600 X1.279 Y-2.68
G1 F1800 X-2.851 Y-6.81 E34.55452
G0 F3600 X-3.384 Y-6.778
G1 F1800 X0.787 Y-2.607 E34.84881
G0 F3600 X0.379 Y-2.448
G1 F1800 X-3.917 Y-6.745 E35.15195
G0 F3600 X-4.45 Y-6.713
G1 F1800 X-.354 Y-2.617 E35.44095
G0 F3600 X-.999 Y-2.696
G1 F1800 X-4.983 Y-6.68 E35.72204
G0 F3600 X-5.516 Y-6.648
G1 F1800 X-1.441 Y-2.572 E36.00959
G0 F3600 X-1.819 Y-2.385
G1 F1800 X-6.05 Y-6.615 E36.30807
G0 F3600 X-6.583 Y-6.583
G1 F1800 X-2.127 Y-2.127 E36.62247
G0 F3600 X-2.339 Y-1.773
G1 F1800 X-7.116 Y-6.55 E36.95951
G0 F3600 X-7.649 Y-6.518
G1 F1800 X-2.508 Y-1.376 E37.32227
G0 F3600 X-2.463 Y-.766
G1 F1800 X-3.469 Y-1.772 E37.39325
G0 F3600 X-3.287 Y-1.024
G1 F1800 X-2.04 Y0.222 E37.4812
G0 F3600 X-2.505 Y0.323
G1 F1800 X-3.216 Y-.388 E37.53136
G1 X-3.286 Y-.458
G0 F3600 X-5.608 Y-3.911
G1 F1800 X-8.182 Y-6.485 E37.71297
G0 F3600 X-8.715 Y-6.453
G1 F1800 X-6.331 Y-4.068 E37.88121
G0 F3600 X-6.944 Y-4.116
G1 F1800 X-9.248 Y-6.419 E38.04374
G0 F3600 X-9.781 Y-6.387
G1 F1800 X-7.514 Y-4.12 E38.20369
G0 F3600 X-8.093 Y-4.133
G1 F1800 X-10.314 Y-6.354 E38.36039
G0 F3600 X-10.847 Y-6.322
G1 F1800 X-8.623 Y-4.097 E38.51734
G0 F3600 X-9.067 Y-3.976
G1 F1800 X-11.38 Y-6.289 E38.68053
G0 F3600 X-11.914 Y-6.257
G1 F1800 X-9.446 Y-3.79 E38.85463
G0 F3600 X-9.726 Y-3.503
G1 F1800 X-12.447 Y-6.224 E39.04661
G0 F3600 X-12.98 Y-6.192
G1 F1800 X-10.82 Y-4.032 E39.19901
G1 X-10.75 Y-3.962
G0 F3600 X-11.599 Y-4.245
G1 F1800 X-13.513 Y-6.159 E39.33405
G0 F3600 X-14.046 Y-6.127
G1 F1800 X-12.222 Y-4.302 E39.46278
G0 F3600 X-12.749 Y-4.263
G1 F1800 X-14.579 Y-6.094 E39.59193
G0 F3600 X-15.112 Y-6.062
G1 F1800 X-13.217 Y-4.166 E39.72567
G0 F3600 X-13.648 Y-4.031
G1 F1800 X-15.646 Y-6.029 E39.86664
G0 F3600 X-16.179 Y-5.996
G1 F1800 X-14.016 Y-3.834 E40.01922
G1 X-13.946 Y-3.764
G0 F3600 X-14.809 Y-4.061
G1 F1800 X-16.712 Y-5.964 E40.15348
G0 F3600 X-17.245 Y-5.931
G1 F1800 X-15.44 Y-4.126 E40.28084
G0 F3600 X-15.999 Y-4.12
G1 F1800 X-17.778 Y-5.899 E40.40635
G0 F3600 X-18.311 Y-5.866
G1 F1800 X-16.568 Y-4.123 E40.52933
G0 F3600 X-17.133 Y-4.122
G1 F1800 X-18.845 Y-5.834 E40.65012
G0 F3600 X-19.378 Y-5.801
G1 F1800 X-17.699 Y-4.123 E40.76855
G0 F3600 X-18.262 Y-4.12
G1 F1800 X-19.911 Y-5.769 E40.8849
G0 F3600 X-20.444 Y-5.736
G1 F1800 X-18.846 Y-4.138 E40.99764
G0 F3600 X-19.4 Y-4.127
G1 F1800 X-20.977 Y-5.703 E41.10887
G0 F3600 X-21.51 Y-5.67
G1 F1800 X-19.847 Y-4.007 E41.22621
G0 F3600 X-20.177 Y-3.773
G1 F1800 X-22.043 Y-5.638 E41.35783
G0 F3600 X-22.576 Y-5.605
G1 F1800 X-20.977 Y-4.007 E41.47061
G1 X-20.907 Y-3.937
G0 F3600 X-21.776 Y-4.24
G1 F1800 X-23.109 Y-5.573 E41.56466
G0 F3600 X-23.642 Y-5.54
G1 F1800 X-22.387 Y-4.285 E41.65321
G0 F3600 X-22.932 Y-4.265
G1 F1800 X-24.166 Y-5.498 E41.74024
G0 F3600 X-24.55 Y-5.317
G1 F1800 X-23.395 Y-4.162 E41.82173
G0 F3600 X-23.821 Y-4.022
G1 F1800 X-24.713 Y-4.914 E41.88467
G0 F3600 X-24.725 Y-4.36
G1 F1800 X-24.203 Y-3.838 E41.9215
G0 F3600 X-24.55 Y-3.62
G1 F1800 X-24.725 Y-3.795 E41.93384
G0 F3600 X5.456 Y-5.857
G1 F1800 X8.626 Y-2.687 E42.1575
G0 F3600 X9.193 Y-2.685
G1 F1800 X6.539 Y-5.34 E42.34479
G1 X6.469 Y-5.41
G0 F3600 X10.625 Y-1.723
G0 X11.522 Y-.357
G1 F1800 X11.965 Y0.086 E42.37605
G0 F3600 X11.761 Y0.447
G1 F1800 X11.347 Y0.033 E42.40526
G0 F3600 X11.134 Y0.386
G1 F1800 X11.542 Y0.794 E42.43405
G0 F3600 X11.313 Y1.13
G1 F1800 X10.906 Y0.724 E42.46273
G0 F3600 X10.899 Y-.91
G0 X10.625 Y-1.723
G0 X9.469 Y-1.954
G0 X-.903 Y-1.963
G0 X-3.991 Y0.7
G0 X-4.798 Y2.475
G0 X-5.851 Y3.152
G0 X-8.373 Y3.356
G0 X-9.205 Y2.865
G0 X-9.654 Y0.244
;TYPE:SKIN
G1 F1800 X-9.718 Y0.181 E42.46497
G0 F3600 X-9.654 Y-0.038
G1 F1800 X-9.895 Y-.278 E42.47345
G0 F3600 X-9.654 Y-.321
G1 F1800 X-9.977 Y-.643 E42.48483
G0 F3600 X-9.907 Y-.857
G1 F1800 X-9.654 Y-.603 E42.49377
G0 F3600 X-9.655 Y-.887
G1 F1800 X-9.84 Y-1.071 E42.50028
G0 F3600 X-9.654 Y-1.169
G1 F1800 X-9.787 Y-1.302 E42.50497
G0 F3600 X-9.651 Y-1.448
G1 F1800 X-9.77 Y-1.567 E42.50917
G0 F3600 X-9.647 Y-1.728
G1 F1800 X-9.751 Y-1.832 E42.51284
G0 F3600 X-9.652 Y-2.015
G1 F1800 X-9.78 Y-2.143 E42.51735
G0 F3600 X-9.677 Y-2.323
G1 F1800 X-9.86 Y-2.506 E42.52381
G0 F3600 X-9.67 Y-2.599
G1 F1800 X-9.845 Y-2.774 E42.52998
G0 F3600 X-11.003 Y-3.323
G0 X-12.213 Y-3.569
G0 X-13.306 Y-3.387
G0 X-14.076 Y-2.839
G0 X-14.007 Y-1.698
G0 X-12.827 Y-1.453
G0 X-13.964 Y-.936
;TYPE:SKIN
G1 F1800 X-14.021 Y-.827 E42.53612
G1 X-14.121 Y-.228 E42.56642
G1 X-14.014 Y0.312 E42.59388
G1 X-13.71 Y0.749 E42.62044
G1 X-13.81 Y0.76 E42.62546
G1 X-14.393 Y1.109 E42.65936
G1 X-14.737 Y1.677 E42.69249
G1 X-14.79 Y2.354 E42.72637
G1 X-14.616 Y2.938 E42.75677
G1 X-14.233 Y3.437 E42.78815
G1 X-13.744 Y3.759 E42.81736
G1 X-13.089 Y3.974 E42.85176
G1 X-12.452 Y4.046 E42.88374
G1 X-11.779 Y4.022 E42.91734
G1 X-11.066 Y3.847 E42.95396
G1 X-10.463 Y3.517 E42.98826
G1 X-9.957 Y3.046 E43.02275
G1 X-9.802 Y2.796 E43.03742
G1 X-9.76 Y3.008 E43.0482
G1 X-9.484 Y3.484 E43.07566
G1 X-8.97 Y3.842 E43.10691
G1 X-8.383 Y3.91 E43.13639
G1 X-7.748 Y3.863 E43.16815
G1 X-7.035 Y3.872 E43.20373
G1 X-6.375 Y3.826 E43.23674
G1 X-5.679 Y3.68 E43.27222
G1 X-4.998 Y3.366 E43.30963
G1 X-4.972 Y3.345 E43.3113
G1 X-4.959 Y3.379 E43.31311
G1 X-4.498 Y3.913 E43.34831
G1 X-3.885 Y4.257 E43.38338
G1 X-3.188 Y4.366 E43.41857
G1 X-2.496 Y4.228 E43.45378
G1 X-1.89 Y3.85 E43.48941
G1 X-1.823 Y3.764 E43.49485
G1 X-1.514 Y3.978 E43.5136
G1 X-.862 Y4.093 E43.54663
G1 X-.306 Y3.923 E43.57564
G1 X0.094 Y3.556 E43.60272
G1 X0.116 Y3.592 E43.60483
G1 X0.576 Y3.965 E43.63437
G1 X1.243 Y4.112 E43.66845
G1 X1.825 Y3.979 E43.69823
G1 X1.569 Y4.177 E43.71438
G1 X1.32 Y4.667 E43.7418
G1 X1.299 Y5.258 E43.7713
G1 X1.484 Y5.82 E43.80082
G1 X1.853 Y6.292 E43.83071
G1 X2.427 Y6.579 E43.86273
G1 X3.045 Y6.609 E43.8936
G1 X3.692 Y6.454 E43.92679
G1 X4.336 Y6.136 E43.96262
G1 X4.817 Y5.66 E43.99638
G1 X5.127 Y5.138 E44.02667
G1 X5.448 Y4.378 E44.06783
G1 X5.75 Y3.597 E44.10961
G1 X5.89 Y3.217 E44.12981
G1 X6.231 Y2.263 E44.18036
G1 X6.205 Y2.749 E44.20464
G1 X6.423 Y3.403 E44.23903
G1 X6.774 Y3.807 E44.26573
G1 X7.215 Y4.042 E44.29066
G1 X7.812 Y4.091 E44.32055
G1 X8.312 Y4.064 E44.34553
G1 X8.789 Y4.07 E44.36933
G1 X8.523 Y4.284 E44.38636
G1 X8.084 Y4.604 E44.41346
G1 X7.566 Y4.951 E44.44457
G1 X7.166 Y5.198 E44.46802
G1 X6.661 Y5.484 E44.49698
G1 X5.929 Y5.85 E44.53781
G1 X5.516 Y6.031 E44.5603
G1 X4.948 Y6.261 E44.59088
G1 X4.492 Y6.419 E44.61495
G1 X3.925 Y6.599 E44.64463
G1 X3.432 Y6.731 E44.67009
G1 X2.724 Y6.888 E44.70627
G1 X2.448 Y6.938 E44.72027
G1 X1.953 Y7.015 E44.74526
G1 X1.358 Y7.085 E44.77515
G1 X0.869 Y7.12 E44.79961
G1 X0.273 Y7.144 E44.82937
G1 X-.303 Y7.14 E44.85811
G1 X-.812 Y7.118 E44.88352
G1 X-8.537 Y6.643 E45.26965
G1 X-10.517 Y6.524 E45.36861
G1 X-21.838 Y5.834 E45.93447
G1 X-24.174 Y5.688 E46.05124
G1 X-24.44 Y5.63 E46.06482
G1 X-24.598 Y5.547 E46.07373
G1 X-24.738 Y5.412 E46.08343
G1 X-24.822 Y5.266 E46.09183
G1 X-24.907 Y4.826 E46.11419
G1 X-24.907 Y2.984 E46.20609
G1 X-24.679 Y3.235 E46.22301
G1 X-24.032 Y3.675 E46.26204
G1 X-23.421 Y3.916 E46.29481
G1 X-22.719 Y4.038 E46.33036
G1 X-21.95 Y4.027 E46.36873
G1 X-21.217 Y3.864 E46.40619
G1 X-20.61 Y3.562 E46.44001
G1 X-20.072 Y3.07 E46.47639
G1 X-19.712 Y2.43 E46.51302
G1 X-19.62 Y1.855 E46.54207
G1 X-19.862 Y1.213 E46.5763
G1 X-20.368 Y0.756 E46.61032
G1 X-20.955 Y0.554 E46.64129
G1 X-21.559 Y0.571 E46.67144
G1 X-22.1 Y0.832 E46.7014
G1 X-22.351 Y1.061 E46.71835
G1 X-22.648 Y1.014 E46.73336
G1 X-22.822 Y0.812 E46.74666
G1 X-22.91 Y0.496 E46.76302
G1 X-22.946 Y-0.005 E46.78808
G1 X-22.929 Y-.418 E46.8087
G1 X-22.842 Y-.83 E46.82971
G1 X-22.703 Y-1.049 E46.84265
G1 X-22.458 Y-1.124 E46.85544
G1 X-22.374 Y-1.088 E46.86
G1 X-21.889 Y-.795 E46.88826
G1 X-21.272 Y-.602 E46.92052
G1 X-20.701 Y-.654 E46.94912
G1 X-20.138 Y-.986 E46.98173
G1 X-19.988 Y-1.212 E46.99526
G1 X-19.947 Y-1.169 E46.99823
G1 X-19.387 Y-.971 E47.02786
G1 X-18.874 Y-.98 E47.05346
G1 X-18.696 Y-1.001 E47.0624
G1 X-18.707 Y-.802 E47.07234
G1 X-18.698 Y0.091 E47.1169
G1 X-18.703 Y1.335 E47.17896
G1 X-18.691 Y1.954 E47.20985
G1 X-18.739 Y2.62 E47.24316
G1 X-18.575 Y3.216 E47.274
G1 X-18.194 Y3.639 E47.30241
G1 X-17.588 Y3.884 E47.33502
G1 X-16.954 Y3.889 E47.36665
G1 X-16.335 Y3.614 E47.40044
G1 X-15.933 Y3.105 E47.4328
G1 X-15.764 Y2.451 E47.4665
G1 X-15.782 Y1.661 E47.50592
G1 X-15.783 Y1.424 E47.51775
G1 X-15.779 Y0.808 E47.54848
G1 X-15.78 Y-.598 E47.61863
G1 X-15.778 Y-1.001 E47.63873
G1 X-15.721 Y-1 E47.64158
G1 X-15.07 Y-1.04 E47.67412
G1 X-14.467 Y-1.26 E47.70614
G1 X-14.41 Y-1.318 E47.7102
G1 X-13.964 Y-.936 E47.73949
G0 F3600 X-14.235 Y-2.421
G0 X-13.759 Y-3.145
G0 X-12.771 Y-3.529
G0 X-6.39 Y-3.34
G0 X1.478 Y-1.92
G0 X2.04 Y-1.324
G0 X1.828 Y0.704
G1 F1800 X2.081 Y0.271 E47.76451
G1 X2.343 Y0.948 E47.80073
G1 X2.619 Y1.678 E47.83967
G1 X2.823 Y2.238 E47.8694
G1 X3.029 Y2.698 E47.89455
G1 X3.002 Y2.781 E47.8989
G1 X2.724 Y3.444 E47.93477
G1 X2.584 Y3.667 E47.9479
G1 X2.054 Y3.828 E47.97554
G1 X2.409 Y3.559 E47.99776
G1 X2.679 Y2.93 E48.03191
G1 X2.651 Y2.248 E48.06596
G1 X2.426 Y1.715 E48.09483
G1 X1.951 Y0.916 E48.1412
G1 X1.828 Y0.704 E48.15343
G0 F3600 X2.791 Y4.179
G0 X2.004 Y4.537
G0 X1.977 Y5.557
G0 X2.994 Y6.054
G0 X4.012 Y5.681
G0 X6.498 Y1.514
G1 F1800 X6.711 Y0.917 E48.18505
G1 X6.94 Y0.228 E48.22128
G1 X7.314 Y0.366 E48.24116
G1 X6.904 Y0.936 E48.27619
G1 X6.498 Y1.514 E48.31143
G0 F3600 X6.912 Y3.125
G0 X7.901 Y4.507
G1 F1800 X7.652 Y4.258 E48.329
G0 F3600 X7.563 Y4.735
G1 F1800 X6.914 Y4.086 E48.37479
G1 X6.844 Y4.016
G0 F3600 X7.216 Y4.953
G1 F1800 X5.919 Y3.656 E48.4663
G0 F3600 X6.233 Y3.404
G1 F1800 X6.07 Y3.242 E48.47777
G0 F3600 X5.761 Y4.064
G1 F1800 X6.859 Y5.162 E48.55524
G0 F3600 X6.495 Y5.364
G1 F1800 X5.602 Y4.471 E48.61824
G0 F3600 X5.434 Y4.869
G1 F1800 X6.118 Y5.552 E48.66647
G0 F3600 X5.736 Y5.736
G1 F1800 X5.261 Y5.261 E48.69998
G0 F3600 X5.05 Y5.616
G1 F1800 X5.34 Y5.906 E48.72044
G0 F3600 X4.938 Y6.069
G1 F1800 X4.799 Y5.93 E48.73025
G0 F3600 X2.259 Y6.784
G1 F1800 X2.082 Y6.607 E48.74274
G0 F3600 X1.763 Y6.854
G1 F1800 X-.822 Y4.268 E48.92516
G0 F3600 X-.388 Y4.136
G1 F1800 X1.295 Y5.82 E49.04394
G0 F3600 X1.125 Y5.085
G1 F1800 X-0.038 Y3.921 E49.12603
G1 X-.108 Y3.851
G0 F3600 X0.803 Y4.198
G1 F1800 X1.17 Y4.565 E49.15193
G0 F3600 X1.255 Y6.911
G1 F1800 X-1.492 Y4.164 E49.34574
G0 F3600 X-2.056 Y4.166
G1 F1800 X0.721 Y6.944 E49.54171
G0 F3600 X0.174 Y6.962
G1 F1800 X-2.404 Y4.383 E49.72364
G0 F3600 X-2.868 Y4.485
G1 F1800 X-.399 Y6.954 E49.89784
G0 F3600 X-.994 Y6.925
G1 F1800 X-3.406 Y4.513 E50.06802
G1 X-3.476 Y4.443
G0 F3600 X-4.197 Y4.287
G1 F1800 X-1.597 Y6.887 E50.25146
G0 F3600 X-2.199 Y6.851
G1 F1800 X-5.331 Y3.719 E50.47244
G0 F3600 X-5.739 Y3.877
G1 F1800 X-2.802 Y6.814 E50.67966
G0 F3600 X-3.405 Y6.776
G1 F1800 X-6.206 Y3.975 E50.87729
G0 F3600 X-6.716 Y4.031
G1 F1800 X-4.007 Y6.74 E51.06842
G0 F3600 X-4.61 Y6.703
G1 F1800 X-7.264 Y4.049 E51.25568
G0 F3600 X-7.829 Y4.049
G1 F1800 X-5.213 Y6.665 E51.44025
G0 F3600 X-5.815 Y6.629
G1 F1800 X-8.356 Y4.088 E51.61953
G0 F3600 X-8.99 Y4.02
G1 F1800 X-6.418 Y6.592 E51.801
G0 F3600 X-7.021 Y6.554
G1 F1800 X-10.126 Y3.449 E52.02007
G0 F3600 X-10.435 Y3.706
G1 F1800 X-7.624 Y6.518 E52.21844
G0 F3600 X-8.227 Y6.48
G1 F1800 X-10.8 Y3.907 E52.39998
G0 F3600 X-11.206 Y4.067
G1 F1800 X-8.828 Y6.444 E52.56772
G0 F3600 X-9.43 Y6.408
G1 F1800 X-11.66 Y4.179 E52.72503
G0 F3600 X-12.187 Y4.217
G1 F1800 X-10.032 Y6.372 E52.87707
G0 F3600 X-10.634 Y6.335
G1 F1800 X-12.78 Y4.19 E53.02845
G0 F3600 X-13.511 Y4.024
G1 F1800 X-11.237 Y6.298 E53.18889
G0 F3600 X-11.839 Y6.262
G1 F1800 X-15.592 Y2.509 E53.45369
G0 F3600 X-15.708 Y2.959
G1 F1800 X-12.441 Y6.226 E53.68419
G0 F3600 X-13.043 Y6.189
G1 F1800 X-15.89 Y3.342 E53.88506
G0 F3600 X-16.141 Y3.657
G1 F1800 X-13.646 Y6.152 E54.0611
G0 F3600 X-14.248 Y6.115
G1 F1800 X-16.485 Y3.879 E54.2189
G0 F3600 X-16.877 Y4.053
G1 F1800 X-14.851 Y6.078 E54.36181
G0 F3600 X-15.453 Y6.042
G1 F1800 X-17.43 Y4.065 E54.50129
G1 X-17.5 Y3.995
G0 F3600 X-18.254 Y3.807
G1 F1800 X-16.056 Y6.005 E54.65638
G0 F3600 X-16.658 Y5.968
G1 F1800 X-19.753 Y2.873 E54.87474
G0 F3600 X-19.97 Y3.222
G1 F1800 X-17.261 Y5.931 E55.06588
G0 F3600 X-17.863 Y5.895
G1 F1800 X-20.265 Y3.493 E55.23535
G0 F3600 X-20.576 Y3.747
G1 F1800 X-18.466 Y5.858 E55.38426
G0 F3600 X-19.068 Y5.821
G1 F1800 X-20.955 Y3.935 E55.51736
G0 F3600 X-21.373 Y4.082
G1 F1800 X-19.671 Y5.784 E55.63745
G0 F3600 X-20.273 Y5.748
G1 F1800 X-21.834 Y4.186 E55.74762
G0 F3600 X-22.373 Y4.213
G1 F1800 X-20.875 Y5.712 E55.85335
G0 F3600 X-21.477 Y5.675
G1 F1800 X-22.977 Y4.175 E55.95918
G0 F3600 X-23.731 Y3.986
G1 F1800 X-22.08 Y5.637 E56.07567
G0 F3600 X-22.683 Y5.6
G1 F1800 X-24.726 Y3.558 E56.21978
G0 F3600 X-24.726 Y4.123
G1 F1800 X-23.287 Y5.562 E56.32131
G0 F3600 X-23.891 Y5.524
G1 F1800 X-24.726 Y4.689 E56.38022
G1 X-24.796 Y4.619
G0 F3600 X-21.4 Y3.34
G0 X-20.507 Y2.72
G0 X-20.189 Y1.912
G0 X-20.655 Y1.24
G0 X-22.364 Y0.828
G1 F1800 X-22.732 Y0.461 E56.40615
G0 F3600 X-22.76 Y-.132
G1 F1800 X-22.029 Y0.598 E56.45769
G0 F3600 X-21.647 Y0.414
G1 F1800 X-22.698 Y-.636 E56.53181
G0 F3600 X-22.375 Y-.879
G1 F1800 X-21.117 Y0.378 E56.62053
G0 F3600 X-20.363 Y0.566
G1 F1800 X-21.375 Y-.444 E56.69186
G0 F3600 X-20.825 Y-.461
G1 F1800 X-18.879 Y1.485 E56.82916
G0 F3600 X-18.879 Y0.919
G1 F1800 X-20.412 Y-.613 E56.93729
G0 F3600 X-20.057 Y-.823
G1 F1800 X-18.878 Y0.354 E57.02041
G0 F3600 X-18.88 Y-.212
G1 F1800 X-19.48 Y-.812 E57.06274
G1 X-19.55 Y-.882
G0 F3600 X-19.64 Y1.289
G1 F1800 X-18.876 Y2.053 E57.11664
G0 F3600 X-18.915 Y2.58
G1 F1800 X-19.465 Y2.03 E57.15545
G0 F3600 X-19.55 Y2.511
G1 F1800 X-18.55 Y3.51 E57.22597
G1 X-18.48 Y3.58
G0 F3600 X-17.069 Y3.337
G0 X-15.595 Y1.941
G1 F1800 X-14.889 Y2.646 E57.27575
G0 F3600 X-14.943 Y2.027
G1 F1800 X-15.602 Y1.368 E57.32224
G0 F3600 X-15.599 Y0.805
G1 F1800 X-14.864 Y1.54 E57.3741
G0 F3600 X-14.65 Y1.188
G1 F1800 X-15.599 Y0.239 E57.44106
G0 F3600 X-15.599 Y-.325
G1 F1800 X-14.381 Y0.891 E57.52692
G0 F3600 X-14.027 Y0.68
G1 F1800 X-15.537 Y-.83 E57.63346
G0 F3600 X-15.011 Y-.869
G1 F1800 X-14.285 Y-.143 E57.68468
G0 F3600 X-14.231 Y-.654
G1 F1800 X-14.596 Y-1.02 E57.71047
G0 F3600 X-16.437 Y2.853
G0 X-17.477 Y3.334
G0 X-21.209 Y-1.161
G0 X-20.279 Y-1.769
G0 X-20.573 Y-2.881
G0 X-21.608 Y-3.476
G0 X-22.825 Y-3.542
G0 X-23.995 Y-3.128
G0 X-24.796 Y-2.32
G0 X-25.256 Y-1.424
G0 X-25.195 Y-1.437
;TYPE:SKIN
G1 F1800 X-25.358 Y-1.317 E57.71658
G1 X-25.404 Y0.333 E57.7664
G1 X-25.351 Y1.234 E57.79363
G0 F3600 X-25.444 Y1.425
G1 F1800 X-25.501 Y1.368 E57.79565
;MESH:NONMESH
G0 F600 X-25.501 Y1.368 Z0.5
G0 F3600 X-25.397 Y1.368
G0 X-24.761 Y2.326
G0 X-23.771 Y3.186
G0 X-7.62 Y7.192
G0 X-7.625 Y7.258
;TIME_ELAPSED:47.426743
;LAYER:1
M106 S255
;TYPE:WALL-INNER
;MESH:benchy.stl
G1 F2700 X-24.307 Y6.212 E58.35158
G1 X-24.669 Y6.14 E58.36386
G1 X-24.944 Y6 E58.37412
G1 X-25.158 Y5.796 E58.38395
G1 X-25.328 Y5.488 E58.39565
G1 X-25.416 Y4.954 E58.41365
G1 X-25.415 Y-4.972 E58.74379
G1 X-25.361 Y-5.385 E58.75765
G1 X-25.244 Y-5.672 E58.76796
G1 X-25.057 Y-5.908 E58.77797
G1 X-24.812 Y-6.08 E58.78793
G1 X-24.321 Y-6.211 E58.80483
G1 X-8.383 Y-7.212 E59.33597
G1 X-.757 Y-7.694 E59.59012
G1 X-.142 Y-7.715 E59.61059
G1 X0.6 Y-7.705 E59.63527
G1 X1.168 Y-7.673 E59.65419
G1 X1.749 Y-7.616 E59.67361
G1 X2.293 Y-7.542 E59.69187
G1 X2.853 Y-7.443 E59.71078
G1 X3.386 Y-7.331 E59.7289
G1 X4.033 Y-7.164 E59.75112
G1 X4.544 Y-7.011 E59.76886
G1 X5.042 Y-6.842 E59.78636
G1 X5.535 Y-6.653 E59.80392
G1 X6.107 Y-6.41 E59.82459
G1 X6.684 Y-6.134 E59.84586
G1 X7.255 Y-5.828 E59.86741
G1 X7.822 Y-5.494 E59.88929
G1 X8.337 Y-5.16 E59.90971
G1 X9.012 Y-4.672 E59.93741
G1 X9.577 Y-4.215 E59.96158
G1 X9.965 Y-3.875 E59.97874
G1 X10.308 Y-3.552 E59.99441
G1 X10.782 Y-3.068 E60.01694
G1 X11.228 Y-2.57 E60.03918
G1 X11.653 Y-2.052 E60.06147
G1 X11.961 Y-1.642 E60.07852
G1 X12.327 Y-1.113 E60.09992
G1 X12.683 Y-.545 E60.12221
G1 X12.861 Y-.168 E60.13608
G1 X12.88 Y0.06 E60.14369
G1 X12.816 Y0.306 E60.15214
G1 X12.564 Y0.738 E60.16878
G1 X12.239 Y1.246 E60.18883
G1 X11.941 Y1.671 E60.2061
G1 X11.574 Y2.154 E60.22627
G1 X11.255 Y2.542 E60.24298
G1 X10.906 Y2.931 E60.26036
G1 X10.546 Y3.311 E60.27777
G1 X10.183 Y3.667 E60.29468
G1 X9.813 Y4.007 E60.3114
G1 X9.306 Y4.44 E60.33357
G1 X8.73 Y4.883 E60.35774
G1 X8.268 Y5.205 E60.37647
G1 X7.861 Y5.468 E60.39259
G1 X7.422 Y5.731 E60.40961
G1 X6.971 Y5.982 E60.42678
G1 X6.354 Y6.295 E60.44979
G1 X5.892 Y6.503 E60.46664
G1 X5.416 Y6.7 E60.48377
G1 X4.962 Y6.868 E60.49987
G1 X4.47 Y7.032 E60.51712
G1 X3.911 Y7.197 E60.53651
G1 X3.264 Y7.358 E60.55868
G1 X2.523 Y7.506 E60.58382
G1 X2.015 Y7.583 E60.60091
G1 X1.417 Y7.652 E60.62093
G1 X0.89 Y7.691 E60.6385
G1 X0.264 Y7.715 E60.65934
G1 X-.502 Y7.706 E60.68482
G1 X-.741 Y7.696 E60.69278
G1 X-4.77 Y7.439 E60.82705
G1 X-6.184 Y7.351 E60.87417
G1 X-6.927 Y7.302 E60.89894
G1 X-7.608 Y7.262 E60.92163
G1 X-7.625 Y7.258 E60.92221
G0 F5400 X-7.677 Y7.656
;TYPE:WALL-OUTER
G1 F1800 X-24.358 Y6.609 E61.47811
G1 X-24.802 Y6.521 E61.49317
G1 X-25.179 Y6.329 E61.50724
G1 X-25.477 Y6.045 E61.52093
G1 X-25.705 Y5.632 E61.53662
G1 X-25.801 Y5.235 E61.55021
G1 X-25.816 Y4.954 E61.55957
G1 X-25.815 Y-5 E61.89064
G1 X-25.752 Y-5.486 E61.90694
G1 X-25.592 Y-5.877 E61.92099
G1 X-25.335 Y-6.201 E61.93474
G1 X-24.994 Y-6.441 E61.94861
G1 X-24.577 Y-6.582 E61.96325
G1 X-24.364 Y-6.609 E61.97039
G1 X-8.408 Y-7.611 E62.50214
G1 X-.771 Y-8.094 E62.75665
G1 X-.151 Y-8.115 E62.77729
G1 X0.605 Y-8.105 E62.80243
G1 X1.205 Y-8.071 E62.82242
G1 X1.788 Y-8.014 E62.84191
G1 X2.363 Y-7.936 E62.8612
G1 X2.923 Y-7.837 E62.88012
G1 X3.477 Y-7.72 E62.89895
G1 X4.137 Y-7.55 E62.92162
G1 X4.673 Y-7.39 E62.94022
G1 X5.179 Y-7.218 E62.958
G1 X5.678 Y-7.027 E62.97577
G1 X6.28 Y-6.771 E62.99753
G1 X6.867 Y-6.49 E63.01917
G1 X7.444 Y-6.181 E63.04094
G1 X8.04 Y-5.83 E63.06395
G1 X8.555 Y-5.496 E63.08437
G1 X9.264 Y-4.983 E63.11347
G1 X9.841 Y-4.516 E63.13816
G1 X10.229 Y-4.176 E63.15532
G1 X10.594 Y-3.832 E63.172
G1 X11.068 Y-3.348 E63.19453
G1 X11.526 Y-2.837 E63.21736
G1 X11.973 Y-2.292 E63.2408
G1 X12.29 Y-1.87 E63.25836
G1 X12.656 Y-1.341 E63.27975
G1 X13.037 Y-.733 E63.30362
G1 X13.254 Y-.274 E63.3205
G1 X13.285 Y0.095 E63.33282
G1 X13.189 Y0.46 E63.34537
G1 X12.91 Y0.939 E63.36381
G1 X12.567 Y1.476 E63.385
G1 X12.269 Y1.901 E63.40227
G1 X11.883 Y2.408 E63.42346
G1 X11.553 Y2.809 E63.44073
G1 X11.204 Y3.198 E63.45811
G1 X10.826 Y3.597 E63.4764
G1 X10.454 Y3.962 E63.49373
G1 X10.084 Y4.302 E63.51044
G1 X9.558 Y4.751 E63.53344
G1 X8.966 Y5.206 E63.55828
G1 X8.492 Y5.536 E63.57749
G1 X8.067 Y5.811 E63.59432
G1 X7.617 Y6.081 E63.61178
G1 X7.166 Y6.332 E63.62895
G1 X6.519 Y6.66 E63.65307
G1 X6.056 Y6.869 E63.66997
G1 X5.569 Y7.07 E63.68749
G1 X5.088 Y7.248 E63.70455
G1 X4.592 Y7.413 E63.72194
G1 X4.024 Y7.581 E63.74164
G1 X3.352 Y7.748 E63.76467
G1 X2.596 Y7.899 E63.79031
G1 X2.065 Y7.98 E63.80817
G1 X1.446 Y8.051 E63.8289
G1 X0.905 Y8.091 E63.84694
G1 X0.274 Y8.115 E63.86794
G1 X-.52 Y8.106 E63.89435
G1 X-.759 Y8.095 E63.90231
G1 X-4.795 Y7.838 E64.03682
G1 X-6.209 Y7.75 E64.08394
G1 X-6.952 Y7.701 E64.10871
G1 X-7.662 Y7.659 E64.13236
G1 X-7.677 Y7.656 E64.13287
G0 F5400 X-7.876 Y7.644
G0 X-7.568 Y6.87
;TYPE:SKIN
G1 F1800 X-24.266 Y5.823 E64.68934
G1 X-24.54 Y5.768 E64.69863
G1 X-24.713 Y5.681 E64.70508
G1 X-24.847 Y5.553 E64.71124
G1 X-24.955 Y5.357 E64.71868
G1 X-25.026 Y4.926 E64.73321
G1 X-25.025 Y-4.951 E65.06172
G1 X-24.981 Y-5.283 E65.07286
G1 X-24.905 Y-5.473 E65.07967
G1 X-24.788 Y-5.62 E65.08591
G1 X-24.644 Y-5.721 E65.09176
G1 X-24.26 Y-5.823 E65.10498
G1 X-8.358 Y-6.822 E65.63492
G1 X-.732 Y-7.304 E65.88907
G1 X-.134 Y-7.325 E65.90897
G1 X0.578 Y-7.315 E65.93266
G1 X1.146 Y-7.283 E65.95158
G1 X1.71 Y-7.228 E65.97043
G1 X2.225 Y-7.158 E65.98771
G1 X2.773 Y-7.061 E66.00622
G1 X3.299 Y-6.95 E66.0241
G1 X3.928 Y-6.788 E66.04571
G1 X4.449 Y-6.632 E66.0638
G1 X4.879 Y-6.486 E66.0789
G1 X5.389 Y-6.291 E66.09706
G1 X5.955 Y-6.051 E66.11751
G1 X6.5 Y-5.791 E66.13759
G1 X7.057 Y-5.492 E66.15862
G1 X7.617 Y-5.162 E66.18024
G1 X8.117 Y-4.838 E66.20005
G1 X8.767 Y-4.368 E66.22673
G1 X9.326 Y-3.916 E66.25064
G1 X9.703 Y-3.586 E66.26731
G1 X10.029 Y-3.279 E66.2822
G1 X10.497 Y-2.801 E66.30445
G1 X10.926 Y-2.322 E66.32584
G1 X11.351 Y-1.804 E66.34812
G1 X11.649 Y-1.408 E66.36461
G1 X12.002 Y-.898 E66.38524
G1 X12.339 Y-.361 E66.40632
G1 X12.486 Y0.023 E66.42
G1 X12.451 Y0.156 E66.42457
G1 X12.231 Y0.535 E66.43915
G1 X11.919 Y1.022 E66.45838
G1 X11.621 Y1.447 E66.47565
G1 X11.273 Y1.906 E66.49481
G1 X10.959 Y2.287 E66.51123
G1 X10.623 Y2.662 E66.52797
G1 X10.273 Y3.032 E66.54491
G1 X9.914 Y3.384 E66.56164
G1 X9.554 Y3.715 E66.5779
G1 X9.068 Y4.13 E66.59916
G1 X8.499 Y4.568 E66.62304
G1 X8.056 Y4.877 E66.64101
G1 X7.66 Y5.133 E66.65669
G1 X7.221 Y5.396 E66.67371
G1 X6.782 Y5.641 E66.69043
G1 X6.194 Y5.94 E66.71237
G1 X5.743 Y6.142 E66.72881
G1 X5.274 Y6.337 E66.7457
G1 X4.359 Y6.658 E66.77795
G1 X3.8 Y6.823 E66.79734
G1 X3.178 Y6.978 E66.81866
G1 X2.465 Y7.12 E66.84284
G1 X1.97 Y7.195 E66.85949
G1 X1.37 Y7.265 E66.87958
G1 X0.868 Y7.301 E66.89632
G1 X0.253 Y7.325 E66.91679
G1 X-.486 Y7.316 E66.94137
G1 X-.716 Y7.306 E66.94903
G1 X-4.745 Y7.049 E67.08331
G1 X-6.159 Y6.961 E67.13043
G1 X-6.903 Y6.912 E67.15523
G1 X-7.552 Y6.874 E67.17685
G1 X-7.568 Y6.87 E67.1774
G0 F5400 X10.658 Y2.352
G1 F1800 X9.408 Y3.602 E67.23619
G1 X9.338 Y3.672
G0 F5400 X7.317 Y5.127
G1 F1800 X12.176 Y0.268 E67.46475
G0 F5400 X12.169 Y-.289
G1 F1800 X6.091 Y5.787 E67.75059
G1 X6.021 Y5.857
G0 F5400 X5.11 Y6.203
G1 F1800 X11.951 Y-.637 E68.07235
G0 F5400 X11.725 Y-.977
G1 F1800 X4.244 Y6.503 E68.42421
G1 X4.174 Y6.573
G0 F5400 X3.46 Y6.721
G1 F1800 X11.494 Y-1.312 E68.80208
G0 F5400 X11.251 Y-1.634
G1 F1800 X2.733 Y6.882 E69.20269
G0 F5400 X2.05 Y7
G1 F1800 X10.998 Y-1.947 E69.62355
G0 F5400 X10.741 Y-2.256
G1 F1800 X1.406 Y7.078 E70.06262
G0 F5400 X0.796 Y7.123
G1 F1800 X10.474 Y-2.554 E70.51782
G0 F5400 X10.199 Y-2.845
G1 F1800 X0.21 Y7.143 E70.98765
G0 F5400 X-.349 Y7.137
G1 F1800 X9.92 Y-3.131 E71.47065
G0 F5400 X9.63 Y-3.407
G1 F1800 X-.891 Y7.114 E71.96552
G0 F5400 X-1.423 Y7.08
G1 F1800 X9.33 Y-3.673 E72.47131
G0 F5400 X9.021 Y-3.93
G1 F1800 X-1.954 Y7.045 E72.98754
G0 F5400 X-2.486 Y7.011
G1 F1800 X8.708 Y-4.183 E73.51407
G0 F5400 X8.383 Y-4.423
G1 F1800 X-3.017 Y6.977 E74.05029
G0 F5400 X-3.549 Y6.943
G1 F1800 X8.055 Y-4.661 E74.59611
G0 F5400 X7.713 Y-4.884
G1 F1800 X-4.081 Y6.909 E75.15084
G0 F5400 X-4.613 Y6.875
G1 F1800 X7.364 Y-5.101 E75.71418
G0 F5400 X7.008 Y-5.311
G1 F1800 X-5.145 Y6.842 E76.28582
G0 F5400 X-5.678 Y6.81
G1 F1800 X6.641 Y-5.51 E76.86529
G0 F5400 X6.267 Y-5.702
G1 F1800 X-6.211 Y6.776 E77.45222
G0 F5400 X-6.741 Y6.741
G1 F1800 X5.884 Y-5.884 E78.04606
G0 F5400 X5.487 Y-6.053
G1 F1800 X-7.275 Y6.709 E78.64634
G0 F5400 X-7.807 Y6.675
G1 F1800 X5.083 Y-6.214 E79.25263
G0 F5400 X4.669 Y-6.366
G1 F1800 X-8.338 Y6.641 E79.86444
G0 F5400 X-8.871 Y6.608
G1 F1800 X4.241 Y-6.504 E80.48118
G0 F5400 X3.804 Y-6.632
G1 F1800 X-9.403 Y6.575 E81.1024
G0 F5400 X-9.936 Y6.542
G1 F1800 X3.355 Y-6.749 E81.72757
G0 F5400 X2.892 Y-6.851
G1 F1800 X-10.468 Y6.508 E82.35596
G0 F5400 X-11 Y6.474
G1 F1800 X2.415 Y-6.94 E82.98694
G0 F5400 X1.925 Y-7.016
G1 F1800 X-11.532 Y6.441 E83.61991
G0 F5400 X-12.065 Y6.408
G1 F1800 X1.418 Y-7.075 E84.25411
G0 F5400 X0.893 Y-7.116
G1 F1800 X-12.597 Y6.375 E84.88866
G0 F5400 X-13.13 Y6.342
G1 F1800 X0.35 Y-7.138 E85.52272
G0 F5400 X-.212 Y-7.141
G1 F1800 X-13.662 Y6.308 E86.15534
G0 F5400 X-14.194 Y6.274
G1 F1800 X-.801 Y-7.118 E86.78529
G0 F5400 X-1.405 Y-7.08
G1 F1800 X-14.726 Y6.241 E87.41186
G0 F5400 X-15.259 Y6.208
G1 F1800 X-2.008 Y-7.042 E88.03513
G0 F5400 X-2.612 Y-7.004
G1 F1800 X-15.791 Y6.174 E88.655
G0 F5400 X-16.323 Y6.141
G1 F1800 X-3.215 Y-6.966 E89.27154
G0 F5400 X-3.819 Y-6.928
G1 F1800 X-16.856 Y6.107 E89.88471
G0 F5400 X-17.388 Y6.074
G1 F1800 X-4.423 Y-6.89 E90.49452
G0 F5400 X-5.027 Y-6.851
G1 F1800 X-17.92 Y6.041 E91.10095
G0 F5400 X-18.452 Y6.007
G1 F1800 X-5.63 Y-6.814 E91.70403
G0 F5400 X-6.234 Y-6.776
G1 F1800 X-18.985 Y5.974 E92.30378
G0 F5400 X-19.517 Y5.941
G1 F1800 X-6.838 Y-6.738 E92.90016
G0 F5400 X-7.442 Y-6.699
G1 F1800 X-20.05 Y5.907 E93.49315
G0 F5400 X-20.582 Y5.874
G1 F1800 X-8.046 Y-6.661 E94.08278
G0 F5400 X-8.65 Y-6.623
G1 F1800 X-21.114 Y5.84 E94.66903
G0 F5400 X-21.646 Y5.807
G1 F1800 X-9.253 Y-6.585 E95.25193
G0 F5400 X-9.857 Y-6.547
G1 F1800 X-22.179 Y5.774 E95.8315
G0 F5400 X-22.711 Y5.74
G1 F1800 X-10.46 Y-6.509 E96.4077
G0 F5400 X-11.064 Y-6.472
G1 F1800 X-23.243 Y5.707 E96.98056
G0 F5400 X-23.775 Y5.673
G1 F1800 X-11.667 Y-6.433 E97.55004
G0 F5400 X-12.271 Y-6.396
G1 F1800 X-24.301 Y5.633 E98.11587
G0 F5400 X-24.688 Y5.455
G1 F1800 X-12.875 Y-6.358 E98.67152
G0 F5400 X-13.478 Y-6.32
G1 F1800 X-24.825 Y5.026 E99.20522
G0 F5400 X-24.844 Y4.479
G1 F1800 X-14.082 Y-6.282 E99.71141
G0 F5400 X-14.685 Y-6.244
G1 F1800 X-24.844 Y3.913 E100.18921
G0 F5400 X-24.844 Y3.348
G1 F1800 X-15.289 Y-6.206 E100.63863
G0 F5400 X-15.892 Y-6.168
G1 F1800 X-24.844 Y2.782 E101.05965
G0 F5400 X-24.844 Y2.216
G1 F1800 X-16.496 Y-6.13 E101.45227
G0 F5400 X-17.1 Y-6.092
G1 F1800 X-24.844 Y1.651 E101.8165
G0 F5400 X-24.844 Y1.085
G1 F1800 X-17.703 Y-6.054 E102.15235
G0 F5400 X-18.307 Y-6.016
G1 F1800 X-24.844 Y0.519 E102.45978
G0 F5400 X-24.844 Y-0.045
G1 F1800 X-18.911 Y-5.978 E102.73885
G0 F5400 X-19.514 Y-5.941
G1 F1800 X-24.844 Y-.611 E102.98956
G0 F5400 X-24.844 Y-1.177
G1 F1800 X-20.118 Y-5.902 E103.21183
G0 F5400 X-20.721 Y-5.865
G1 F1800 X-24.844 Y-1.743 E103.40574
G0 F5400 X-24.844 Y-2.308
G1 F1800 X-21.325 Y-5.827 E103.57126
G0 F5400 X-21.929 Y-5.789
G1 F1800 X-24.844 Y-2.874 E103.70837
G0 F5400 X-24.844 Y-3.44
G1 F1800 X-22.532 Y-5.751 E103.8171
G0 F5400 X-23.136 Y-5.713
G1 F1800 X-24.844 Y-4.005 E103.89744
G0 F5400 X-24.844 Y-4.571
G1 F1800 X-23.74 Y-5.675 E103.94937
G0 F5400 X-24.374 Y-5.606
G1 F1800 X-24.814 Y-5.166 E103.97006
;MESH:NONMESH
G0 F600 X-24.814 Y-5.166 Z0.7
G0 F5400 X12.604 Y-.479
G0 X12.89 Y-.613
;TIME_ELAPSED:95.056853
;LAYER:2
;TYPE:WALL-INNER
;MESH:benchy.stl
G1 F3600 X13.094 Y-.217 E103.98488
G1 X13.13 Y0.026 E103.99305
G1 X13.082 Y0.256 E104.00087
G1 X12.874 Y0.641 E104.01542
G1 X12.606 Y1.066 E104.03213
G1 X12.325 Y1.477 E104.04869
G1 X11.943 Y2.001 E104.07026
G1 X11.635 Y2.387 E104.08668
G1 X11.234 Y2.852 E104.10711
G1 X10.758 Y3.363 E104.13033
G1 X10.415 Y3.703 E104.1464
G1 X10.047 Y4.042 E104.16304
G1 X9.462 Y4.539 E104.18857
G1 X8.967 Y4.918 E104.2093
G1 X8.55 Y5.216 E104.22635
G1 X8.139 Y5.489 E104.24276
G1 X7.712 Y5.75 E104.25941
G1 X7.255 Y6.01 E104.27689
G1 X6.77 Y6.268 E104.29517
G1 X6.207 Y6.534 E104.31588
G1 X5.695 Y6.755 E104.33442
G1 X5.217 Y6.938 E104.35145
G1 X4.708 Y7.115 E104.36937
G1 X4.174 Y7.279 E104.38795
G1 X3.664 Y7.415 E104.40551
G1 X3.168 Y7.527 E104.42242
G1 X2.548 Y7.648 E104.44343
G1 X1.856 Y7.749 E104.46669
G1 X1.292 Y7.808 E104.48555
G1 X0.744 Y7.842 E104.50381
G1 X0.238 Y7.859 E104.52065
G1 X-.353 Y7.855 E104.54031
G1 X-.954 Y7.827 E104.56032
G1 X-3.813 Y7.639 E104.65562
G1 X-4.837 Y7.576 E104.68974
G1 X-5.935 Y7.502 E104.72634
G1 X-7.002 Y7.436 E104.7619
G1 X-10.403 Y7.213 E104.87526
G1 X-21.592 Y6.498 E105.24816
G1 X-21.706 Y6.489 E105.25197
G1 X-24.405 Y6.317 E105.34192
G1 X-24.761 Y6.246 E105.35399
G1 X-25.033 Y6.108 E105.36414
G1 X-25.255 Y5.898 E105.3743
G1 X-25.41 Y5.629 E105.38463
G1 X-25.498 Y5.285 E105.39644
G1 X-25.509 Y4.983 E105.40649
G1 X-25.511 Y1.83 E105.51136
G1 X-25.51 Y-5.078 E105.74112
G1 X-25.459 Y-5.485 E105.75476
G1 X-25.342 Y-5.772 E105.76507
G1 X-25.157 Y-6.007 E105.77502
G1 X-24.88 Y-6.195 E105.78615
G1 X-24.417 Y-6.315 E105.80206
G1 X-6.62 Y-7.459 E106.39521
G1 X-.967 Y-7.827 E106.58363
G1 X-.37 Y-7.854 E106.60351
G1 X0.244 Y-7.859 E106.62393
G1 X1.156 Y-7.818 E106.65429
G1 X1.721 Y-7.764 E106.67317
G1 X2.419 Y-7.669 E106.6966
G1 X3.12 Y-7.54 E106.72031
G1 X3.789 Y-7.383 E106.74316
G1 X4.566 Y-7.16 E106.77005
G1 X5.082 Y-6.987 E106.78815
G1 X5.568 Y-6.804 E106.80542
G1 X6.181 Y-6.546 E106.82754
G1 X6.78 Y-6.262 E106.84959
G1 X7.233 Y-6.025 E106.8666
G1 X7.777 Y-5.714 E106.88744
G1 X8.427 Y-5.3 E106.91307
G1 X9.055 Y-4.854 E106.93869
G1 X9.44 Y-4.557 E106.95486
G1 X10.029 Y-4.058 E106.98054
G1 X10.466 Y-3.651 E107.0004
G1 X11.031 Y-3.077 E107.02719
G1 X11.46 Y-2.596 E107.04862
G1 X11.771 Y-2.221 E107.06483
G1 X12.168 Y-1.701 E107.08659
G1 X12.48 Y-1.257 E107.10464
G1 X12.89 Y-.613 E107.13003
G0 F7200 X13.24 Y-.807
;TYPE:WALL-OUTER
G1 F1800 X13.48 Y-.341 E107.14746
G1 X13.537 Y0.036 E107.16014
G1 X13.461 Y0.396 E107.17238
G1 X13.223 Y0.837 E107.18905
G1 X12.936 Y1.292 E107.20694
G1 X12.648 Y1.713 E107.22391
G1 X12.264 Y2.24 E107.24559
G1 X11.938 Y2.648 E107.26296
G1 X11.527 Y3.125 E107.28391
G1 X11.051 Y3.636 E107.30713
G1 X10.686 Y3.997 E107.32421
G1 X10.306 Y4.347 E107.34139
G1 X9.712 Y4.852 E107.36732
G1 X9.21 Y5.236 E107.38834
G1 X8.782 Y5.542 E107.40584
G1 X8.348 Y5.83 E107.42317
G1 X7.91 Y6.098 E107.44025
G1 X7.453 Y6.358 E107.45773
G1 X6.958 Y6.621 E107.47638
G1 X6.365 Y6.902 E107.4982
G1 X5.853 Y7.122 E107.51674
G1 X5.348 Y7.316 E107.53473
G1 X4.839 Y7.493 E107.55265
G1 X4.284 Y7.663 E107.57196
G1 X3.752 Y7.805 E107.59027
G1 X3.244 Y7.92 E107.6076
G1 X2.617 Y8.042 E107.62884
G1 X1.909 Y8.146 E107.65264
G1 X1.333 Y8.206 E107.6719
G1 X0.757 Y8.242 E107.6911
G1 X0.248 Y8.259 E107.70804
G1 X-.372 Y8.255 E107.72866
G1 X-.973 Y8.227 E107.74867
G1 X-2.477 Y8.127 E107.79881
G1 X-3.467 Y8.064 E107.8318
G1 X-3.839 Y8.038 E107.8442
G1 X-4.864 Y7.975 E107.87836
G1 X-5.961 Y7.901 E107.91493
G1 X-7.028 Y7.835 E107.95048
G1 X-10.429 Y7.612 E108.06384
G1 X-21.624 Y6.897 E108.43695
G1 X-21.735 Y6.888 E108.44065
G1 X-24.456 Y6.714 E108.53134
G1 X-24.895 Y6.627 E108.54623
G1 X-25.266 Y6.439 E108.56006
G1 X-25.572 Y6.15 E108.57406
G1 X-25.783 Y5.783 E108.58814
G1 X-25.897 Y5.338 E108.60342
G1 X-25.909 Y4.983 E108.61523
G1 X-25.911 Y1.83 E108.7201
G1 X-25.91 Y-5.104 E108.95073
G1 X-25.85 Y-5.585 E108.96685
G1 X-25.69 Y-5.977 E108.98093
G1 X-25.433 Y-6.303 E108.99474
G1 X-25.057 Y-6.559 E109.00987
G1 X-24.621 Y-6.693 E109.02504
G1 X-24.455 Y-6.713 E109.0306
G1 X-6.646 Y-7.858 E109.62415
G1 X-.985 Y-8.227 E109.81284
G1 X-.388 Y-8.254 E109.83271
G1 X0.259 Y-8.259 E109.85423
G1 X1.174 Y-8.218 E109.8847
G1 X1.763 Y-8.162 E109.90438
G1 X2.484 Y-8.064 E109.92858
G1 X3.197 Y-7.932 E109.95269
G1 X3.889 Y-7.77 E109.97633
G1 X4.693 Y-7.539 E110.00415
G1 X5.215 Y-7.364 E110.02247
G1 X5.723 Y-7.173 E110.04052
G1 X6.347 Y-6.91 E110.06304
G1 X6.951 Y-6.624 E110.08527
G1 X7.419 Y-6.379 E110.10284
G1 X7.988 Y-6.054 E110.12463
G1 X8.659 Y-5.626 E110.1511
G1 X9.287 Y-5.18 E110.17672
G1 X9.693 Y-4.867 E110.19377
G1 X10.302 Y-4.351 E110.22032
G1 X10.739 Y-3.944 E110.24018
G1 X11.33 Y-3.343 E110.26822
G1 X11.759 Y-2.862 E110.28965
G1 X12.089 Y-2.464 E110.30685
G1 X12.486 Y-1.944 E110.32861
G1 X12.807 Y-1.487 E110.34718
G1 X13.24 Y-.807 E110.374
G0 F7200 X13.331 Y-.63
G0 X12.547 Y-.424
;TYPE:SKIN
G1 F1800 X12.718 Y-0.095 E110.38633
G1 X12.711 Y0.122 E110.39355
G1 X12.284 Y0.846 E110.42151
G1 X12.009 Y1.247 E110.43768
G1 X11.627 Y1.771 E110.45925
G1 X11.34 Y2.132 E110.47459
G1 X10.944 Y2.591 E110.49475
G1 X10.483 Y3.086 E110.51725
G1 X10.15 Y3.416 E110.53284
G1 X9.777 Y3.761 E110.54974
G1 X9.237 Y4.219 E110.57329
G1 X8.729 Y4.608 E110.59457
G1 X7.929 Y5.16 E110.6269
G1 X7.519 Y5.411 E110.64289
G1 X7.072 Y5.665 E110.65999
G1 X6.595 Y5.919 E110.67796
G1 X6.047 Y6.178 E110.69812
G1 X5.555 Y6.391 E110.71595
G1 X5.077 Y6.574 E110.73298
G1 X4.586 Y6.744 E110.75026
G1 X4.073 Y6.902 E110.76811
G1 X3.571 Y7.037 E110.7854
G1 X3.082 Y7.147 E110.80207
G1 X2.492 Y7.262 E110.82207
G1 X1.811 Y7.361 E110.84495
G1 X1.268 Y7.418 E110.86311
G1 X0.72 Y7.452 E110.88137
G1 X0.227 Y7.469 E110.89778
G1 X-.335 Y7.465 E110.91647
G1 X-.929 Y7.437 E110.93625
G1 X-3.788 Y7.249 E111.03155
G1 X-4.812 Y7.186 E111.06567
G1 X-5.91 Y7.112 E111.10227
G1 X-6.977 Y7.046 E111.13783
G1 X-10.378 Y6.823 E111.25119
G1 X-24.363 Y5.928 E111.71729
G1 X-24.633 Y5.874 E111.72644
G1 X-24.807 Y5.786 E111.73293
G1 X-24.944 Y5.657 E111.73919
G1 X-25.045 Y5.481 E111.74594
G1 X-25.11 Y5.229 E111.75459
G1 X-25.119 Y4.983 E111.76278
G1 X-25.121 Y1.83 E111.86765
G1 X-25.12 Y-5.061 E112.09684
G1 X-25.079 Y-5.383 E112.10764
G1 X-25.002 Y-5.575 E112.11452
G1 X-24.887 Y-5.721 E112.1207
G1 X-24.722 Y-5.833 E112.12734
G1 X-24.357 Y-5.927 E112.13987
G1 X-6.595 Y-7.069 E112.73186
G1 X-.942 Y-7.437 E112.92028
G1 X-.352 Y-7.464 E112.93992
G1 X0.23 Y-7.469 E112.95928
G1 X1.138 Y-7.428 E112.98951
G1 X1.68 Y-7.376 E113.00762
G1 X2.349 Y-7.285 E113.03007
G1 X3.043 Y-7.157 E113.05355
G1 X3.691 Y-7.005 E113.07568
G1 X4.425 Y-6.795 E113.10108
G1 X4.973 Y-6.612 E113.12029
G1 X5.423 Y-6.442 E113.13629
G1 X6.014 Y-6.193 E113.15762
G1 X6.613 Y-5.909 E113.17967
G1 X7.04 Y-5.686 E113.19569
G1 X7.584 Y-5.375 E113.21653
G1 X8.201 Y-4.982 E113.24087
G1 X8.829 Y-4.536 E113.26648
G1 X9.188 Y-4.259 E113.28157
G1 X9.777 Y-3.76 E113.30724
G1 X10.188 Y-3.378 E113.3259
G1 X10.746 Y-2.811 E113.35236
G1 X11.16 Y-2.347 E113.37305
G1 X11.466 Y-1.978 E113.38899
G1 X11.853 Y-1.471 E113.4102
G1 X12.156 Y-1.04 E113.42773
G1 X12.547 Y-.424 E113.45199
G0 F7200 X8.37 Y-4.64
G1 F1800 X11.851 Y-1.159 E113.61573
G1 X11.921 Y-1.089
G0 F7200 X12.526 Y0.081
G1 F1800 X6.878 Y-5.566 E113.88137
G1 X6.808 Y-5.636
G0 F7200 X5.786 Y-6.092
G1 F1800 X12.316 Y0.436 E114.18847
G0 F7200 X12.103 Y0.789
G1 F1800 X4.852 Y-6.46 E114.52949
G1 X4.782 Y-6.53
G0 F7200 X4.029 Y-6.718
G1 F1800 X11.873 Y1.125 E114.89843
G0 F7200 X11.635 Y1.453
G1 F1800 X3.263 Y-6.919 E115.29222
G0 F7200 X2.553 Y-7.063
G1 F1800 X11.392 Y1.776 E115.70798
G0 F7200 X11.139 Y2.088
G1 F1800 X1.885 Y-7.165 E116.14324
G0 F7200 X1.249 Y-7.235
G1 F1800 X10.878 Y2.392 E116.59611
G0 F7200 X10.608 Y2.688
G1 F1800 X0.65 Y-7.269 E117.06448
G0 F7200 X0.067 Y-7.286
G1 F1800 X10.333 Y2.979 E117.54734
G0 F7200 X10.049 Y3.261
G1 F1800 X-.487 Y-7.276 E118.04294
G0 F7200 X-1.027 Y-7.249
G1 F1800 X9.756 Y3.534 E118.55014
G0 F7200 X9.454 Y3.797
G1 F1800 X-1.558 Y-7.215 E119.06811
G0 F7200 X-2.089 Y-7.18
G1 F1800 X9.147 Y4.056 E119.59662
G0 F7200 X8.828 Y4.303
G1 F1800 X-2.62 Y-7.146 E120.13512
G0 F7200 X-3.151 Y-7.111
G1 F1800 X8.502 Y4.543 E120.68326
G0 F7200 X8.168 Y4.774
G1 F1800 X-3.682 Y-7.076 E121.24065
G0 F7200 X-4.213 Y-7.042
G1 F1800 X7.834 Y5.005 E121.80731
G0 F7200 X7.482 Y5.219
G1 F1800 X-4.745 Y-7.008 E122.38243
G0 F7200 X-5.276 Y-6.973
G1 F1800 X7.123 Y5.426 E122.96564
G0 F7200 X6.757 Y5.626
G1 F1800 X-5.807 Y-6.938 E123.55661
G0 F7200 X-6.338 Y-6.904
G1 F1800 X6.384 Y5.818 E124.15501
G0 F7200 X5.999 Y5.999
G1 F1800 X-6.869 Y-6.869 E124.76028
G0 F7200 X-7.401 Y-6.835
G1 F1800 X5.605 Y6.17 E125.37202
G0 F7200 X5.2 Y6.332
G1 F1800 X-7.933 Y-6.801 E125.98976
G0 F7200 X-8.464 Y-6.767
G1 F1800 X4.786 Y6.483 E126.613
G0 F7200 X4.361 Y6.624
G1 F1800 X-8.995 Y-6.733 E127.24125
G0 F7200 X-9.527 Y-6.699
G1 F1800 X3.925 Y6.753 E127.87399
G0 F7200 X3.478 Y6.872
G1 F1800 X-10.059 Y-6.665 E128.51073
G0 F7200 X-10.59 Y-6.63
G1 F1800 X3.015 Y6.974 E129.15064
G0 F7200 X2.542 Y7.067
G1 F1800 X-11.122 Y-6.596 E129.79333
G0 F7200 X-11.653 Y-6.562
G1 F1800 X2.052 Y7.143 E130.43797
G0 F7200 X1.549 Y7.206
G1 F1800 X-12.184 Y-6.528 E131.08395
G0 F7200 X-12.716 Y-6.494
G1 F1800 X1.028 Y7.251 E131.73045
G0 F7200 X0.49 Y7.278
G1 F1800 X-13.248 Y-6.46 E132.37665
G0 F7200 X-13.779 Y-6.425
G1 F1800 X-0.067 Y7.286 E133.02159
G0 F7200 X-.651 Y7.268
G1 F1800 X-14.311 Y-6.391 E133.66409
G0 F7200 X-14.842 Y-6.357
G1 F1800 X-1.251 Y7.233 E134.30335
G0 F7200 X-1.856 Y7.194
G1 F1800 X-15.373 Y-6.322 E134.93912
G0 F7200 X-15.905 Y-6.289
G1 F1800 X-2.462 Y7.154 E135.57144
G0 F7200 X-3.068 Y7.114
G1 F1800 X-16.437 Y-6.255 E136.20028
G0 F7200 X-16.968 Y-6.22
G1 F1800 X-3.673 Y7.074 E136.82561
G0 F7200 X-4.276 Y7.037
G1 F1800 X-17.5 Y-6.186 E137.4476
G0 F7200 X-18.031 Y-6.152
G1 F1800 X-4.879 Y6.999 E138.06621
G0 F7200 X-5.485 Y6.959
G1 F1800 X-18.562 Y-6.117 E138.68129
G0 F7200 X-19.094 Y-6.083
G1 F1800 X-6.091 Y6.919 E139.29289
G0 F7200 X-6.694 Y6.881
G1 F1800 X-19.626 Y-6.05 E139.90114
G0 F7200 X-20.158 Y-6.016
G1 F1800 X-7.298 Y6.843 E140.50602
G0 F7200 X-7.904 Y6.803
G1 F1800 X-20.689 Y-5.981 E141.10736
G0 F7200 X-21.22 Y-5.947
G1 F1800 X-8.509 Y6.764 E141.70525
G0 F7200 X-9.114 Y6.724
G1 F1800 X-21.752 Y-5.913 E142.29967
G0 F7200 X-22.283 Y-5.878
G1 F1800 X-9.719 Y6.684 E142.8906
G0 F7200 X-10.325 Y6.645
G1 F1800 X-22.815 Y-5.844 E143.47807
G0 F7200 X-23.347 Y-5.811
G1 F1800 X-10.929 Y6.607 E144.06217
G0 F7200 X-11.533 Y6.568
G1 F1800 X-23.878 Y-5.776 E144.64282
G0 F7200 X-24.397 Y-5.729
G1 F1800 X-12.138 Y6.529 E145.21942
G0 F7200 X-12.742 Y6.491
G1 F1800 X-24.789 Y-5.555 E145.78605
G0 F7200 X-24.93 Y-5.131
G1 F1800 X-13.346 Y6.452 E146.3309
G0 F7200 X-13.951 Y6.413
G1 F1800 X-24.94 Y-4.575 E146.84777
G0 F7200 X-24.94 Y-4.01
G1 F1800 X-14.555 Y6.375 E147.33625
G0 F7200 X-15.159 Y6.336
G1 F1800 X-24.94 Y-3.444 E147.79629
G0 F7200 X-24.94 Y-2.878
G1 F1800 X-15.764 Y6.297 E148.22788
G0 F7200 X-16.368 Y6.259
G1 F1800 X-24.94 Y-2.312 E148.63106
G0 F7200 X-24.94 Y-1.747
G1 F1800 X-16.972 Y6.22 E149.00582
G0 F7200 X-17.577 Y6.181
G1 F1800 X-24.94 Y-1.181 E149.35213
G0 F7200 X-24.94 Y-.615
G1 F1800 X-18.181 Y6.143 E149.67003
G0 F7200 X-18.785 Y6.104
G1 F1800 X-24.94 Y-0.05 E149.95952
G0 F7200 X-24.94 Y0.515
G1 F1800 X-19.39 Y6.065 E150.22058
G0 F7200 X-19.994 Y6.027
G1 F1800 X-24.94 Y1.081 E150.45322
G0 F7200 X-24.94 Y1.646
G1 F1800 X-20.598 Y5.988 E150.65746
G0 F7200 X-21.203 Y5.949
G1 F1800 X-24.94 Y2.212 E150.83323
G0 F7200 X-24.94 Y2.778
G1 F1800 X-21.807 Y5.911 E150.9806
G0 F7200 X-22.411 Y5.872
G1 F1800 X-24.939 Y3.344 E151.09951
G0 F7200 X-24.939 Y3.91
G1 F1800 X-23.016 Y5.833 E151.18996
G0 F7200 X-23.62 Y5.795
G1 F1800 X-24.938 Y4.476 E151.25198
G0 F7200 X-24.936 Y5.045
G1 F1800 X-24.224 Y5.756 E151.28545
G1 X-24.154 Y5.826
;MESH:NONMESH
G0 F600 X-24.154 Y5.826 Z0.9
G0 F7200 X-20.225 Y-1.199
;TIME_ELAPSED:142.834786
;LAYER:3
;TYPE:WALL-INNER
;MESH:benchy.stl
G1 F3600 X-23.213 Y-1.201 E151.38483
G1 X-25.605 Y-1.2 E151.46439
G1 X-25.605 Y-5.185 E151.59693
G1 X-25.56 Y-5.565 E151.60965
G1 X-25.433 Y-5.881 E151.62098
G1 X-25.25 Y-6.113 E151.63081
G1 X-25 Y-6.29 E151.641
G1 X-24.512 Y-6.419 E151.65779
G1 X-6.371 Y-7.612 E152.26246
G1 X-.708 Y-7.988 E152.45123
G1 X0.208 Y-8.004 E152.4817
G1 X0.948 Y-7.976 E152.50633
G1 X1.546 Y-7.929 E152.52628
G1 X2.421 Y-7.815 E152.55563
G1 X3.119 Y-7.688 E152.57923
G1 X3.811 Y-7.529 E152.60284
G1 X4.327 Y-7.388 E152.62063
G1 X4.99 Y-7.179 E152.64375
G1 X5.472 Y-7.004 E152.66081
G1 X5.987 Y-6.799 E152.67925
G1 X6.707 Y-6.473 E152.70553
G1 X7.425 Y-6.102 E152.73241
G1 X7.88 Y-5.842 E152.74984
G1 X8.319 Y-5.569 E152.76704
G1 X8.75 Y-5.283 E152.78424
G1 X9.165 Y-4.986 E152.80122
G1 X9.58 Y-4.666 E152.81865
G1 X9.992 Y-4.326 E152.83641
G1 X10.464 Y-3.906 E152.85743
G1 X10.927 Y-3.458 E152.87885
G1 X11.287 Y-3.078 E152.89626
G1 X11.724 Y-2.584 E152.9182
G1 X12.049 Y-2.186 E152.93529
G1 X12.363 Y-1.775 E152.95249
G1 X12.667 Y-1.347 E152.96995
G1 X12.958 Y-.903 E152.98761
G1 X13.259 Y-.407 E153.00691
G1 X13.363 Y-.141 E153.01641
G1 X13.371 Y0.091 E153.02413
G1 X13.27 Y0.387 E153.03453
G1 X12.978 Y0.871 E153.05333
G1 X12.689 Y1.315 E153.07095
G1 X12.457 Y1.647 E153.08442
G1 X12.149 Y2.059 E153.10153
G1 X11.988 Y2.264 E153.1102
G1 X11.656 Y2.665 E153.12752
G1 X11.116 Y3.259 E153.15422
G1 X10.862 Y3.521 E153.16635
G1 X10.482 Y3.888 E153.18393
G1 X9.999 Y4.32 E153.20548
G1 X9.608 Y4.644 E153.22237
G1 X9.186 Y4.97 E153.2401
G1 X8.563 Y5.41 E153.26547
G1 X7.896 Y5.833 E153.29174
G1 X7.433 Y6.099 E153.3095
G1 X6.751 Y6.451 E153.33503
G1 X6.039 Y6.776 E153.36106
G1 X5.53 Y6.982 E153.37932
G1 X4.741 Y7.26 E153.40715
G1 X4.091 Y7.455 E153.42972
G1 X3.409 Y7.625 E153.45309
G1 X2.852 Y7.74 E153.47201
G1 X2.003 Y7.875 E153.5006
G1 X1.285 Y7.953 E153.52463
G1 X0.679 Y7.99 E153.54482
G1 X-0.077 Y8.005 E153.56997
G1 X-.677 Y7.989 E153.58993
G1 X-.993 Y7.971 E153.60046
G1 X-2.83 Y7.847 E153.6617
G1 X-10.16 Y7.36 E153.90603
G1 X-11.544 Y7.272 E153.95216
G1 X-11.691 Y7.26 E153.95706
G1 X-12.389 Y7.216 E153.98032
G1 X-12.535 Y7.204 E153.9852
G1 X-13.947 Y7.114 E154.03225
G1 X-14.093 Y7.102 E154.03713
G1 X-17.088 Y6.908 E154.13695
G1 X-17.235 Y6.896 E154.14185
G1 X-24.545 Y6.417 E154.38551
G1 X-24.854 Y6.351 E154.39602
G1 X-25.128 Y6.213 E154.40622
G1 X-25.358 Y5.99 E154.41688
G1 X-25.506 Y5.73 E154.42683
G1 X-25.593 Y5.399 E154.43821
G1 X-25.604 Y5.127 E154.44726
G1 X-25.606 Y1.201 E154.57784
G1 X-20.225 Y1.2 E154.75682
G1 X-20.225 Y-1.199 E154.83661
G0 F7200 X-20.625 Y-.799
;TYPE:WALL-OUTER
G1 F1800 X-23.213 Y-.801 E154.92268
G1 X-26.005 Y-.8 E155.01555
G1 X-26.005 Y-5.207 E155.16212
G1 X-25.951 Y-5.665 E155.17746
G1 X-25.783 Y-6.082 E155.19242
G1 X-25.528 Y-6.406 E155.20613
G1 X-25.182 Y-6.651 E155.22023
G1 X-24.772 Y-6.79 E155.23463
G1 X-24.552 Y-6.817 E155.242
G1 X-6.397 Y-8.011 E155.84714
G1 X-.72 Y-8.388 E156.03638
G1 X0.216 Y-8.404 E156.06751
G1 X0.971 Y-8.376 E156.09264
G1 X1.59 Y-8.327 E156.11329
G1 X2.482 Y-8.211 E156.14321
G1 X3.198 Y-8.081 E156.16742
G1 X3.901 Y-7.919 E156.19141
G1 X4.432 Y-7.774 E156.20972
G1 X5.126 Y-7.555 E156.23392
G1 X5.62 Y-7.376 E156.2514
G1 X6.135 Y-7.171 E156.26983
G1 X6.885 Y-6.831 E156.29722
G1 X7.609 Y-6.457 E156.32433
G1 X8.091 Y-6.182 E156.34278
G1 X8.53 Y-5.909 E156.35998
G1 X8.983 Y-5.608 E156.37807
G1 X9.409 Y-5.303 E156.39549
G1 X9.835 Y-4.975 E156.41338
G1 X10.247 Y-4.635 E156.43114
G1 X10.742 Y-4.194 E156.45319
G1 X11.125 Y-3.825 E156.47088
G1 X11.216 Y-3.733 E156.47518
G1 X11.587 Y-3.343 E156.49309
G1 X12.024 Y-2.849 E156.51502
G1 X12.367 Y-2.429 E156.53306
G1 X12.689 Y-2.007 E156.55072
G1 X13.002 Y-1.566 E156.5687
G1 X13.293 Y-1.122 E156.58636
G1 X13.62 Y-.582 E156.60736
G1 X13.76 Y-.223 E156.62017
G1 X13.774 Y0.149 E156.63255
G1 X13.634 Y0.557 E156.6469
G1 X13.313 Y1.089 E156.66757
G1 X13.017 Y1.544 E156.68562
G1 X12.785 Y1.876 E156.69909
G1 X12.463 Y2.307 E156.71699
G1 X12.296 Y2.519 E156.72596
G1 X11.952 Y2.934 E156.74389
G1 X11.412 Y3.528 E156.77059
G1 X11.14 Y3.809 E156.7836
G1 X10.758 Y4.178 E156.80126
G1 X10.265 Y4.619 E156.82326
G1 X9.853 Y4.961 E156.84107
G1 X9.431 Y5.287 E156.85881
G1 X8.777 Y5.748 E156.88542
G1 X8.104 Y6.175 E156.91193
G1 X7.632 Y6.446 E156.93003
G1 X6.917 Y6.815 E156.95679
G1 X6.195 Y7.145 E156.9832
G1 X5.68 Y7.353 E157.00167
G1 X4.863 Y7.641 E157.03048
G1 X4.196 Y7.841 E157.05364
G1 X3.49 Y8.017 E157.07784
G1 X2.93 Y8.133 E157.09686
G1 X2.05 Y8.273 E157.1265
G1 X1.328 Y8.351 E157.15066
G1 X0.687 Y8.39 E157.17201
G1 X-0.08 Y8.405 E157.19753
G1 X-.688 Y8.389 E157.21776
G1 X-1.02 Y8.37 E157.22882
G1 X-2.857 Y8.246 E157.29006
G1 X-10.186 Y7.759 E157.53436
G1 X-11.578 Y7.671 E157.58075
G1 X-11.72 Y7.659 E157.58549
G1 X-12.423 Y7.615 E157.60892
G1 X-12.565 Y7.603 E157.61366
G1 X-13.98 Y7.513 E157.66081
G1 X-14.123 Y7.501 E157.66559
G1 X-17.121 Y7.307 E157.76551
G1 X-17.265 Y7.295 E157.77032
G1 X-24.599 Y6.814 E158.01477
G1 X-24.988 Y6.731 E158.028
G1 X-25.364 Y6.542 E158.042
G1 X-25.677 Y6.238 E158.05651
G1 X-25.88 Y5.883 E158.07011
G1 X-25.991 Y5.457 E158.08475
G1 X-26.004 Y5.144 E158.09517
G1 X-26.006 Y1.407 E158.21946
G1 X-26.005 Y0.859 E158.23769
G1 X-26.005 Y0.801 E158.23962
G1 X-20.625 Y0.8 E158.41856
G1 X-20.625 Y-.799 E158.47174
G0 F7200 X-20.825 Y-.799
G0 X-20.824 Y-1.299
G0 X-19.835 Y-1.589
;TYPE:SKIN
G1 F1800 X-25.215 Y-1.59 E158.65068
G1 X-25.215 Y-5.155 E158.76925
G1 X-25.178 Y-5.469 E158.77977
G1 X-25.091 Y-5.684 E158.78748
G1 X-24.979 Y-5.827 E158.79353
G1 X-24.831 Y-5.932 E158.79956
G1 X-24.454 Y-6.031 E158.81253
G1 X-6.346 Y-7.222 E159.4161
G1 X-.683 Y-7.598 E159.60487
G1 X0.199 Y-7.614 E159.63421
G1 X0.933 Y-7.586 E159.65864
G1 X1.503 Y-7.541 E159.67766
G1 X2.351 Y-7.431 E159.7061
G1 X3.049 Y-7.304 E159.72969
G1 X3.719 Y-7.15 E159.75256
G1 X4.21 Y-7.016 E159.76949
G1 X4.865 Y-6.809 E159.79233
G1 X5.333 Y-6.639 E159.8089
G1 X5.843 Y-6.436 E159.82715
G1 X6.528 Y-6.126 E159.85216
G1 X7.246 Y-5.755 E159.87904
G1 X8.103 Y-5.244 E159.91223
G1 X8.529 Y-4.961 E159.92924
G1 X8.933 Y-4.672 E159.94576
G1 X9.332 Y-4.365 E159.9625
G1 X9.738 Y-4.03 E159.98001
G1 X10.193 Y-3.625 E160.00027
G1 X10.644 Y-3.189 E160.02113
G1 X10.999 Y-2.814 E160.03831
G1 X11.427 Y-2.331 E160.05977
G1 X11.739 Y-1.95 E160.07615
G1 X12.045 Y-1.549 E160.09293
G1 X12.341 Y-1.133 E160.10991
G1 X12.625 Y-.7 E160.12713
G1 X12.909 Y-.232 E160.14534
G1 X12.979 Y0.033 E160.15446
G1 X12.913 Y0.223 E160.16115
G1 X12.651 Y0.658 E160.17804
G1 X12.369 Y1.091 E160.19522
G1 X11.84 Y1.821 E160.22521
G1 X11.688 Y2.015 E160.23341
G1 X11.367 Y2.402 E160.25013
G1 X10.831 Y2.992 E160.27664
G1 X10.591 Y3.24 E160.28812
G1 X10.216 Y3.602 E160.30546
G1 X9.744 Y4.025 E160.32654
G1 X9.364 Y4.34 E160.34295
G1 X8.955 Y4.656 E160.36014
G1 X8.346 Y5.086 E160.38494
G1 X7.694 Y5.499 E160.41061
G1 X7.246 Y5.756 E160.42779
G1 X6.58 Y6.1 E160.45272
G1 X5.877 Y6.421 E160.47842
G1 X5.396 Y6.616 E160.49569
G1 X4.629 Y6.886 E160.52273
G1 X3.979 Y7.081 E160.5453
G1 X3.331 Y7.243 E160.56752
G1 X2.791 Y7.354 E160.58585
G1 X1.942 Y7.489 E160.61445
G1 X1.259 Y7.563 E160.6373
G1 X0.655 Y7.6 E160.65742
G1 X-0.075 Y7.615 E160.68171
G1 X-.655 Y7.599 E160.70101
G1 X-.967 Y7.581 E160.7114
G1 X-2.804 Y7.457 E160.77264
G1 X-10.134 Y6.97 E161.01697
G1 X-12.451 Y6.82 E161.0942
G1 X-24.491 Y6.029 E161.49551
G1 X-24.724 Y5.979 E161.50344
G1 X-24.899 Y5.891 E161.50995
G1 X-25.047 Y5.748 E161.5168
G1 X-25.142 Y5.581 E161.52319
G1 X-25.214 Y5.127 E161.53848
G1 X-25.216 Y1.591 E161.65609
G1 X-19.835 Y1.59 E161.83506
G1 X-19.835 Y-1.589 E161.94079
G0 F7200 X-25.033 Y-4.947
G1 F1800 X-24.108 Y-5.873 E161.98432
G0 F7200 X-23.502 Y-5.912
G1 F1800 X-25.033 Y-4.381 E162.05634
G0 F7200 X-25.033 Y-3.816
G1 F1800 X-22.896 Y-5.953 E162.15686
G0 F7200 X-22.291 Y-5.992
G1 F1800 X-25.033 Y-3.25 E162.28583
G0 F7200 X-25.033 Y-2.684
G1 F1800 X-21.686 Y-6.032 E162.44329
G0 F7200 X-21.08 Y-6.072
G1 F1800 X-25.033 Y-2.119 E162.62922
G0 F7200 X-24.818 Y-1.769
G1 F1800 X-20.474 Y-6.112 E162.83353
G0 F7200 X-19.869 Y-6.151
G1 F1800 X-24.252 Y-1.769 E163.03967
G0 F7200 X-23.686 Y-1.769
G1 F1800 X-19.264 Y-6.191 E163.24767
G0 F7200 X-18.658 Y-6.231
G1 F1800 X-23.12 Y-1.769 E163.45755
G0 F7200 X-22.555 Y-1.769
G1 F1800 X-18.053 Y-6.271 E163.66931
G0 F7200 X-17.447 Y-6.31
G1 F1800 X-21.989 Y-1.769 E163.88292
G0 F7200 X-21.423 Y-1.769
G1 F1800 X-16.841 Y-6.351 E164.09845
G0 F7200 X-16.236 Y-6.39
G1 F1800 X-20.858 Y-1.769 E164.31583
G0 F7200 X-20.292 Y-1.769
G1 F1800 X-15.631 Y-6.43 E164.53507
G0 F7200 X-15.026 Y-6.47
G1 F1800 X-19.726 Y-1.769 E164.75616
G0 F7200 X-19.654 Y-1.276
G1 F1800 X-14.42 Y-6.51 E165.00236
G0 F7200 X-13.814 Y-6.549
G1 F1800 X-19.654 Y-.71 E165.27703
G0 F7200 X-19.654 Y-.144
G1 F1800 X-13.209 Y-6.589 E165.58018
G0 F7200 X-12.603 Y-6.629
G1 F1800 X-19.654 Y0.42 E165.91179
G0 F7200 X-19.654 Y0.986
G1 F1800 X-11.998 Y-6.669 E166.27188
G0 F7200 X-11.392 Y-6.709
G1 F1800 X-19.654 Y1.552 E166.66048
G0 F7200 X-19.871 Y1.769
G1 F1800 X-23.983 Y5.881 E166.85389
G0 F7200 X-24.508 Y5.84
G1 F1800 X-20.437 Y1.769 E167.04538
G0 F7200 X-21.003 Y1.769
G1 F1800 X-24.885 Y5.652 E167.228
G0 F7200 X-25.016 Y5.217
G1 F1800 X-21.568 Y1.769 E167.39019
G0 F7200 X-22.134 Y1.769
G1 F1800 X-25.032 Y4.668 E167.52652
G0 F7200 X-25.032 Y4.102
G1 F1800 X-22.7 Y1.77 E167.63621
G0 F7200 X-23.266 Y1.77
G1 F1800 X-25.033 Y3.537 E167.71933
G0 F7200 X-25.033 Y2.971
G1 F1800 X-23.832 Y1.77 E167.77582
G0 F7200 X-24.398 Y1.77
G1 F1800 X-25.034 Y2.406 E167.80573
G0 F7200 X-25.034 Y1.841
G1 F1800 X-24.963 Y1.77 E167.80907
G0 F7200 X-23.453 Y5.917
G1 F1800 X-10.786 Y-6.749 E168.40487
G0 F7200 X-10.181 Y-6.788
G1 F1800 X-22.922 Y5.951 E169.00412
G0 F7200 X-22.391 Y5.986
G1 F1800 X-9.576 Y-6.828 E169.60687
G0 F7200 X-8.971 Y-6.868
G1 F1800 X-21.86 Y6.021 E170.21313
G0 F7200 X-21.329 Y6.056
G1 F1800 X-8.365 Y-6.908 E170.82292
G0 F7200 X-7.759 Y-6.948
G1 F1800 X-20.798 Y6.091 E171.43623
G0 F7200 X-20.267 Y6.125
G1 F1800 X-7.154 Y-6.987 E172.053
G0 F7200 X-6.548 Y-7.027
G1 F1800 X-19.737 Y6.161 E172.67335
G0 F7200 X-19.206 Y6.195
G1 F1800 X-5.943 Y-7.067 E173.29718
G0 F7200 X-5.337 Y-7.107
G1 F1800 X-18.675 Y6.23 E173.92453
G0 F7200 X-18.145 Y6.265
G1 F1800 X-4.731 Y-7.148 E174.55546
G0 F7200 X-4.125 Y-7.188
G1 F1800 X-17.614 Y6.3 E175.18992
G0 F7200 X-17.082 Y6.334
G1 F1800 X-3.519 Y-7.228 E175.82786
G0 F7200 X-2.913 Y-7.268
G1 F1800 X-16.551 Y6.369 E176.46933
G0 F7200 X-16.021 Y6.404
G1 F1800 X-2.307 Y-7.308 E177.11434
G0 F7200 X-1.702 Y-7.348
G1 F1800 X-15.49 Y6.439 E177.76286
G0 F7200 X-14.959 Y6.474
G1 F1800 X-1.096 Y-7.389 E178.41494
G0 F7200 X-.499 Y-7.42
G1 F1800 X-14.429 Y6.509 E179.07014
G0 F7200 X-13.898 Y6.544
G1 F1800 X0.077 Y-7.43 E179.72746
G0 F7200 X0.628 Y-7.416
G1 F1800 X-13.367 Y6.578 E180.38571
G0 F7200 X-12.836 Y6.614
G1 F1800 X1.164 Y-7.387 E181.04426
G0 F7200 X1.679 Y-7.336
G1 F1800 X-12.305 Y6.648 E181.70202
G0 F7200 X-11.774 Y6.682
G1 F1800 X2.18 Y-7.271 E182.35835
G0 F7200 X2.665 Y-7.19
G1 F1800 X-11.242 Y6.717 E183.01249
G0 F7200 X-10.711 Y6.752
G1 F1800 X3.138 Y-7.098 E183.66393
G0 F7200 X3.598 Y-6.992
G1 F1800 X-10.18 Y6.786 E184.312
G0 F7200 X-9.649 Y6.821
G1 F1800 X4.045 Y-6.873 E184.95613
G0 F7200 X4.478 Y-6.741
G1 F1800 X-9.119 Y6.856 E185.59569
G0 F7200 X-8.588 Y6.891
G1 F1800 X4.905 Y-6.602 E186.23036
G0 F7200 X5.319 Y-6.45
G1 F1800 X-8.058 Y6.926 E186.85955
G0 F7200 X-7.527 Y6.962
G1 F1800 X5.724 Y-6.289 E187.48284
G0 F7200 X6.115 Y-6.115
G1 F1800 X-6.997 Y6.997 E188.09958
G0 F7200 X-6.467 Y7.032
G1 F1800 X6.501 Y-5.936 E188.70956
G0 F7200 X6.875 Y-5.743
G1 F1800 X-5.936 Y7.067 E189.31213
G0 F7200 X-5.405 Y7.102
G1 F1800 X7.243 Y-5.546 E189.90705
G0 F7200 X7.597 Y-5.335
G1 F1800 X-4.875 Y7.138 E190.49372
G0 F7200 X-4.345 Y7.173
G1 F1800 X7.952 Y-5.123 E191.07211
G0 F7200 X8.294 Y-4.9
G1 F1800 X-3.814 Y7.208 E191.64163
G0 F7200 X-3.283 Y7.243
G1 F1800 X8.628 Y-4.668 E192.20189
G0 F7200 X8.954 Y-4.428
G1 F1800 X-2.753 Y7.278 E192.75252
G0 F7200 X-2.223 Y7.315
G1 F1800 X9.272 Y-4.181 E193.29324
G0 F7200 X9.582 Y-3.925
G1 F1800 X-1.694 Y7.351 E193.82363
G0 F7200 X-1.163 Y7.386
G1 F1800 X9.882 Y-3.659 E194.34315
G0 F7200 X10.177 Y-3.389
G1 F1800 X-.63 Y7.418 E194.85148
G0 F7200 X-0.079 Y7.433
G1 F1800 X10.465 Y-3.111 E195.34743
G0 F7200 X10.743 Y-2.823
G1 F1800 X0.496 Y7.423 E195.8294
G0 F7200 X1.093 Y7.392
G1 F1800 X11.011 Y-2.526 E196.29591
G0 F7200 X11.276 Y-2.225
G1 F1800 X1.718 Y7.331 E196.74544
G0 F7200 X2.38 Y7.236
G1 F1800 X11.532 Y-1.915 E197.1759
G0 F7200 X11.779 Y-1.597
G1 F1800 X3.07 Y7.112 E197.58555
G0 F7200 X3.811 Y6.936
G1 F1800 X12.02 Y-1.272 E197.97165
G0 F7200 X12.252 Y-.938
G1 F1800 X4.613 Y6.699 E198.33092
G1 X4.543 Y6.769
G0 F7200 X5.499 Y6.379
G1 F1800 X12.476 Y-.596 E198.65905
G0 F7200 X12.689 Y-.244
G1 F1800 X6.513 Y5.931 E198.94952
G1 X6.443 Y6.001
G0 F7200 X7.778 Y5.231
G1 F1800 X12.572 Y0.438 E199.17499
G1 X12.642 Y0.368
;MESH:NONMESH
G0 F600 X12.642 Y0.368 Z1.1
G0 F7200 X-20.225 Y-1.399
;TIME_ELAPSED:191.503977
;LAYER:4
;TYPE:WALL-INNER
;MESH:benchy.stl
G1 F3600 X-25.7 Y-1.401 E199.35709
G1 X-25.7 Y-5.289 E199.48641
G1 X-25.656 Y-5.663 E199.49893
G1 X-25.526 Y-5.987 E199.51055
G1 X-25.347 Y-6.213 E199.52013
G1 X-25.086 Y-6.397 E199.53076
G1 X-24.613 Y-6.524 E199.54704
G1 X-10.957 Y-7.438 E200.00226
G1 X-1.244 Y-8.099 E200.32606
G1 X-.275 Y-8.146 E200.35833
G1 X0.314 Y-8.146 E200.37792
G1 X1.095 Y-8.112 E200.40392
G1 X1.665 Y-8.061 E200.42296
G1 X2.413 Y-7.963 E200.44805
G1 X3.122 Y-7.836 E200.472
G1 X3.966 Y-7.641 E200.50082
G1 X4.776 Y-7.407 E200.52886
G1 X5.368 Y-7.204 E200.54967
G1 X5.544 Y-7.14 E200.5559
G1 X6.074 Y-6.929 E200.57488
G1 X6.685 Y-6.657 E200.59712
G1 X7.214 Y-6.395 E200.61675
G1 X7.689 Y-6.138 E200.63472
G1 X8.378 Y-5.726 E200.66142
G1 X8.82 Y-5.437 E200.67898
G1 X9.263 Y-5.124 E200.69702
G1 X9.836 Y-4.684 E200.72105
G1 X10.251 Y-4.337 E200.73904
G1 X10.732 Y-3.902 E200.76061
G1 X11.105 Y-3.539 E200.77793
G1 X11.481 Y-3.146 E200.79602
G1 X11.917 Y-2.654 E200.81788
G1 X12.256 Y-2.242 E200.83563
G1 X12.668 Y-1.695 E200.8584
G1 X12.968 Y-1.266 E200.87581
G1 X13.253 Y-.825 E200.89328
G1 X13.537 Y-.348 E200.91174
G1 X13.619 Y-0.093 E200.92065
G1 X13.611 Y0.131 E200.92811
G1 X13.48 Y0.452 E200.93964
G1 X13.149 Y0.991 E200.96068
G1 X12.836 Y1.46 E200.97943
G1 X12.511 Y1.909 E200.99786
G1 X12.191 Y2.322 E201.01524
G1 X11.845 Y2.738 E201.03324
G1 X11.492 Y3.134 E201.05088
G1 X11.131 Y3.513 E201.06829
G1 X10.917 Y3.722 E201.07824
G1 X10.552 Y4.069 E201.09499
G1 X10.173 Y4.403 E201.11179
G1 X9.73 Y4.766 E201.13084
G1 X9.324 Y5.077 E201.14785
G1 X8.881 Y5.393 E201.16595
G1 X8.391 Y5.719 E201.18553
G1 X7.901 Y6.018 E201.20462
G1 X7.423 Y6.285 E201.22283
G1 X6.95 Y6.53 E201.24055
G1 X6.441 Y6.769 E201.25925
G1 X5.952 Y6.979 E201.27695
G1 X5.434 Y7.181 E201.29544
G1 X4.776 Y7.407 E201.31858
G1 X4.312 Y7.545 E201.33468
G1 X3.407 Y7.775 E201.36574
G1 X2.702 Y7.916 E201.38965
G1 X1.997 Y8.023 E201.41337
G1 X1.238 Y8.102 E201.43875
G1 X0.498 Y8.142 E201.4634
G1 X-.268 Y8.146 E201.48888
G1 X-.98 Y8.117 E201.51258
G1 X-1.225 Y8.102 E201.52074
G1 X-1.927 Y8.05 E201.54415
G1 X-4.829 Y7.855 E201.64089
G1 X-4.996 Y7.842 E201.64646
G1 X-12.492 Y7.336 E201.89635
G1 X-20.331 Y6.81 E202.15766
G1 X-24.6 Y6.526 E202.29996
G1 X-24.958 Y6.454 E202.31211
G1 X-25.205 Y6.328 E202.32133
G1 X-25.448 Y6.103 E202.33234
G1 X-25.603 Y5.831 E202.34276
G1 X-25.688 Y5.503 E202.35403
G1 X-25.699 Y5.277 E202.36155
G1 X-25.701 Y1.404 E202.49037
G1 X-20.225 Y1.4 E202.6725
G1 X-20.225 Y-1.399 E202.7656
G0 F7200 X-20.625 Y-.999
;TYPE:WALL-OUTER
G1 F1800 X-26.1 Y-1.001 E202.9477
G1 X-26.1 Y-5.309 E203.09098
G1 X-26.047 Y-5.765 E203.10625
G1 X-25.875 Y-6.19 E203.1215
G1 X-25.624 Y-6.507 E203.13495
G1 X-25.266 Y-6.76 E203.14953
G1 X-24.814 Y-6.902 E203.16529
G1 X-24.65 Y-6.922 E203.17078
G1 X-10.984 Y-7.837 E203.62633
G1 X-2.559 Y-8.409 E203.90719
G1 X-1.263 Y-8.499 E203.9504
G1 X-.294 Y-8.546 E203.98267
G1 X0.332 Y-8.546 E204.00349
G1 X1.113 Y-8.511 E204.02949
G1 X1.717 Y-8.458 E204.04966
G1 X2.47 Y-8.359 E204.07492
G1 X3.204 Y-8.228 E204.09972
G1 X4.056 Y-8.031 E204.1288
G1 X4.887 Y-7.791 E204.15757
G1 X5.504 Y-7.58 E204.17926
G1 X5.692 Y-7.512 E204.18591
G1 X6.222 Y-7.301 E204.20488
G1 X6.857 Y-7.018 E204.22801
G1 X7.404 Y-6.747 E204.24831
G1 X7.889 Y-6.485 E204.26664
G1 X8.597 Y-6.061 E204.29409
G1 X9.051 Y-5.764 E204.31214
G1 X9.494 Y-5.451 E204.33018
G1 X10.093 Y-4.991 E204.3553
G1 X10.508 Y-4.644 E204.37329
G1 X11.011 Y-4.189 E204.39585
G1 X11.394 Y-3.816 E204.41363
G1 X11.77 Y-3.423 E204.43172
G1 X12.226 Y-2.908 E204.4546
G1 X12.576 Y-2.483 E204.47291
G1 X12.988 Y-1.936 E204.49569
G1 X13.304 Y-1.483 E204.51406
G1 X13.597 Y-1.03 E204.532
G1 X13.904 Y-.515 E204.55194
G1 X14.021 Y-.149 E204.56472
G1 X14.009 Y0.216 E204.57687
G1 X13.838 Y0.633 E204.59186
G1 X13.482 Y1.213 E204.61449
G1 X13.16 Y1.695 E204.63377
G1 X12.835 Y2.144 E204.65221
G1 X12.499 Y2.578 E204.67046
G1 X12.153 Y2.994 E204.68846
G1 X11.791 Y3.4 E204.70655
G1 X11.411 Y3.798 E204.72485
G1 X11.193 Y4.012 E204.73502
G1 X10.828 Y4.359 E204.75177
G1 X10.427 Y4.712 E204.76953
G1 X9.984 Y5.075 E204.78858
G1 X9.556 Y5.403 E204.80652
G1 X9.113 Y5.719 E204.82462
G1 X8.609 Y6.054 E204.84475
G1 X8.096 Y6.367 E204.86473
G1 X7.607 Y6.64 E204.88336
G1 X7.12 Y6.892 E204.9016
G1 X6.611 Y7.131 E204.9203
G1 X6.097 Y7.352 E204.93891
G1 X5.579 Y7.554 E204.9574
G1 X4.901 Y7.787 E204.98125
G1 X4.411 Y7.933 E204.99825
G1 X3.506 Y8.163 E205.02931
G1 X2.774 Y8.309 E205.05414
G1 X2.038 Y8.421 E205.0789
G1 X1.28 Y8.5 E205.10424
G1 X0.502 Y8.542 E205.13016
G1 X-.282 Y8.546 E205.15624
G1 X-.996 Y8.517 E205.18
G1 X-1.255 Y8.501 E205.18863
G1 X-1.955 Y8.449 E205.21198
G1 X-4.861 Y8.254 E205.30885
G1 X-5.025 Y8.241 E205.31432
G1 X-12.519 Y7.735 E205.56414
G1 X-20.358 Y7.209 E205.82545
G1 X-21.92 Y7.106 E205.87752
G1 X-24.651 Y6.923 E205.96856
G1 X-25.091 Y6.835 E205.98348
G1 X-25.436 Y6.659 E205.99636
G1 X-25.764 Y6.356 E206.01121
G1 X-25.977 Y5.983 E206.0255
G1 X-26.086 Y5.558 E206.04009
G1 X-26.099 Y5.297 E206.04878
G1 X-26.101 Y1.004 E206.19157
G1 X-20.625 Y1 E206.3737
G1 X-20.625 Y-.999 E206.44019
G0 F7200 X-20.825 Y-.999
G0 X-20.824 Y-1.499
G0 X-19.835 Y-1.789
;TYPE:SKIN
G1 F1800 X-25.31 Y-1.791 E206.62229
G1 X-25.31 Y-5.261 E206.7377
G1 X-25.274 Y-5.569 E206.74802
G1 X-25.185 Y-5.789 E206.75591
G1 X-25.074 Y-5.93 E206.76188
G1 X-24.922 Y-6.037 E206.76806
G1 X-24.552 Y-6.136 E206.7808
G1 X-10.931 Y-7.048 E207.23485
G1 X-1.218 Y-7.709 E207.55865
G1 X-.256 Y-7.756 E207.59069
G1 X0.297 Y-7.756 E207.60908
G1 X1.078 Y-7.722 E207.63508
G1 X1.63 Y-7.673 E207.65351
G1 X2.344 Y-7.579 E207.67747
G1 X3.047 Y-7.453 E207.70122
G1 X3.865 Y-7.264 E207.72914
G1 X4.667 Y-7.032 E207.75691
G1 X5.238 Y-6.837 E207.77698
G1 X5.4 Y-6.777 E207.78273
G1 X5.93 Y-6.566 E207.8017
G1 X6.527 Y-6.3 E207.82344
G1 X7.028 Y-6.052 E207.84203
G1 X7.488 Y-5.803 E207.85943
G1 X8.2 Y-5.377 E207.88702
G1 X8.595 Y-5.119 E207.90272
G1 X9.008 Y-4.827 E207.91954
G1 X9.61 Y-4.365 E207.94478
G1 X9.995 Y-4.043 E207.96147
G1 X10.465 Y-3.618 E207.98255
G1 X10.827 Y-3.265 E207.99936
G1 X11.189 Y-2.887 E208.01677
G1 X11.621 Y-2.4 E208.03842
G1 X11.949 Y-2.001 E208.0556
G1 X12.348 Y-1.471 E208.07767
G1 X12.64 Y-1.054 E208.0946
G1 X12.925 Y-.613 E208.11206
G1 X13.18 Y-.187 E208.12858
G1 X13.223 Y0.048 E208.13652
G1 X13.13 Y0.278 E208.14478
G1 X12.825 Y0.775 E208.16417
G1 X12.52 Y1.232 E208.18244
G1 X12.203 Y1.67 E208.20043
G1 X11.887 Y2.077 E208.21757
G1 X11.549 Y2.484 E208.23516
G1 X11.209 Y2.865 E208.25215
G1 X10.858 Y3.234 E208.26908
G1 X10.288 Y3.781 E208.29536
G1 X9.92 Y4.106 E208.31169
G1 X9.492 Y4.456 E208.33008
G1 X9.086 Y4.767 E208.34709
G1 X8.66 Y5.071 E208.3645
G1 X8.181 Y5.39 E208.38364
G1 X7.71 Y5.677 E208.40198
G1 X7.232 Y5.944 E208.42019
G1 X6.777 Y6.18 E208.43724
G1 X6.287 Y6.41 E208.45524
G1 X5.798 Y6.62 E208.47294
G1 X5.307 Y6.812 E208.49048
G1 X4.657 Y7.035 E208.51333
G1 X4.207 Y7.169 E208.52895
G1 X3.311 Y7.397 E208.5597
G1 X2.643 Y7.53 E208.58236
G1 X1.94 Y7.637 E208.60601
G1 X1.217 Y7.712 E208.63018
G1 X0.477 Y7.752 E208.65483
G1 X-.254 Y7.756 E208.67915
G1 X-.956 Y7.727 E208.70251
G1 X-1.299 Y7.706 E208.71394
G1 X-1.899 Y7.66 E208.73396
G1 X-4.968 Y7.454 E208.83626
G1 X-12.466 Y6.946 E209.08622
G1 X-20.305 Y6.42 E209.34753
G1 X-24.559 Y6.137 E209.48933
G1 X-24.826 Y6.084 E209.49839
G1 X-24.98 Y6.005 E209.50414
G1 X-25.137 Y5.859 E209.51127
G1 X-25.239 Y5.682 E209.51807
G1 X-25.309 Y5.267 E209.53207
G1 X-25.311 Y1.794 E209.64758
G1 X-19.835 Y1.79 E209.82971
G1 X-19.835 Y-1.789 E209.94875
G0 F7200 X-20.197 Y1.428
G0 X-25.095 Y5.451
G1 F1800 X-24.601 Y5.945 E209.97199
G0 F7200 X-23.987 Y5.994
G1 F1800 X-25.129 Y4.852 E210.0257
G0 F7200 X-25.129 Y4.286
G1 F1800 X-23.381 Y6.034 E210.10792
G0 F7200 X-22.775 Y6.074
G1 F1800 X-25.129 Y3.72 E210.21865
G0 F7200 X-25.129 Y3.154
G1 F1800 X-22.169 Y6.115 E210.3579
G0 F7200 X-21.563 Y6.155
G1 F1800 X-25.13 Y2.588 E210.52568
G0 F7200 X-25.13 Y2.022
G1 F1800 X-20.957 Y6.195 E210.72197
G0 F7200 X-20.351 Y6.235
G1 F1800 X-24.612 Y1.974 E210.92239
G0 F7200 X-24.047 Y1.973
G1 F1800 X-19.744 Y6.276 E211.12479
G0 F7200 X-19.138 Y6.317
G1 F1800 X-23.482 Y1.973 E211.32912
G0 F7200 X-22.917 Y1.972
G1 F1800 X-18.531 Y6.358 E211.53542
G0 F7200 X-17.925 Y6.398
G1 F1800 X-22.352 Y1.972 E211.74363
G0 F7200 X-21.786 Y1.972
G1 F1800 X-17.319 Y6.439 E211.95375
G0 F7200 X-16.713 Y6.479
G1 F1800 X-21.221 Y1.971 E212.16579
G0 F7200 X-20.656 Y1.971
G1 F1800 X-16.106 Y6.52 E212.37978
G0 F7200 X-15.5 Y6.561
G1 F1800 X-20.091 Y1.97 E212.59573
G0 F7200 X-19.654 Y1.841
G1 F1800 X-14.893 Y6.602 E212.81967
G0 F7200 X-14.287 Y6.643
G1 F1800 X-19.654 Y1.275 E213.07214
G0 F7200 X-19.654 Y0.709
G1 F1800 X-13.681 Y6.683 E213.35312
G0 F7200 X-13.074 Y6.724
G1 F1800 X-19.654 Y0.144 E213.66262
G0 F7200 X-19.654 Y-.421
G1 F1800 X-12.468 Y6.764 E214.00061
G0 F7200 X-11.861 Y6.805
G1 F1800 X-19.654 Y-.987 E214.36714
G0 F7200 X-19.654 Y-1.552
G1 F1800 X-11.255 Y6.846 E214.76218
G0 F7200 X-10.648 Y6.887
G1 F1800 X-23.557 Y-6.021 E215.36936
G0 F7200 X-23.027 Y-6.057
G1 F1800 X-10.041 Y6.928 E215.98015
G0 F7200 X-9.434 Y6.969
G1 F1800 X-22.497 Y-6.092 E216.59455
G0 F7200 X-21.967 Y-6.128
G1 F1800 X-8.828 Y7.01 E217.21255
G0 F7200 X-8.221 Y7.051
G1 F1800 X-21.437 Y-6.163 E217.83414
G0 F7200 X-20.907 Y-6.199
G1 F1800 X-7.614 Y7.092 E218.45935
G0 F7200 X-7.008 Y7.134
G1 F1800 X-20.376 Y-6.234 E219.08814
G0 F7200 X-19.846 Y-6.269
G1 F1800 X-6.401 Y7.175 E219.72053
G0 F7200 X-5.794 Y7.216
G1 F1800 X-19.316 Y-6.305 E220.35654
G0 F7200 X-18.786 Y-6.341
G1 F1800 X-5.188 Y7.257 E220.99615
G0 F7200 X-4.581 Y7.298
G1 F1800 X-18.256 Y-6.376 E221.63936
G0 F7200 X-17.725 Y-6.412
G1 F1800 X-3.974 Y7.339 E222.28616
G0 F7200 X-3.367 Y7.38
G1 F1800 X-17.195 Y-6.447 E222.93656
G0 F7200 X-16.665 Y-6.482
G1 F1800 X-2.761 Y7.421 E223.59054
G0 F7200 X-2.154 Y7.462
G1 F1800 X-16.135 Y-6.518 E224.24814
G0 F7200 X-15.605 Y-6.554
G1 F1800 X-1.544 Y7.506 E224.90951
G0 F7200 X-.939 Y7.546
G1 F1800 X-15.074 Y-6.589 E225.57437
G0 F7200 X-14.544 Y-6.624
G1 F1800 X-.348 Y7.57 E226.24206
G0 F7200 X0.218 Y7.572
G1 F1800 X-14.014 Y-6.66 E226.91149
G0 F7200 X-13.484 Y-6.696
G1 F1800 X0.766 Y7.554 E227.58177
G0 F7200 X1.298 Y7.521
G1 F1800 X-12.954 Y-6.731 E228.25214
G0 F7200 X-12.423 Y-6.767
G1 F1800 X1.811 Y7.468 E228.92169
G0 F7200 X2.307 Y7.398
G1 F1800 X-11.893 Y-6.802 E229.58961
G0 F7200 X-11.363 Y-6.837
G1 F1800 X2.79 Y7.316 E230.25532
G0 F7200 X3.261 Y7.221
G1 F1800 X-10.833 Y-6.873 E230.91826
G0 F7200 X-10.303 Y-6.909
G1 F1800 X3.713 Y7.107 E231.57753
G0 F7200 X4.163 Y6.991
G1 F1800 X-9.774 Y-6.945 E232.23306
G0 F7200 X-9.244 Y-6.981
G1 F1800 X4.599 Y6.862 E232.88419
G0 F7200 X5.021 Y6.718
G1 F1800 X-8.714 Y-7.017 E233.53025
G0 F7200 X-8.184 Y-7.053
G1 F1800 X5.436 Y6.567 E234.17089
G0 F7200 X5.839 Y6.404
G1 F1800 X-7.655 Y-7.089 E234.80558
G0 F7200 X-7.125 Y-7.125
G1 F1800 X6.234 Y6.234 E235.43395
G0 F7200 X6.619 Y6.054
G1 F1800 X-6.595 Y-7.161 E236.05552
G0 F7200 X-6.066 Y-7.197
G1 F1800 X6.993 Y5.862 E236.66977
G0 F7200 X7.36 Y5.663
G1 F1800 X-5.536 Y-7.233 E237.27636
G0 F7200 X-5.007 Y-7.269
G1 F1800 X7.72 Y5.458 E237.875
G0 F7200 X8.073 Y5.244
G1 F1800 X-4.477 Y-7.305 E238.46529
G0 F7200 X-3.947 Y-7.341
G1 F1800 X8.412 Y5.018 E239.04662
G0 F7200 X8.746 Y4.786
G1 F1800 X-3.418 Y-7.377 E239.61875
G0 F7200 X-2.888 Y-7.414
G1 F1800 X9.073 Y4.548 E240.18139
G0 F7200 X9.393 Y4.302
G1 F1800 X-2.358 Y-7.45 E240.73414
G0 F7200 X-1.829 Y-7.486
G1 F1800 X9.704 Y4.047 E241.27662
G0 F7200 X10.008 Y3.785
G1 F1800 X-1.298 Y-7.521 E241.80842
G0 F7200 X-.761 Y-7.549
G1 F1800 X10.303 Y3.515 E242.32883
G0 F7200 X10.592 Y3.238
G1 F1800 X-.221 Y-7.575 E242.83744
G0 F7200 X0.347 Y-7.572
G1 F1800 X10.874 Y2.954 E243.33258
G0 F7200 X11.148 Y2.662
G1 F1800 X0.938 Y-7.546 E243.81278
G0 F7200 X1.552 Y-7.498
G1 F1800 X11.414 Y2.363 E244.27663
G0 F7200 X11.671 Y2.054
G1 F1800 X2.201 Y-7.415 E244.72205
G0 F7200 X2.882 Y-7.299
G1 F1800 X11.921 Y1.738 E245.14717
G0 F7200 X12.164 Y1.416
G1 F1800 X3.61 Y-7.137 E245.5495
G1 X3.54 Y-7.207
G0 F7200 X4.389 Y-6.923
G1 F1800 X12.4 Y1.086 E245.92627
G0 F7200 X12.626 Y0.747
G1 F1800 X5.234 Y-6.645 E246.27396
G1 X5.164 Y-6.715
G0 F7200 X6.194 Y-6.25
G1 F1800 X12.844 Y0.399 E246.58674
G0 F7200 X13.035 Y0.024
G1 F1800 X7.323 Y-5.687 E246.85539
G1 X7.253 Y-5.757
G0 F7200 X8.877 Y-4.699
G1 F1800 X12.174 Y-1.402 E247.01047
G1 X12.244 Y-1.332
G0 F7200 X-20.071 Y-1.969
G1 F1800 X-24.088 Y-5.986 E247.19941
G0 F7200 X-24.603 Y-5.935
G1 F1800 X-20.637 Y-1.969 E247.38596
G0 F7200 X-21.203 Y-1.969
G1 F1800 X-24.984 Y-5.751 E247.56383
G0 F7200 X-25.121 Y-5.322
G1 F1800 X-21.769 Y-1.97 E247.7215
G0 F7200 X-22.335 Y-1.97
G1 F1800 X-25.129 Y-4.764 E247.85292
G0 F7200 X-25.129 Y-4.198
G1 F1800 X-22.901 Y-1.97 E247.95772
G0 F7200 X-23.467 Y-1.971
G1 F1800 X-25.129 Y-3.633 E248.0359
G0 F7200 X-25.129 Y-3.067
G1 F1800 X-24.033 Y-1.971 E248.08745
G0 F7200 X-24.598 Y-1.971
G1 F1800 X-25.129 Y-2.501 E248.1124
;MESH:NONMESH
G0 F600 X-25.129 Y-2.501 Z1.3
G0 F7200 X-20.225 Y-1.515
;TIME_ELAPSED:241.293832
;LAYER:5
;TYPE:WALL-INNER
;MESH:benchy.stl
G1 F3600 X-25.794 Y-1.516 E248.29763
G1 X-25.794 Y-5.425 E248.42764
G1 X-25.742 Y-5.798 E248.44017
G1 X-25.626 Y-6.085 E248.45046
G1 X-25.446 Y-6.315 E248.46018
G1 X-25.193 Y-6.496 E248.47052
G1 X-24.703 Y-6.628 E248.4874
G1 X-23.538 Y-6.709 E248.52624
G1 X-20.641 Y-6.905 E248.62282
G1 X-19.074 Y-7.014 E248.67506
G1 X-9.524 Y-7.666 E248.99344
G1 X-2.933 Y-8.124 E249.21318
G1 X-.984 Y-8.262 E249.27817
G1 X-.484 Y-8.285 E249.29482
G1 X0.277 Y-8.291 E249.32013
G1 X1.076 Y-8.256 E249.34673
G1 X1.787 Y-8.194 E249.37047
G1 X2.548 Y-8.089 E249.39602
G1 X3.277 Y-7.953 E249.42068
G1 X3.818 Y-7.83 E249.43914
G1 X4.388 Y-7.679 E249.45875
G1 X5.214 Y-7.419 E249.48755
G1 X5.723 Y-7.234 E249.50556
G1 X6.381 Y-6.966 E249.52919
G1 X7.111 Y-6.625 E249.55599
G1 X7.728 Y-6.3 E249.57919
G1 X8.217 Y-6.018 E249.59796
G1 X8.656 Y-5.744 E249.61517
G1 X9.113 Y-5.44 E249.63343
G1 X9.553 Y-5.121 E249.6515
G1 X10.087 Y-4.705 E249.67402
G1 X10.62 Y-4.249 E249.69735
G1 X11.006 Y-3.892 E249.71484
G1 X11.387 Y-3.516 E249.73264
G1 X11.775 Y-3.105 E249.75144
G1 X12.117 Y-2.717 E249.76864
G1 X12.469 Y-2.289 E249.78707
G1 X12.798 Y-1.859 E249.80508
G1 X13.089 Y-1.447 E249.82186
G1 X13.421 Y-.953 E249.84165
G1 X13.696 Y-.502 E249.85922
G1 X13.849 Y-.178 E249.87114
G1 X13.871 Y0.02 E249.87777
G1 X13.835 Y0.217 E249.88443
G1 X13.58 Y0.696 E249.90248
G1 X13.287 Y1.157 E249.92064
G1 X12.895 Y1.728 E249.94368
G1 X12.478 Y2.278 E249.96664
G1 X12.147 Y2.682 E249.98401
G1 X11.787 Y3.091 E250.00213
G1 X11.451 Y3.447 E250.01841
G1 X11.058 Y3.84 E250.0369
G1 X10.674 Y4.199 E250.05438
G1 X10.262 Y4.557 E250.07253
G1 X9.811 Y4.927 E250.09194
G1 X9.604 Y5.084 E250.10058
G1 X9.157 Y5.409 E250.11896
G1 X8.711 Y5.711 E250.13687
G1 X8.234 Y6.008 E250.15556
G1 X7.741 Y6.292 E250.17449
G1 X7.163 Y6.599 E250.19625
G1 X6.517 Y6.906 E250.22004
G1 X5.753 Y7.223 E250.24755
G1 X5.081 Y7.464 E250.2713
G1 X4.566 Y7.627 E250.28927
G1 X3.995 Y7.785 E250.30897
G1 X3.43 Y7.92 E250.32829
G1 X2.707 Y8.062 E250.3528
G1 X2.13 Y8.151 E250.37222
G1 X1.21 Y8.247 E250.40298
G1 X0.45 Y8.286 E250.42829
G1 X-.161 Y8.292 E250.44862
G1 X-.801 Y8.273 E250.46991
G1 X-1.655 Y8.215 E250.49838
G1 X-5.082 Y7.974 E250.61265
G1 X-6.326 Y7.89 E250.65411
G1 X-6.529 Y7.874 E250.66089
G1 X-12.801 Y7.441 E250.86999
G1 X-15.706 Y7.245 E250.96683
G1 X-15.924 Y7.228 E250.9741
G1 X-20.205 Y6.937 E251.11682
G1 X-24.757 Y6.624 E251.26858
G1 X-25.129 Y6.527 E251.28136
G1 X-25.382 Y6.372 E251.29123
G1 X-25.59 Y6.142 E251.30155
G1 X-25.732 Y5.831 E251.31292
G1 X-25.794 Y5.421 E251.32671
G1 X-25.795 Y1.517 E251.45656
G1 X-20.225 Y1.516 E251.64182
G1 X-20.225 Y-1.515 E251.74263
G0 F7200 X-20.625 Y-1.115
;TYPE:WALL-OUTER
G1 F1800 X-26.194 Y-1.116 E251.92785
G1 X-26.194 Y-5.451 E252.07204
G1 X-26.131 Y-5.904 E252.08725
G1 X-25.977 Y-6.285 E252.10092
G1 X-25.726 Y-6.606 E252.11447
G1 X-25.376 Y-6.856 E252.12877
G1 X-24.967 Y-6.998 E252.14317
G1 X-24.745 Y-7.026 E252.15062
G1 X-23.566 Y-7.108 E252.18993
G1 X-20.669 Y-7.304 E252.2865
G1 X-19.102 Y-7.413 E252.33874
G1 X-9.552 Y-8.065 E252.65712
G1 X-2.961 Y-8.523 E252.87686
G1 X-1.002 Y-8.662 E252.94218
G1 X-.502 Y-8.685 E252.95883
G1 X0.291 Y-8.691 E252.98521
G1 X1.093 Y-8.656 E253.01191
G1 X1.837 Y-8.591 E253.03675
G1 X2.61 Y-8.484 E253.0627
G1 X3.36 Y-8.344 E253.08808
G1 X3.92 Y-8.217 E253.10718
G1 X4.503 Y-8.063 E253.12723
G1 X5.338 Y-7.8 E253.15635
G1 X5.86 Y-7.61 E253.17483
G1 X6.539 Y-7.333 E253.19922
G1 X7.297 Y-6.979 E253.22704
G1 X7.928 Y-6.647 E253.25076
G1 X8.417 Y-6.365 E253.26953
G1 X8.878 Y-6.077 E253.28761
G1 X9.342 Y-5.768 E253.30615
G1 X9.788 Y-5.445 E253.32447
G1 X10.347 Y-5.009 E253.34805
G1 X10.88 Y-4.553 E253.37138
G1 X11.287 Y-4.177 E253.38981
G1 X11.678 Y-3.791 E253.40808
G1 X12.066 Y-3.38 E253.42688
G1 X12.426 Y-2.971 E253.445
G1 X12.787 Y-2.532 E253.46391
G1 X13.125 Y-2.09 E253.48241
G1 X13.416 Y-1.678 E253.49919
G1 X13.753 Y-1.176 E253.5193
G1 X14.051 Y-.688 E253.53832
G1 X14.238 Y-.29 E253.55294
G1 X14.275 Y0.036 E253.56386
G1 X14.218 Y0.351 E253.5745
G1 X13.928 Y0.893 E253.59495
G1 X13.617 Y1.384 E253.61428
G1 X13.221 Y1.96 E253.63753
G1 X12.796 Y2.52 E253.66091
G1 X12.447 Y2.946 E253.67923
G1 X12.078 Y3.366 E253.69782
G1 X11.734 Y3.73 E253.71448
G1 X11.341 Y4.123 E253.73297
G1 X10.936 Y4.501 E253.75139
G1 X10.516 Y4.866 E253.7699
G1 X10.065 Y5.236 E253.7893
G1 X9.839 Y5.408 E253.79875
G1 X9.392 Y5.733 E253.81713
G1 X8.923 Y6.05 E253.83596
G1 X8.434 Y6.355 E253.85513
G1 X7.941 Y6.639 E253.87405
G1 X7.344 Y6.956 E253.89653
G1 X6.687 Y7.268 E253.92072
G1 X5.896 Y7.596 E253.9492
G1 X5.202 Y7.845 E253.97373
G1 X4.673 Y8.013 E253.99219
G1 X4.102 Y8.171 E254.01189
G1 X3.507 Y8.313 E254.03224
G1 X2.784 Y8.455 E254.05674
G1 X2.172 Y8.549 E254.07734
G1 X1.252 Y8.645 E254.1081
G1 X0.454 Y8.686 E254.13468
G1 X-.169 Y8.692 E254.1554
G1 X-.813 Y8.673 E254.17683
G1 X-1.682 Y8.614 E254.2058
G1 X-5.109 Y8.373 E254.32006
G1 X-6.358 Y8.289 E254.3617
G1 X-6.559 Y8.273 E254.36841
G1 X-12.829 Y7.84 E254.57744
G1 X-15.737 Y7.644 E254.67438
G1 X-15.953 Y7.627 E254.68159
G1 X-20.232 Y7.336 E254.82424
G1 X-24.822 Y7.02 E254.97726
G1 X-25.287 Y6.899 E254.99325
G1 X-25.64 Y6.683 E255.00701
G1 X-25.928 Y6.364 E255.0213
G1 X-26.117 Y5.951 E255.03641
G1 X-26.191 Y5.534 E255.0505
G1 X-26.194 Y5.421 E255.05426
G1 X-26.195 Y1.117 E255.19741
G1 X-20.625 Y1.116 E255.38267
G1 X-20.625 Y-1.115 E255.45687
G0 F7200 X-20.825 Y-1.115
G0 X-20.824 Y-1.615
G0 X-19.835 Y-1.905
;TYPE:SKIN
G1 F1800 X-25.404 Y-1.906 E255.6421
G1 X-25.404 Y-5.399 E255.75827
G1 X-25.362 Y-5.698 E255.76832
G1 X-25.287 Y-5.885 E255.77502
G1 X-25.172 Y-6.032 E255.78122
G1 X-25.025 Y-6.138 E255.78725
G1 X-24.642 Y-6.24 E255.80044
G1 X-23.511 Y-6.319 E255.83814
G1 X-20.614 Y-6.515 E255.93472
G1 X-19.047 Y-6.624 E255.98696
G1 X-9.497 Y-7.276 E256.30534
G1 X-2.906 Y-7.734 E256.52508
G1 X-.957 Y-7.872 E256.59007
G1 X-.466 Y-7.895 E256.60642
G1 X0.264 Y-7.901 E256.6307
G1 X1.059 Y-7.866 E256.65717
G1 X1.74 Y-7.808 E256.6799
G1 X2.476 Y-7.705 E256.70462
G1 X3.205 Y-7.569 E256.72928
G1 X3.725 Y-7.451 E256.74702
G1 X4.279 Y-7.304 E256.76608
