;FLAVOR:Marlin
;TIME:2761
;Filament used: 6.62298m
;Layer height: 0.5
;MINX:-29.8
;MINY:-15.302
;MINZ:0.3
;MAXX:29.753
;MAXY:15.302
;MAXZ:47.8
;Generated with Cura_SteamEngine 4.13.1
M104 S200
M105
M109 S200
M82 ;absolute extrusion mode

G92 E0
G92 E0
;LAYER_COUNT:96
;LAYER:0
M107
;MESH:benchy.stl
G0 F3600 X-6.083 Y-.83 Z0.3
;TYPE:WALL-INNER
G1 F1800 X-5.995 Y-.392 E0.02229
G1 X-5.984 Y0.076 E0.04564
G1 X-6.04 Y0.552 E0.06956
G1 X-6.171 Y0.924 E0.08923
G1 X-6.324 Y1.118 E0.10156
G1 X-6.499 Y1.216 E0.11156
G1 X-7.278 Y1.287 E0.15059
G1 X-7.275 Y0.869 E0.17144
G1 X-7.273 Y-.889 E0.25915
G1 X-7.275 Y-1.339 E0.2816
G1 X-6.499 Y-1.291 E0.32039
G1 X-6.347 Y-1.238 E0.32842
G1 X-6.234 Y-1.138 E0.33595
G1 X-6.083 Y-.83 E0.35306
G0 F3600 X-5.701 Y-.959
;TYPE:WALL-OUTER
G1 F1800 X-5.596 Y-.435 E0.37973
G1 X-5.583 Y0.092 E0.40603
G1 X-5.648 Y0.643 E0.43371
G1 X-5.816 Y1.119 E0.45889
G1 X-6.06 Y1.429 E0.47857
G1 X-6.347 Y1.589 E0.49497
G1 X-6.42 Y1.609 E0.49874
G1 X-6.928 Y1.676 E0.52431
G1 X-7.456 Y1.693 E0.55066
G1 X-7.631 Y1.667 E0.55949
G1 X-7.684 Y1.561 E0.5654
G1 X-7.672 Y0.97 E0.59489
G1 X-7.675 Y0.869 E0.59993
G1 X-7.673 Y-.888 E0.68759
G1 X-7.677 Y-1.661 E0.72616
G1 X-7.642 Y-1.733 E0.73015
G1 X-6.936 Y-1.744 E0.76538
G1 X-6.408 Y-1.683 E0.79189
G1 X-6.14 Y-1.59 E0.80605
G1 X-5.91 Y-1.385 E0.82142
G1 X-5.701 Y-.959 E0.84509
G0 F3600 X-5.662 Y-.763
G0 X-6.454 Y-.698
;TYPE:SKIN
G1 F1800 X-6.385 Y-.352 E0.86269
G1 X-6.374 Y0.055 E0.883
G1 X-6.423 Y0.466 E0.90365
G1 X-6.581 Y0.814 E0.92272
G1 X-6.885 Y0.86 E0.93806
G1 X-6.883 Y-.924 E1.02707
G1 X-6.55 Y-.896 E1.04374
G1 X-6.454 Y-.698 E1.05472
G0 F3600 X-6.702 Y-.48
G1 F1800 X-6.565 Y-.342 E1.06442
G0 F3600 X-6.704 Y0.084
G1 F1800 X-6.573 Y0.214 E1.07362
G0 F3600 X-7.253 Y-.889
G0 X-9.276 Y-.879
G0 X-10.194 Y-1.08
G0 X-10.143 Y-2.295
G0 X-10.631 Y-3.072
G0 X-11.567 Y-3.509
G0 X-12.771 Y-3.529
G0 X-13.759 Y-3.145
G0 X-14.235 Y-2.421
G0 X-13.689 Y-1.427
G0 X-12.318 Y-1.544
;TYPE:WALL-INNER
G1 F1800 X-12.638 Y-1.446 E1.09032
G1 X-12.292 Y-1.611 E1.09316
G1 X-12.318 Y-1.544
G0 F3600 X-16.329 Y0.451
G0 X-16.317 Y2.389
G0 X-16.684 Y3.165
G0 X-17.477 Y3.334
G0 X-18.182 Y2.563
G0 X-21.465 Y0.959
G1 F1800 X-21.874 Y1.156 E1.11581
G1 X-22.134 Y1.407 E1.13383
G1 X-22.306 Y1.452 E1.1427
G1 X-22.587 Y1.446 E1.15673
G1 X-22.833 Y1.363 E1.16968
G1 X-23.038 Y1.206 E1.18256
G1 X-23.184 Y0.969 E1.19645
G1 X-23.294 Y0.568 E1.21719
G1 X-23.336 Y-0.005 E1.24586
G1 X-23.317 Y-.466 E1.26888
G1 X-23.214 Y-.958 E1.29396
G1 X-23.085 Y-1.217 E1.30839
G1 X-22.921 Y-1.381 E1.31996
G1 X-22.596 Y-1.513 E1.33746
G1 X-22.379 Y-1.514 E1.34829
G1 X-22.198 Y-1.437 E1.3581
G1 X-21.727 Y-1.154 E1.38552
G1 X-21.229 Y-.998 E1.41155
G1 X-20.824 Y-1.034 E1.43184
G1 X-20.413 Y-1.277 E1.45566
G1 X-20.125 Y-1.708 E1.48152
G1 X-20.084 Y-1.959 E1.49421
G1 X-20.049 Y-1.845
G1 X-19.728 Y-1.506 E1.5175
G1 X-19.323 Y-1.363 E1.53893
G1 X-18.9 Y-1.37 E1.56003
G1 X-18.384 Y-1.43 E1.58595
G1 X-18.292 Y-1.414 E1.59061
G1 X-18.283 Y-1.377 E1.59251
G1 X-18.317 Y-.793 E1.62169
G1 X-18.308 Y0.093 E1.6659
G1 X-18.313 Y1.333 E1.72776
G1 X-18.301 Y1.964 E1.75925
G1 X-18.345 Y2.581 E1.79011
G1 X-18.224 Y3.023 E1.81297
G1 X-17.964 Y3.311 E1.83233
G1 X-17.51 Y3.494 E1.85675
G1 X-17.036 Y3.499 E1.8804
G1 X-16.581 Y3.296 E1.90526
G1 X-16.29 Y2.928 E1.92866
G1 X-16.156 Y2.406 E1.95555
G1 X-16.172 Y1.669 E1.99233
G1 X-16.173 Y1.422 E2.00465
G1 X-16.169 Y0.806 E2.03539
G1 X-16.17 Y-.6 E2.10553
G1 X-16.167 Y-1.215 E2.13621
G1 X-16.162 Y-1.4 E2.14545
G1 X-15.729 Y-1.39 E2.16706
G1 X-15.15 Y-1.426 E2.196
G1 X-14.683 Y-1.596 E2.22079
G1 X-14.396 Y-1.889 E2.24125
G1 X-14.353 Y-2.004 E2.24738
G1 X-14.135 Y-1.596 E2.26344
G1 X-13.77 Y-1.283 E2.28743
G1 X-13.404 Y-1.167 E2.30658
G1 X-13.302 Y-1.186 E2.31176
G1 X-13.389 Y-1.13 E2.31208
G1 X-13.648 Y-.691 E2.33751
G1 X-13.725 Y-.234 E2.36063
G1 X-13.647 Y0.156 E2.38047
G1 X-13.426 Y0.474 E2.39979
G1 X-12.992 Y0.689 E2.42395
G1 X-12.433 Y0.799 E2.45238
G1 X-12.237 Y0.898 E2.46333
G1 X-12.05 Y1.099 E2.47703
G1 X-11.984 Y1.267 E2.48603
G1 X-12.044 Y1.479 E2.49703
G1 X-12.179 Y1.551 E2.50466
G1 X-12.335 Y1.46 E2.51367
G1 X-12.771 Y1.175 E2.53966
G1 X-13.188 Y1.082 E2.56097
G1 X-13.682 Y1.138 E2.58577
G1 X-14.11 Y1.394 E2.61066
G1 X-14.355 Y1.8 E2.63431
G1 X-14.396 Y2.313 E2.65999
G1 X-14.263 Y2.757 E2.68311
G1 X-13.964 Y3.147 E2.70763
G1 X-13.573 Y3.404 E2.73097
G1 X-13.005 Y3.591 E2.76081
G1 X-12.437 Y3.656 E2.78933
G1 X-11.833 Y3.634 E2.81948
G1 X-11.208 Y3.48 E2.8516
G1 X-10.693 Y3.199 E2.88087
G1 X-10.261 Y2.796 E2.91034
G1 X-9.907 Y2.223 E2.94394
G1 X-9.715 Y1.596 E2.97666
G1 X-9.694 Y1.038 E3.00452
G1 X-9.845 Y0.354 E3.03946
G1 X-10.075 Y-.242 E3.07134
G1 X-10.314 Y-.527 E3.08989
G1 X-10.134 Y-.737 E3.10369
G1 X-9.972 Y-1.255 E3.13077
G1 X-9.929 Y-1.877 E3.16187
G1 X-9.986 Y-2.337 E3.185
G1 X-10.166 Y-2.774 E3.20858
G1 X-10.521 Y-3.192 E3.23594
G1 X-10.932 Y-3.47 E3.26069
G1 X-11.534 Y-3.667 E3.2923
G1 X-12.212 Y-3.73 E3.32627
G1 X-12.801 Y-3.688 E3.35573
G1 X-13.363 Y-3.539 E3.38473
G1 X-13.854 Y-3.277 E3.4125
G1 X-14.211 Y-2.931 E3.4373
G1 X-14.27 Y-2.79 E3.44493
G1 X-14.473 Y-3.229 E3.46153
G1 X-14.849 Y-3.492 E3.48442
G1 X-15.302 Y-3.559 E3.50726
G1 X-16.024 Y-3.55 E3.54329
G1 X-16.202 Y-3.553 E3.55217
G1 X-16.766 Y-3.554 E3.58031
G1 X-17.208 Y-3.552 E3.60236
G1 X-18.011 Y-3.554 E3.64242
G1 X-18.559 Y-3.546 E3.66976
G1 X-19.201 Y-3.59 E3.70187
G1 X-19.654 Y-3.469 E3.72526
G1 X-19.953 Y-3.219 E3.74471
G1 X-20.16 Y-2.823 E3.767
G1 X-20.181 Y-2.62 E3.77718
G1 X-20.456 Y-2.996 E3.79138
G1 X-20.971 Y-3.39 E3.82373
G1 X-21.565 Y-3.632 E3.85573
G1 X-22.151 Y-3.722 E3.88531
G1 X-22.844 Y-3.703 E3.9199
G1 X-23.459 Y-3.564 E3.95135
G1 X-24.085 Y-3.263 E3.98601
G1 X-24.58 Y-2.862 E4.01779
G1 X-25.012 Y-2.304 E4.05299
G1 X-25.271 Y-1.761 E4.08301
G1 X-25.296 Y-1.667 E4.08786
G1 X-25.296 Y-2.304 E4.10115
G1 X-25.296 Y-4.868 E4.22907
G1 X-25.239 Y-5.264 E4.24903
G1 X-25.119 Y-5.551 E4.26455
G1 X-24.933 Y-5.781 E4.2793
G1 X-24.694 Y-5.949 E4.29388
G1 X-24.198 Y-6.08 E4.31947
G1 X-.692 Y-7.516 E5.49438
G1 X0.003 Y-7.536 E5.52907
G1 X0.673 Y-7.521 E5.5625
G1 X1.337 Y-7.479 E5.59569
G1 X2.152 Y-7.381 E5.63665
G1 X2.843 Y-7.262 E5.67163
G1 X3.628 Y-7.083 E5.7118
G1 X4.264 Y-6.903 E5.74477
G1 X4.878 Y-6.7 E5.77704
G1 X5.342 Y-6.526 E5.80176
G1 X5.922 Y-6.281 E5.83317
G1 X6.542 Y-5.986 E5.86743
G1 X7.019 Y-5.732 E5.89439
G1 X7.491 Y-5.457 E5.92164
G1 X7.957 Y-5.164 E5.9491
G1 X8.459 Y-4.817 E5.97955
G1 X8.948 Y-4.446 E6.01017
G1 X9.568 Y-3.93 E6.05042
G1 X10.117 Y-3.416 E6.08794
G1 X10.483 Y-3.044 E6.11397
G1 X10.838 Y-2.654 E6.14028
G1 X11.205 Y-2.219 E6.16868
G1 X11.5 Y-1.84 E6.19264
G1 X11.919 Y-1.256 E6.2285
G1 X12.198 Y-.83 E6.2539
G1 X12.456 Y-.404 E6.27875
G1 X12.562 Y-.132 E6.29331
G1 X12.567 Y0.103 E6.30504
G1 X12.488 Y0.347 E6.31784
G1 X12.186 Y0.848 E6.34702
G1 X11.888 Y1.307 E6.37432
G1 X11.525 Y1.814 E6.40543
G1 X11.108 Y2.337 E6.4388
G1 X11.096 Y2.241 E6.44363
G1 X10.846 Y1.817 E6.46819
G1 X10.382 Y1.565 E6.49453
G1 X9.752 Y1.482 E6.52623
G1 X9.686 Y1.467 E6.52961
G1 X10.246 Y0.666 E6.57837
G1 X10.599 Y0.174 E6.60858
G1 X10.951 Y-.413 E6.64273
G1 X11.063 Y-.902 E6.66776
G1 X10.991 Y-1.448 E6.69523
G1 X10.741 Y-1.841 E6.71847
G1 X10.396 Y-2.055 E6.73872
G1 X9.881 Y-2.12 E6.76462
G1 X9.469 Y-2.114 E6.78518
G1 X7.874 Y-2.119 E6.86475
G1 X7.281 Y-2.025 E6.89471
G1 X6.872 Y-1.743 E6.91949
G1 X6.769 Y-1.534 E6.93112
G1 X6.561 Y-1.826 E6.94136
G1 X6.225 Y-2.055 E6.96165
G1 X5.823 Y-2.131 E6.98206
G1 X5.404 Y-1.988 E7.00415
G1 X5.11 Y-1.722 E7.02393
G1 X4.818 Y-1.235 E7.05226
G1 X4.569 Y-.516 E7.09022
G1 X4.537 Y-.429 E7.09484
G1 X4.481 Y-.569 E7.09738
G1 X4.316 Y-1.123 E7.11437
G1 X4.127 Y-1.595 E7.13973
G1 X3.762 Y-1.944 E7.16493
G1 X3.357 Y-2.098 E7.18654
G1 X2.868 Y-2.104 E7.21094
G1 X2.487 Y-1.94 E7.23164
G1 X2.2 Y-1.574 E7.25484
G1 X2.172 Y-1.44 E7.26167
G1 X1.915 Y-1.834 E7.27769
G1 X1.534 Y-2.076 E7.30021
G1 X1.122 Y-2.126 E7.32092
G1 X0.668 Y-1.95 E7.34521
G1 X0.267 Y-1.569 E7.3728
G1 X0.174 Y-1.412 E7.38191
G1 X-.116 Y-1.802 E7.40616
G1 X-.517 Y-2.067 E7.43014
G1 X-.913 Y-2.129 E7.45013
G1 X-1.401 Y-1.992 E7.47542
G1 X-1.752 Y-1.698 E7.49826
G1 X-1.934 Y-1.273 E7.52133
G1 X-1.895 Y-.796 E7.54521
G1 X-1.663 Y-.266 E7.57407
G1 X-1.274 Y0.417 E7.61328
G1 X-1.06 Y0.75 E7.63303
G1 X-1.255 Y1.034 E7.65022
G1 X-1.544 Y1.538 E7.6792
G1 X-1.73 Y1.857 E7.69763
G1 X-1.881 Y1.491 E7.70753
G1 X-2.272 Y1.076 E7.73598
G1 X-2.77 Y0.828 E7.76373
G1 X-3.204 Y0.76 E7.78565
G1 X-3.754 Y0.845 E7.81342
G1 X-3.877 Y0.914 E7.82045
G1 X-3.833 Y0.729 E7.8237
G1 X-3.784 Y0.171 E7.85164
G1 X-3.787 Y-.386 E7.87943
G1 X-3.856 Y-.983 E7.90942
G1 X-4.011 Y-1.584 E7.94038
G1 X-4.247 Y-2.116 E7.96942
G1 X-4.562 Y-2.58 E7.9974
G1 X-5.048 Y-3.034 E8.03058
G1 X-5.605 Y-3.326 E8.06195
G1 X-6.366 Y-3.5 E8.1009
G1 X-7.02 Y-3.55 E8.13362
G1 X-7.684 Y-3.549 E8.16675
G1 X-8.177 Y-3.567 E8.19136
G1 X-8.71 Y-3.518 E8.21807
G1 X-9.177 Y-3.289 E8.24401
G1 X-9.447 Y-2.927 E8.26654
G1 X-9.509 Y-2.46 E8.29005
G1 X-9.466 Y-1.93 E8.31658
G1 X-9.477 Y-1.076 E8.35919
G1 X-9.475 Y-.686 E8.37864
G1 X-9.475 Y0.354 E8.43053
G1 X-9.475 Y1.258 E8.46966
G1 X-9.473 Y1.833 E8.49511
G1 X-9.486 Y2.393 E8.52305
G1 X-9.39 Y2.868 E8.54723
G1 X-9.19 Y3.213 E8.56713
G1 X-8.828 Y3.466 E8.58916
G1 X-8.375 Y3.518 E8.61191
G1 X-7.748 Y3.473 E8.64327
G1 X-7.046 Y3.482 E8.6783
G1 X-6.429 Y3.438 E8.70916
G1 X-5.802 Y3.307 E8.74111
G1 X-5.206 Y3.032 E8.77386
G1 X-4.796 Y2.699 E8.80021
G1 X-4.618 Y3.178 E8.82571
G1 X-4.248 Y3.607 E8.85397
G1 X-3.756 Y3.883 E8.88211
G1 X-3.196 Y3.97 E8.91039
G1 X-2.642 Y3.859 E8.93858
G1 X-2.155 Y3.556 E8.96719
G1 X-1.85 Y3.163 E8.99201
G1 X-1.747 Y3.343 E9.00236
G1 X-1.362 Y3.609 E9.0257
G1 X-.887 Y3.693 E9.04977
G1 X-.505 Y3.576 E9.0697
G1 X-.135 Y3.237 E9.09474
G1 X0.116 Y2.855 E9.11754
G1 X0.412 Y3.33 E9.14546
G1 X0.75 Y3.604 E9.16717
G1 X1.241 Y3.712 E9.19225
G1 X1.699 Y3.608 E9.21568
G1 X2.091 Y3.311 E9.24022
G1 X2.285 Y2.858 E9.26481
G1 X2.265 Y2.334 E9.29097
G1 X2.077 Y1.892 E9.31493
G1 X1.616 Y1.115 E9.36
G1 X1.4 Y0.743 E9.38146
G1 X1.496 Y0.473 E9.39576
G1 X1.706 Y0.14 E9.4154
G1 X2.096 Y-.531 E9.45412
G1 X2.154 Y-.687 E9.46243
G1 X2.362 Y-0.069 E9.49496
G1 X2.565 Y0.422 E9.52146
G1 X2.708 Y0.811 E9.54214
G1 X2.986 Y1.545 E9.5813
G1 X3.184 Y2.09 E9.61023
G1 X3.396 Y2.556 E9.63577
G1 X3.435 Y2.715 E9.64394
G1 X3.372 Y2.906 E9.65397
G1 X3.069 Y3.627 E9.69299
G1 X2.862 Y3.963 E9.71268
G1 X2.731 Y4.03 E9.72002
G1 X2.179 Y4.198 E9.74881
G1 X1.877 Y4.432 E9.76787
G1 X1.706 Y4.767 E9.78663
G1 X1.691 Y5.202 E9.80835
G1 X1.833 Y5.633 E9.83099
G1 X2.106 Y5.982 E9.85309
G1 X2.528 Y6.193 E9.87663
G1 X3.008 Y6.217 E9.90061
G1 X3.558 Y6.085 E9.92883
G1 X4.106 Y5.814 E9.95933
G1 X4.507 Y5.418 E9.98744
G1 X4.778 Y4.962 E10.01391
G1 X5.087 Y4.232 E10.05346
G1 X5.385 Y3.46 E10.09474
G1 X5.523 Y3.084 E10.11472
G1 X6.342 Y0.79 E10.23625
G1 X6.577 Y0.082 E10.27346
G1 X6.805 Y-.427 E10.30129
G1 X6.835 Y-.355 E10.30518
G1 X7.182 Y-0.078 E10.32733
G1 X7.595 Y0.041 E10.34878
G1 X8.004 Y0.069 E10.36923
G1 X7.824 Y0.324 E10.37622
G1 X7.222 Y1.162 E10.4277
G1 X6.831 Y1.72 E10.46169
G1 X6.623 Y2.226 E10.48898
G1 X6.599 Y2.696 E10.51246
G1 X6.768 Y3.206 E10.53927
G1 X7.021 Y3.497 E10.5585
G1 X7.328 Y3.66 E10.57585
G1 X7.818 Y3.701 E10.60038
G1 X8.295 Y3.674 E10.62421
G1 X9.061 Y3.683 E10.66243
G1 X9.837 Y3.682 E10.70115
G1 X9.744 Y3.768 E10.70747
G1 X9.303 Y4.157 E10.7368
G1 X8.76 Y4.594 E10.77158
G1 X8.308 Y4.924 E10.7995
G1 X7.771 Y5.283 E10.83173
G1 X7.37 Y5.531 E10.85525
G1 X6.835 Y5.833 E10.8859
G1 X6.101 Y6.2 E10.92684
G1 X5.662 Y6.392 E10.95074
G1 X5.085 Y6.626 E10.98181
G1 X4.611 Y6.791 E11.00685
G1 X4.052 Y6.969 E11.03612
G1 X3.525 Y7.109 E11.06332
G1 X2.794 Y7.272 E11.10069
G1 X2.508 Y7.324 E11.11519
G1 X2.006 Y7.402 E11.14053
G1 X1.411 Y7.472 E11.17042
G1 X0.89 Y7.51 E11.19649
G1 X0.287 Y7.534 E11.22659
G1 X-.32 Y7.53 E11.25688
G1 X-.836 Y7.508 E11.28264
G1 X-8.561 Y7.033 E11.66877
G1 X-10.541 Y6.914 E11.76773
G1 X-21.862 Y6.224 E12.33359
G1 X-24.221 Y6.076 E12.45151
G1 X-24.573 Y6 E12.46948
G1 X-24.828 Y5.866 E12.48385
G1 X-25.048 Y5.655 E12.49906
G1 X-25.193 Y5.403 E12.51356
G1 X-25.297 Y4.864 E12.54095
G1 X-25.297 Y1.583 E12.70464
G1 X-25.176 Y1.922 E12.7226
G1 X-24.89 Y2.423 E12.75138
G1 X-24.422 Y2.939 E12.78613
G1 X-23.849 Y3.328 E12.82068
G1 X-23.315 Y3.538 E12.84931
G1 X-22.688 Y3.648 E12.88107
G1 X-21.995 Y3.637 E12.91565
G1 X-21.348 Y3.494 E12.94871
G1 X-20.833 Y3.238 E12.9774
G1 X-20.382 Y2.824 E13.00794
G1 X-20.086 Y2.299 E13.03801
G1 X-20.022 Y1.896 E13.05837
G1 X-20.194 Y1.439 E13.08273
G1 X-20.571 Y1.099 E13.10806
G1 X-21.015 Y0.946 E13.13149
G1 X-21.465 Y0.959 E13.15395
G0 F3600 X-21.368 Y1.356
;TYPE:WALL-OUTER
G1 F1800 X-21.642 Y1.488 E13.16912
G1 X-21.931 Y1.767 E13.18916
G1 X-22.258 Y1.853 E13.20603
G1 X-22.656 Y1.845 E13.22589
G1 X-23.024 Y1.721 E13.24527
G1 X-23.34 Y1.479 E13.26512
G1 X-23.555 Y1.129 E13.28562
G1 X-23.69 Y0.637 E13.31107
G1 X-23.737 Y-0.001 E13.34299
G1 X-23.716 Y-.511 E13.36845
G1 X-23.594 Y-1.092 E13.39807
G1 X-23.413 Y-1.455 E13.41831
G1 X-23.148 Y-1.72 E13.437
G1 X-22.674 Y-1.913 E13.46254
G1 X-22.297 Y-1.914 E13.48134
G1 X-22.016 Y-1.794 E13.49659
G1 X-21.562 Y-1.521 E13.52302
G1 X-21.185 Y-1.403 E13.54273
G1 X-20.95 Y-1.424 E13.5545
G1 X-20.695 Y-1.575 E13.56928
G1 X-20.506 Y-1.858 E13.58626
G1 X-20.457 Y-2.157 E13.60138
G1 X-20.53 Y-2.419 E13.61495
G1 X-20.745 Y-2.713 E13.63312
G1 X-21.172 Y-3.04 E13.65995
G1 X-21.672 Y-3.244 E13.68689
G1 X-22.176 Y-3.321 E13.71233
G1 X-22.794 Y-3.304 E13.74317
G1 X-23.327 Y-3.184 E13.77043
G1 X-23.869 Y-2.923 E13.80044
G1 X-24.292 Y-2.58 E13.82761
G1 X-24.669 Y-2.093 E13.85834
G1 X-24.894 Y-1.621 E13.88442
G1 X-25.05 Y-1.047 E13.9141
G1 X-25.122 Y-.463 E13.94346
G1 X-25.138 Y0.082 E13.97066
G1 X-25.095 Y0.685 E14.00082
G1 X-24.985 Y1.266 E14.03032
G1 X-24.811 Y1.754 E14.05617
G1 X-24.564 Y2.187 E14.08104
G1 X-24.158 Y2.635 E14.1112
G1 X-23.661 Y2.972 E14.14116
G1 X-23.206 Y3.151 E14.16555
G1 X-22.656 Y3.247 E14.19341
G1 X-22.042 Y3.238 E14.22404
G1 X-21.482 Y3.114 E14.25266
G1 X-21.062 Y2.905 E14.27606
G1 X-20.699 Y2.572 E14.30064
G1 X-20.47 Y2.165 E14.32394
G1 X-20.434 Y1.938 E14.3354
G1 X-20.534 Y1.671 E14.34963
G1 X-20.778 Y1.451 E14.36602
G1 X-21.077 Y1.348 E14.3818
G1 X-21.368 Y1.356 E14.39632
G0 F3600 X-21.548 Y1.442
G0 X-21.677 Y1.172
G0 X-18.167 Y2.347
G0 X-17.869 Y3.174
G0 X-17.069 Y3.337
G0 X-16.656 Y2.746
G1 F1800 X-16.557 Y2.36 E14.4162
G1 X-16.572 Y1.678 E14.45023
G1 X-16.573 Y1.419 E14.46316
G1 X-16.569 Y0.805 E14.49379
G1 X-16.57 Y-.602 E14.56398
G1 X-16.567 Y-1.226 E14.59512
G1 X-16.553 Y-1.751 E14.62132
G1 X-16.464 Y-1.808 E14.62659
G1 X-15.737 Y-1.79 E14.66287
G1 X-15.233 Y-1.822 E14.68807
G1 X-14.905 Y-1.941 E14.70548
G1 X-14.741 Y-2.108 E14.71715
G1 X-14.656 Y-2.338 E14.72939
G1 X-14.663 Y-2.687 E14.7468
G1 X-14.791 Y-2.963 E14.76198
G1 X-15.001 Y-3.11 E14.77477
G1 X-15.329 Y-3.159 E14.79131
G1 X-16.026 Y-3.15 E14.82609
G1 X-16.206 Y-3.153 E14.83507
G1 X-16.765 Y-3.154 E14.86296
G1 X-17.207 Y-3.152 E14.88501
G1 X-18.009 Y-3.154 E14.92502
G1 X-18.568 Y-3.146 E14.95292
G1 X-19.162 Y-3.186 E14.98262
G1 X-19.465 Y-3.105 E14.99826
G1 X-19.635 Y-2.963 E15.00932
G1 X-19.77 Y-2.705 E15.02384
G1 X-19.802 Y-2.402 E15.03904
G1 X-19.694 Y-2.052 E15.05732
G1 X-19.504 Y-1.851 E15.07112
G1 X-19.258 Y-1.764 E15.08413
G1 X-18.927 Y-1.77 E15.10065
G1 X-18.371 Y-1.834 E15.12857
G1 X-18.098 Y-1.786 E15.1424
G1 X-17.94 Y-1.662 E15.15242
G1 X-17.881 Y-1.413 E15.16519
G1 X-17.917 Y-.784 E15.19662
G1 X-17.908 Y0.095 E15.24048
G1 X-17.913 Y1.33 E15.30209
G1 X-17.901 Y1.977 E15.33438
G1 X-17.941 Y2.541 E15.36259
G1 X-17.863 Y2.826 E15.37733
G1 X-17.729 Y2.975 E15.38732
G1 X-17.431 Y3.095 E15.40335
G1 X-17.119 Y3.098 E15.41892
G1 X-16.834 Y2.971 E15.43449
G1 X-16.656 Y2.746 E15.4488
G0 F3600 X-16.607 Y2.553
G0 X-16.317 Y2.628
G0 X-13.351 Y-.997
G0 X-13.093 Y-.845
G1 F1800 X-13.266 Y-.552 E15.46577
G1 X-13.318 Y-.24 E15.48155
G1 X-13.271 Y-0.004 E15.49356
G1 X-13.156 Y0.161 E15.50359
G1 X-12.862 Y0.307 E15.51997
G1 X-12.302 Y0.418 E15.54845
G1 X-11.994 Y0.573 E15.56566
G1 X-11.704 Y0.883 E15.58683
G1 X-11.578 Y1.208 E15.60422
G1 X-11.602 Y1.508 E15.61924
G1 X-11.742 Y1.758 E15.63353
G1 X-12.001 Y1.932 E15.6491
G1 X-12.265 Y1.964 E15.66237
G1 X-12.536 Y1.806 E15.67802
G1 X-12.929 Y1.55 E15.70142
G1 X-13.21 Y1.487 E15.71579
G1 X-13.551 Y1.526 E15.73291
G1 X-13.819 Y1.686 E15.74848
G1 X-13.964 Y1.926 E15.76247
G1 X-13.991 Y2.27 E15.77968
G1 X-13.901 Y2.572 E15.79541
G1 X-13.688 Y2.85 E15.81288
G1 X-13.398 Y3.041 E15.8302
G1 X-12.919 Y3.198 E15.85535
G1 X-12.421 Y3.255 E15.88036
G1 X-11.889 Y3.236 E15.90692
G1 X-11.354 Y3.104 E15.93441
G1 X-10.929 Y2.872 E15.95857
G1 X-10.573 Y2.54 E15.98285
G1 X-10.274 Y2.057 E16.01119
G1 X-10.113 Y1.529 E16.03873
G1 X-10.096 Y1.074 E16.06145
G1 X-10.229 Y0.47 E16.0923
G1 X-10.424 Y-0.036 E16.11936
G1 X-10.642 Y-.295 E16.13625
G1 X-10.926 Y-.453 E16.15246
G1 X-11.034 Y-.489 E16.15814
G1 X-10.723 Y-.666 E16.169
G1 X-10.491 Y-.935 E16.18673
G1 X-10.368 Y-1.329 E16.20732
G1 X-10.331 Y-1.866 E16.23417
G1 X-10.376 Y-2.234 E16.25267
G1 X-10.512 Y-2.563 E16.27043
G1 X-10.79 Y-2.891 E16.29188
G1 X-11.11 Y-3.107 E16.31114
G1 X-11.616 Y-3.273 E16.33771
G1 X-12.216 Y-3.329 E16.36777
G1 X-12.735 Y-3.292 E16.39373
G1 X-13.215 Y-3.164 E16.41852
G1 X-13.616 Y-2.95 E16.44119
G1 X-13.874 Y-2.701 E16.45908
G1 X-13.995 Y-2.411 E16.47476
G1 X-13.966 Y-2.128 E16.48895
G1 X-13.818 Y-1.851 E16.50462
G1 X-13.572 Y-1.64 E16.52079
G1 X-13.379 Y-1.579 E16.53089
G1 X-13.093 Y-1.632 E16.5454
G1 X-12.648 Y-1.913 E16.57166
G1 X-12.327 Y-2.021 E16.58855
G1 X-12.074 Y-1.981 E16.60133
G1 X-11.916 Y-1.814 E16.6128
G1 X-11.866 Y-1.593 E16.62411
G1 X-11.931 Y-1.379 E16.63526
G1 X-12.064 Y-1.227 E16.64534
G1 X-12.279 Y-1.11 E16.65755
G1 X-12.862 Y-.994 E16.68721
G1 X-13.093 Y-.845 E16.70092
G0 F3600 X-13.194 Y-.673
G0 X-13.452 Y-.825
G0 X-14.197 Y1.849
G0 X-14.117 Y2.684
G0 X-13.503 Y3.259
G0 X-12.667 Y3.467
G0 X-8.854 Y3.324
G0 X-8.682 Y3.08
G1 F1800 X-8.366 Y3.116 E16.71679
G1 X-7.759 Y3.073 E16.74715
G1 X-7.058 Y3.082 E16.78213
G1 X-6.484 Y3.041 E16.81084
G1 X-5.928 Y2.925 E16.83917
G1 X-5.419 Y2.69 E16.86714
G1 X-4.997 Y2.348 E16.89424
G1 X-4.629 Y1.864 E16.92458
G1 X-4.386 Y1.321 E16.95425
G1 X-4.229 Y0.665 E16.98791
G1 X-4.184 Y0.155 E17.01345
G1 X-4.187 Y-.362 E17.03924
G1 X-4.25 Y-.91 E17.06676
G1 X-4.39 Y-1.452 E17.09469
G1 X-4.598 Y-1.921 E17.12029
G1 X-4.868 Y-2.318 E17.14424
G1 X-5.282 Y-2.705 E17.17251
G1 X-5.745 Y-2.948 E17.1986
G1 X-6.426 Y-3.103 E17.23345
G1 X-7.035 Y-3.15 E17.26392
G1 X-7.697 Y-3.149 E17.29695
G1 X-8.166 Y-3.166 E17.32036
G1 X-8.6 Y-3.126 E17.3421
G1 X-8.914 Y-2.972 E17.35955
G1 X-9.064 Y-2.771 E17.37207
G1 X-9.107 Y-2.45 E17.38822
G1 X-9.066 Y-1.946 E17.41345
G1 X-9.077 Y-1.075 E17.45691
G1 X-9.075 Y-.686 E17.47632
G1 X-9.075 Y1.257 E17.57325
G1 X-9.073 Y1.842 E17.60244
G1 X-9.085 Y2.358 E17.62819
G1 X-9.011 Y2.724 E17.64682
G1 X-8.888 Y2.936 E17.65905
G1 X-8.682 Y3.08 E17.67159
G0 F3600 X-8.484 Y3.102
G0 X-8.518 Y3.4
G0 X-3.769 Y3.759
G0 X-3.623 Y3.499
G1 F1800 X-3.205 Y3.564 E17.69269
G1 X-2.792 Y3.481 E17.71371
G1 X-2.427 Y3.254 E17.73515
G1 X-2.171 Y2.924 E17.75599
G1 X-2.042 Y2.524 E17.77696
G1 X-2.062 Y2.1 E17.79813
G1 X-2.223 Y1.712 E17.81909
G1 X-2.514 Y1.402 E17.8403
G1 X-2.893 Y1.214 E17.86141
G1 X-3.205 Y1.165 E17.87717
G1 X-3.622 Y1.229 E17.89821
G1 X-3.992 Y1.436 E17.91937
G1 X-4.268 Y1.758 E17.93786
G1 X-4.414 Y2.151 E17.95878
G1 X-4.414 Y2.578 E17.98008
G1 X-4.268 Y2.971 E18.001
G1 X-3.991 Y3.293 E18.02219
G1 X-3.623 Y3.499 E18.04323
G0 F3600 X-3.426 Y3.529
G0 X-3.472 Y3.825
G0 X1.241 Y3.547
G0 X2.157 Y2.902
G0 X1.882 Y2.783
G1 F1800 X1.868 Y2.423 E18.0612
G1 X1.719 Y2.073 E18.08018
G1 X1.272 Y1.319 E18.12391
G1 X1.001 Y0.853 E18.1508
G1 X0.998 Y0.597 E18.16358
G1 X1.144 Y0.281 E18.18094
G1 X1.364 Y-0.067 E18.20148
G1 X1.728 Y-.694 E18.23765
G1 X1.836 Y-1.031 E18.25531
G1 X1.802 Y-1.274 E18.26755
G1 X1.627 Y-1.543 E18.28356
G1 X1.396 Y-1.69 E18.29722
G1 X1.173 Y-1.717 E18.30843
G1 X0.886 Y-1.606 E18.32378
G1 X0.583 Y-1.317 E18.34467
G1 X0.373 Y-.964 E18.36516
G1 X0.192 Y-.546 E18.38789
G1 X-0.087 Y-1.092 E18.41848
G1 X-.395 Y-1.507 E18.44426
G1 X-.665 Y-1.685 E18.4604
G1 X-.889 Y-1.72 E18.47171
G1 X-1.21 Y-1.63 E18.48834
G1 X-1.422 Y-1.453 E18.50212
G1 X-1.527 Y-1.207 E18.51546
G1 X-1.502 Y-.895 E18.53108
G1 X-1.305 Y-.446 E18.55554
G1 X-.932 Y0.21 E18.59319
G1 X-.64 Y0.663 E18.62008
G1 X-.607 Y0.797 E18.62696
G1 X-.916 Y1.247 E18.6542
G1 X-1.198 Y1.739 E18.68249
G1 X-1.476 Y2.217 E18.71008
G1 X-1.595 Y2.565 E18.72842
G1 X-1.582 Y2.827 E18.74151
G1 X-1.445 Y3.065 E18.75521
G1 X-1.206 Y3.23 E18.7697
G1 X-.912 Y3.282 E18.7846
G1 X-.708 Y3.22 E18.79523
G1 X-.442 Y2.976 E18.81324
G1 X-.127 Y2.498 E18.8418
G1 X0.104 Y2.001 E18.86915
G1 X0.419 Y2.585 E18.90225
G1 X0.716 Y3.062 E18.93028
G1 X0.928 Y3.234 E18.9439
G1 X1.239 Y3.302 E18.95979
G1 X1.526 Y3.237 E18.97447
G1 X1.765 Y3.056 E18.98942
G1 X1.882 Y2.783 E19.00424
G0 F3600 X1.875 Y2.583
G0 X2.175 Y2.571
G0 X1.853 Y5.179
G0 X2.618 Y6.097
G0 X2.632 Y5.798
G1 F1800 X2.971 Y5.815 E19.02118
G1 X3.421 Y5.707 E19.04426
G1 X3.871 Y5.484 E19.06932
G1 X4.189 Y5.17 E19.09162
G1 X4.42 Y4.781 E19.11419
G1 X4.716 Y4.082 E19.15206
G1 X5.011 Y3.319 E19.19287
G1 X5.147 Y2.948 E19.21258
G1 X5.909 Y0.808 E19.32592
G1 X5.964 Y0.658 E19.33389
G1 X6.201 Y-0.056 E19.37142
G1 X6.459 Y-.633 E19.40295
G1 X6.533 Y-1.001 E19.42168
G1 X6.465 Y-1.271 E19.43557
G1 X6.277 Y-1.536 E19.45178
G1 X6.069 Y-1.677 E19.46432
G1 X5.852 Y-1.718 E19.47534
G1 X5.611 Y-1.636 E19.48804
G1 X5.422 Y-1.465 E19.50075
G1 X5.182 Y-1.065 E19.52402
G1 X4.947 Y-.385 E19.55992
G1 X4.765 Y0.109 E19.58618
G1 X4.588 Y0.711 E19.61749
G1 X4.575 Y0.752 E19.61963
G1 X4.305 Y0.064 E19.64143
G1 X4.105 Y-.431 E19.66806
G1 X3.938 Y-.991 E19.69722
G1 X3.788 Y-1.366 E19.71737
G1 X3.544 Y-1.599 E19.7342
G1 X3.281 Y-1.699 E19.74824
G1 X2.948 Y-1.703 E19.76485
G1 X2.739 Y-1.613 E19.7762
G1 X2.573 Y-1.401 E19.78964
G1 X2.516 Y-1.127 E19.8036
G1 X2.548 Y-.77 E19.82148
G1 X2.737 Y-.21 E19.85097
G1 X2.935 Y0.269 E19.87683
G1 X3.083 Y0.671 E19.8982
G1 X3.362 Y1.408 E19.93751
G1 X3.555 Y1.939 E19.9657
G1 X3.775 Y2.425 E19.99232
G1 X3.85 Y2.73 E20.00799
G1 X3.745 Y3.052 E20.02488
G1 X3.434 Y3.792 E20.06493
G1 X3.252 Y4.144 E20.0847
G1 X3.095 Y4.293 E20.0955
G1 X2.879 Y4.403 E20.10759
G1 X2.366 Y4.559 E20.13434
G1 X2.193 Y4.693 E20.14526
G1 X2.103 Y4.87 E20.15517
G1 X2.093 Y5.145 E20.1689
G1 X2.191 Y5.441 E20.18445
G1 X2.366 Y5.665 E20.19863
G1 X2.632 Y5.798 E20.21347
G0 F3600 X2.832 Y5.808
G0 X2.818 Y6.106
G0 X9.902 Y3.509
G0 X10.974 Y2.733
G0 X10.701 Y1.853
G0 X10.558 Y2.116
G1 F1800 X10.256 Y1.952 E20.23062
G1 X9.738 Y1.884 E20.25668
G1 X9.025 Y1.927 E20.29232
G1 X8.889 Y1.931 E20.2991
G1 X9.358 Y1.237 E20.34089
G1 X9.919 Y0.437 E20.38964
G1 X10.264 Y-0.046 E20.41925
G1 X10.575 Y-.564 E20.4494
G1 X10.657 Y-.921 E20.46767
G1 X10.606 Y-1.308 E20.48715
G1 X10.453 Y-1.549 E20.50139
G1 X10.259 Y-1.669 E20.51277
G1 X9.859 Y-1.72 E20.53289
G1 X9.474 Y-1.714 E20.5521
G1 X8.415 Y-1.717 E20.60493
G1 X7.905 Y-1.719 E20.63037
G1 X7.433 Y-1.644 E20.65422
G1 X7.185 Y-1.473 E20.66925
G1 X7.057 Y-1.212 E20.68375
G1 X7.049 Y-.876 E20.70052
G1 X7.164 Y-.604 E20.71525
G1 X7.369 Y-.44 E20.72835
G1 X7.665 Y-.355 E20.74371
G1 X8.187 Y-.319 E20.76982
G1 X8.812 Y-.371 E20.80111
G1 X8.513 Y0.043 E20.81325
G1 X8.151 Y0.555 E20.84453
G1 X7.548 Y1.394 E20.89608
G1 X7.184 Y1.913 E20.92771
G1 X7.019 Y2.315 E20.94939
G1 X7.002 Y2.642 E20.96572
G1 X7.122 Y3.004 E20.98475
G1 X7.274 Y3.178 E20.99628
G1 X7.443 Y3.268 E21.00583
G1 X7.824 Y3.3 E21.0249
G1 X8.292 Y3.274 E21.04829
G1 X9.063 Y3.283 E21.08676
G1 X9.802 Y3.283 E21.12363
G1 X10.223 Y3.25 E21.14469
G1 X10.477 Y3.149 E21.15833
G1 X10.652 Y2.955 E21.17137
G1 X10.74 Y2.628 E21.18826
G1 X10.709 Y2.372 E21.20113
G1 X10.558 Y2.116 E21.21595
G0 F3600 X10.382 Y2.021
G0 X10.525 Y1.758
G0 X12.549 Y-.446
G0 X12.817 Y-.579
G1 F1800 X12.96 Y-.211 E21.23565
G1 X12.968 Y0.162 E21.25426
G1 X12.855 Y0.513 E21.27266
G1 X12.526 Y1.059 E21.30446
G1 X12.213 Y1.54 E21.33309
G1 X11.848 Y2.049 E21.36434
G1 X11.536 Y2.449 E21.38965
G1 X11.201 Y2.845 E21.41553
G1 X10.859 Y3.225 E21.44104
G1 X10.388 Y3.713 E21.47487
G1 X10.009 Y4.068 E21.50078
G1 X9.569 Y4.457 E21.53008
G1 X8.996 Y4.917 E21.56674
G1 X8.53 Y5.257 E21.59552
G1 X7.993 Y5.616 E21.62775
G1 X7.567 Y5.879 E21.65272
G1 X7.014 Y6.191 E21.6844
G1 X6.28 Y6.558 E21.72534
G1 X5.812 Y6.763 E21.75083
G1 X5.228 Y7 E21.78228
G1 X4.742 Y7.169 E21.80795
G1 X4.169 Y7.351 E21.83794
G1 X3.612 Y7.5 E21.86671
G1 X2.881 Y7.662 E21.90406
G1 X2.57 Y7.719 E21.91984
G1 X2.065 Y7.798 E21.94534
G1 X1.44 Y7.871 E21.97673
G1 X0.906 Y7.91 E22.00344
G1 X0.3 Y7.934 E22.0337
G1 X-.338 Y7.93 E22.06553
G1 X-.854 Y7.907 E22.0913
G1 X-8.586 Y7.432 E22.47778
G1 X-10.566 Y7.313 E22.57674
G1 X-21.887 Y6.623 E23.14259
G1 X-24.277 Y6.473 E23.26207
G1 X-24.711 Y6.38 E23.28421
G1 X-25.066 Y6.193 E23.30423
G1 X-25.367 Y5.903 E23.32508
G1 X-25.567 Y5.556 E23.34506
G1 X-25.682 Y5.105 E23.36828
G1 X-25.697 Y4.875 E23.37978
G1 X-25.696 Y-4.897 E23.86731
G1 X-25.628 Y-5.37 E23.89115
G1 X-25.466 Y-5.757 E23.91208
G1 X-25.208 Y-6.077 E23.93259
G1 X-24.878 Y-6.308 E23.95268
G1 X-24.461 Y-6.451 E23.97468
G1 X-24.237 Y-6.478 E23.98593
G1 X-.703 Y-7.916 E25.16224
G1 X0.001 Y-7.936 E25.19738
G1 X0.684 Y-7.921 E25.23146
G1 X1.372 Y-7.877 E25.26585
G1 X2.211 Y-7.777 E25.30801
G1 X2.925 Y-7.653 E25.34416
G1 X3.729 Y-7.47 E25.3853
G1 X4.379 Y-7.286 E25.419
G1 X5.003 Y-7.08 E25.45179
G1 X5.49 Y-6.897 E25.47774
G1 X6.089 Y-6.644 E25.51018
G1 X6.723 Y-6.343 E25.5452
G1 X7.22 Y-6.078 E25.5733
G1 X7.692 Y-5.803 E25.60055
G1 X8.184 Y-5.493 E25.62956
G1 X8.701 Y-5.136 E25.66091
G1 X9.19 Y-4.765 E25.69153
G1 X9.833 Y-4.23 E25.73326
G1 X10.402 Y-3.697 E25.77216
G1 X10.768 Y-3.325 E25.7982
G1 X11.144 Y-2.912 E25.82606
G1 X11.511 Y-2.477 E25.85445
G1 X11.825 Y-2.073 E25.87998
G1 X12.254 Y-1.475 E25.9167
G1 X12.533 Y-1.049 E25.94211
G1 X12.817 Y-.579 E25.9695
G0 F3600 X12.889 Y-.393
G0 X12.174 Y-0.056
;TYPE:SKIN
G1 F1800 X12.131 Y0.185 E25.98172
G1 X11.856 Y0.641 E26.00828
G1 X11.57 Y1.081 E26.03446
G1 X11.211 Y1.584 E26.06529
G1 X11.182 Y1.619 E26.06756
G1 X11.127 Y1.526 E26.07295
G1 X10.505 Y1.188 E26.10827
G1 X10.37 Y1.17 E26.11506
G1 X10.564 Y0.894 E26.1319
G1 X10.925 Y0.388 E26.16291
G1 X11.317 Y-.265 E26.2009
G1 X11.459 Y-.883 E26.23254
G1 X11.403 Y-1.305 E26.25378
G1 X11.865 Y-.627 E26.29471
G1 X12.174 Y-0.056 E26.3271
G0 F3600 X10.512 Y-2.433
G1 F1800 X9.903 Y-2.51 E26.35773
G1 X9.465 Y-2.504 E26.37958
G1 X7.844 Y-2.509 E26.46045
G1 X7.133 Y-2.396 E26.49637
G1 X6.777 Y-2.151 E26.51793
G1 X6.377 Y-2.423 E26.54206
G1 X5.794 Y-2.533 E26.57166
G1 X5.201 Y-2.331 E26.60292
G1 X4.806 Y-1.972 E26.62955
G1 X4.56 Y-1.563 E26.65336
G1 X4.458 Y-1.819 E26.66711
G1 X3.974 Y-2.281 E26.70049
G1 X3.431 Y-2.488 E26.72948
G1 X2.79 Y-2.495 E26.76146
G1 X2.241 Y-2.259 E26.79127
G1 X2.152 Y-2.146 E26.79845
G1 X1.669 Y-2.452 E26.82698
G1 X1.072 Y-2.525 E26.85698
G1 X0.455 Y-2.286 E26.88999
G1 X0.195 Y-2.039 E26.90789
G1 X0.157 Y-2.09 E26.91106
G1 X-.373 Y-2.439 E26.94272
G1 X-.937 Y-2.527 E26.9712
G1 X-1.587 Y-2.345 E27.00487
G1 X-2.074 Y-1.938 E27.03654
G1 X-2.33 Y-1.338 E27.06908
G1 X-2.279 Y-.699 E27.10106
G1 X-2.012 Y-0.091 E27.13419
G1 X-1.608 Y0.62 E27.17499
G1 X-1.528 Y0.743 E27.18231
G1 X-1.731 Y1.081 E27.20198
G1 X-2.036 Y0.758 E27.22414
G1 X-2.651 Y0.452 E27.25842
G1 X-3.204 Y0.366 E27.28634
G1 X-3.413 Y0.398 E27.29688
G1 X-3.394 Y0.187 E27.30745
G1 X-3.397 Y-.409 E27.33719
G1 X-3.472 Y-1.055 E27.36963
G1 X-3.641 Y-1.713 E27.40353
G1 X-3.904 Y-2.306 E27.43589
G1 X-4.264 Y-2.835 E27.46782
G1 X-4.82 Y-3.355 E27.5058
G1 X-5.469 Y-3.695 E27.54235
G1 X-6.307 Y-3.886 E27.58523
G1 X-7.006 Y-3.94 E27.62021
G1 X-7.67 Y-3.939 E27.65333
G1 X-8.188 Y-3.957 E27.67919
G1 X-8.817 Y-3.9 E27.7107
G1 X-9.433 Y-3.597 E27.74495
G1 X-9.82 Y-3.079 E27.77721
G1 X-9.833 Y-2.983 E27.78204
G1 X-10.258 Y-3.485 E27.81486
G1 X-10.759 Y-3.823 E27.84501
G1 X-11.454 Y-4.051 E27.8815
G1 X-12.208 Y-4.122 E27.91928
G1 X-12.865 Y-4.074 E27.95215
G1 X-13.507 Y-3.904 E27.98528
G1 X-14.086 Y-3.595 E28.01803
G1 X-14.182 Y-3.501 E28.02473
G1 X-14.701 Y-3.864 E28.05633
G1 X-15.276 Y-3.949 E28.08533
G1 X-16.022 Y-3.94 E28.12255
G1 X-16.198 Y-3.943 E28.13133
G1 X-16.766 Y-3.944 E28.15967
G1 X-17.21 Y-3.942 E28.18182
G1 X-18.013 Y-3.944 E28.22188
G1 X-18.538 Y-3.936 E28.24807
G1 X-19.239 Y-3.984 E28.28313
G1 X-19.838 Y-3.824 E28.31406
G1 X-20.263 Y-3.468 E28.34172
G1 X-20.311 Y-3.375 E28.34694
G1 X-20.776 Y-3.731 E28.37616
G1 X-21.46 Y-4.01 E28.41301
G1 X-22.126 Y-4.112 E28.44663
G1 X-22.893 Y-4.091 E28.48491
G1 X-23.588 Y-3.935 E28.52044
G1 X-24.295 Y-3.595 E28.55958
G1 X-24.861 Y-3.137 E28.59591
G1 X-24.906 Y-3.079 E28.59957
G1 X-24.906 Y-4.841 E28.68748
G1 X-24.861 Y-5.158 E28.70345
G1 X-24.78 Y-5.349 E28.7138
G1 X-24.526 Y-5.591 E28.7313
G1 X-24.141 Y-5.692 E28.75116
G1 X-.668 Y-7.126 E29.92442
G1 X0.007 Y-7.146 E29.95811
G1 X0.648 Y-7.131 E29.9901
G1 X1.3 Y-7.089 E30.02269
G1 X2.105 Y-6.993 E30.06314
G1 X2.767 Y-6.88 E30.09664
G1 X3.532 Y-6.705 E30.1358
G1 X4.136 Y-6.535 E30.1671
G1 X4.748 Y-6.332 E30.19927
G1 X5.197 Y-6.164 E30.22319
G1 X5.754 Y-5.928 E30.25337
G1 X6.366 Y-5.637 E30.28718
G1 X6.836 Y-5.387 E30.31373
G1 X7.325 Y-5.102 E30.34197
G1 X7.719 Y-4.854 E30.3652
G1 X8.23 Y-4.501 E30.39618
G1 X8.698 Y-4.146 E30.42549
G1 X9.31 Y-3.637 E30.4652
G1 X9.844 Y-3.137 E30.5017
G1 X10.512 Y-2.433 E30.55012
G0 F3600 X9.756 Y-2.688
G1 F1800 X8.02 Y-4.424 E30.6726
G1 X7.95 Y-4.494
G0 F3600 X8.058 Y-2.689
G1 F1800 X4.537 Y-6.21 E30.92103
G1 X4.467 Y-6.28
G0 F3600 X3.719 Y-6.462
G1 F1800 X7.539 Y-2.643 E31.19051
G0 F3600 X7.054 Y-2.561
G1 F1800 X2.968 Y-6.648 E31.47884
G0 F3600 X2.269 Y-6.781
G1 F1800 X6.482 Y-2.568 E31.77609
G0 F3600 X5.77 Y-2.714
G1 F1800 X1.617 Y-6.868 E32.06914
G0 F3600 X0.992 Y-6.926
G1 F1800 X5.347 Y-2.571 E32.37641
G0 F3600 X4.979 Y-2.374
G1 F1800 X0.398 Y-6.955 E32.69962
G0 F3600 X-.171 Y-6.96
G1 F1800 X4.683 Y-2.105 E33.04213
G1 X4.753 Y-2.035
G0 F3600 X3.609 Y-2.612
G1 F1800 X-.718 Y-6.94 E33.34746
G0 F3600 X-1.251 Y-6.908
G1 F1800 X2.983 Y-2.672 E33.64626
G0 F3600 X2.517 Y-2.573
G1 F1800 X-1.784 Y-6.875 E33.94976
G0 F3600 X-2.317 Y-6.843
G1 F1800 X2.124 Y-2.401 E34.26313
G1 X2.194 Y-2.331
G0 F3600 X1.279 Y-2.68
G1 F1800 X-2.851 Y-6.81 E34.55452
G0 F3600 X-3.384 Y-6.778
G1 F1800 X0.787 Y-2.607 E34.84881
G0 F3600 X0.379 Y-2.448
G1 F1800 X-3.917 Y-6.745 E35.15195
G0 F3600 X-4.45 Y-6.713
G1 F1800 X-.354 Y-2.617 E35.44095
G0 F3600 X-.999 Y-2.696
G1 F1800 X-4.983 Y-6.68 E35.72204
G0 F3600 X-5.516 Y-6.648
G1 F1800 X-1.441 Y-2.572 E36.00959
G0 F3600 X-1.819 Y-2.385
G1 F1800 X-6.05 Y-6.615 E36.30807
G0 F3600 X-6.583 Y-6.583
G1 F1800 X-2.127 Y-2.127 E36.62247
G0 F3600 X-2.339 Y-1.773
G1 F1800 X-7.116 Y-6.55 E36.95951
G0 F3600 X-7.649 Y-6.518
G1 F1800 X-2.508 Y-1.376 E37.32227
G0 F3600 X-2.463 Y-.766
G1 F1800 X-3.469 Y-1.772 E37.39325
G0 F3600 X-3.287 Y-1.024
G1 F1800 X-2.04 Y0.222 E37.4812
G0 F3600 X-2.505 Y0.323
G1 F1800 X-3.216 Y-.388 E37.53136
G1 X-3.286 Y-.458
G0 F3600 X-5.608 Y-3.911
G1 F1800 X-8.182 Y-6.485 E37.71297
G0 F3600 X-8.715 Y-6.453
G1 F1800 X-6.331 Y-4.068 E37.88121
G0 F3600 X-6.944 Y-4.116
G1 F1800 X-9.248 Y-6.419 E38.04374
G0 F3600 X-9.781 Y-6.387
G1 F1800 X-7.514 Y-4.12 E38.20369
G0 F3600 X-8.093 Y-4.133
G1 F1800 X-10.314 Y-6.354 E38.36039
G0 F3600 X-10.847 Y-6.322
G1 F1800 X-8.623 Y-4.097 E38.51734
G0 F3600 X-9.067 Y-3.976
G1 F1800 X-11.38 Y-6.289 E38.68053
G0 F3600 X-11.914 Y-6.257
G1 F1800 X-9.446 Y-3.79 E38.85463
G0 F3600 X-9.726 Y-3.503
G1 F1800 X-12.447 Y-6.224 E39.04661
G0 F3600 X-12.98 Y-6.192
G1 F1800 X-10.82 Y-4.032 E39.19901
G1 X-10.75 Y-3.962
G0 F3600 X-11.599 Y-4.245
G1 F1800 X-13.513 Y-6.159 E39.33405
G0 F3600 X-14.046 Y-6.127
G1 F1800 X-12.222 Y-4.302 E39.46278
G0 F3600 X-12.749 Y-4.263
G1 F1800 X-14.579 Y-6.094 E39.59193
G0 F3600 X-15.112 Y-6.062
G1 F1800 X-13.217 Y-4.166 E39.72567
G0 F3600 X-13.648 Y-4.031
G1 F1800 X-15.646 Y-6.029 E39.86664
G0 F3600 X-16.179 Y-5.996
G1 F1800 X-14.016 Y-3.834 E40.01922
G1 X-13.946 Y-3.764
G0 F3600 X-14.809 Y-4.061
G1 F1800 X-16.712 Y-5.964 E40.15348
G0 F3600 X-17.245 Y-5.931
G1 F1800 X-15.44 Y-4.126 E40.28084
G0 F3600 X-15.999 Y-4.12
G1 F1800 X-17.778 Y-5.899 E40.40635
G0 F3600 X-18.311 Y-5.866
G1 F1800 X-16.568 Y-4.123 E40.52933
G0 F3600 X-17.133 Y-4.122
G1 F1800 X-18.845 Y-5.834 E40.65012
G0 F3600 X-19.378 Y-5.801
G1 F1800 X-17.699 Y-4.123 E40.76855
G0 F3600 X-18.262 Y-4.12
G1 F1800 X-19.911 Y-5.769 E40.8849
G0 F3600 X-20.444 Y-5.736
G1 F1800 X-18.846 Y-4.138 E40.99764
G0 F3600 X-19.4 Y-4.127
G1 F1800 X-20.977 Y-5.703 E41.10887
G0 F3600 X-21.51 Y-5.67
G1 F1800 X-19.847 Y-4.007 E41.22621
G0 F3600 X-20.177 Y-3.773
G1 F1800 X-22.043 Y-5.638 E41.35783
G0 F3600 X-22.576 Y-5.605
G1 F1800 X-20.977 Y-4.007 E41.47061
G1 X-20.907 Y-3.937
G0 F3600 X-21.776 Y-4.24
G1 F1800 X-23.109 Y-5.573 E41.56466
G0 F3600 X-23.642 Y-5.54
G1 F1800 X-22.387 Y-4.285 E41.65321
G0 F3600 X-22.932 Y-4.265
G1 F1800 X-24.166 Y-5.498 E41.74024
G0 F3600 X-24.55 Y-5.317
G1 F1800 X-23.395 Y-4.162 E41.82173
G0 F3600 X-23.821 Y-4.022
G1 F1800 X-24.713 Y-4.914 E41.88467
G0 F3600 X-24.725 Y-4.36
G1 F1800 X-24.203 Y-3.838 E41.9215
G0 F3600 X-24.55 Y-3.62
G1 F1800 X-24.725 Y-3.795 E41.93384
G0 F3600 X5.456 Y-5.857
G1 F1800 X8.626 Y-2.687 E42.1575
G0 F3600 X9.193 Y-2.685
G1 F1800 X6.539 Y-5.34 E42.34479
G1 X6.469 Y-5.41
G0 F3600 X10.625 Y-1.723
G0 X11.522 Y-.357
G1 F1800 X11.965 Y0.086 E42.37605
G0 F3600 X11.761 Y0.447
G1 F1800 X11.347 Y0.033 E42.40526
G0 F3600 X11.134 Y0.386
G1 F1800 X11.542 Y0.794 E42.43405
G0 F3600 X11.313 Y1.13
G1 F1800 X10.906 Y0.724 E42.46273
G0 F3600 X10.899 Y-.91
G0 X10.625 Y-1.723
G0 X9.469 Y-1.954
G0 X-.903 Y-1.963
G0 X-3.991 Y0.7
G0 X-4.798 Y2.475
G0 X-5.851 Y3.152
G0 X-8.373 Y3.356
G0 X-9.205 Y2.865
G0 X-9.654 Y0.244
;TYPE:SKIN
G1 F1800 X-9.718 Y0.181 E42.46497
G0 F3600 X-9.654 Y-0.038
G1 F1800 X-9.895 Y-.278 E42.47345
G0 F3600 X-9.654 Y-.321
G1 F1800 X-9.977 Y-.643 E42.48483
G0 F3600 X-9.907 Y-.857
G1 F1800 X-9.654 Y-.603 E42.49377
G0 F3600 X-9.655 Y-.887
G1 F1800 X-9.84 Y-1.071 E42.50028
G0 F3600 X-9.654 Y-1.169
G1 F1800 X-9.787 Y-1.302 E42.50497
G0 F3600 X-9.651 Y-1.448
G1 F1800 X-9.77 Y-1.567 E42.50917
G0 F3600 X-9.647 Y-1.728
G1 F1800 X-9.751 Y-1.832 E42.51284
G0 F3600 X-9.652 Y-2.015
G1 F1800 X-9.78 Y-2.143 E42.51735
G0 F3600 X-9.677 Y-2.323
G1 F1800 X-9.86 Y-2.506 E42.52381
G0 F3600 X-9.67 Y-2.599
G1 F1800 X-9.845 Y-2.774 E42.52998
G0 F3600 X-11.003 Y-3.323
G0 X-12.213 Y-3.569
G0 X-13.306 Y-3.387
G0 X-14.076 Y-2.839
G0 X-14.007 Y-1.698
G0 X-12.827 Y-1.453
G0 X-13.964 Y-.936
;TYPE:SKIN
G1 F1800 X-14.021 Y-.827 E42.53612
G1 X-14.121 Y-.228 E42.56642
G1 X-14.014 Y0.312 E42.59388
G1 X-13.71 Y0.749 E42.62044
G1 X-13.81 Y0.76 E42.62546
G1 X-14.393 Y1.109 E42.65936
G1 X-14.737 Y1.677 E42.69249
G1 X-14.79 Y2.354 E42.72637
G1 X-14.616 Y2.938 E42.75677
G1 X-14.233 Y3.437 E42.78815
G1 X-13.744 Y3.759 E42.81736
G1 X-13.089 Y3.974 E42.85176
G1 X-12.452 Y4.046 E42.88374
G1 X-11.779 Y4.022 E42.91734
G1 X-11.066 Y3.847 E42.95396
G1 X-10.463 Y3.517 E42.98826
G1 X-9.957 Y3.046 E43.02275
G1 X-9.802 Y2.796 E43.03742
G1 X-9.76 Y3.008 E43.0482
G1 X-9.484 Y3.484 E43.07566
G1 X-8.97 Y3.842 E43.10691
G1 X-8.383 Y3.91 E43.13639
G1 X-7.748 Y3.863 E43.16815
G1 X-7.035 Y3.872 E43.20373
G1 X-6.375 Y3.826 E43.23674
G1 X-5.679 Y3.68 E43.27222
G1 X-4.998 Y3.366 E43.30963
G1 X-4.972 Y3.345 E43.3113
G1 X-4.959 Y3.379 E43.31311
G1 X-4.498 Y3.913 E43.34831
G1 X-3.885 Y4.257 E43.38338
G1 X-3.188 Y4.366 E43.41857
G1 X-2.496 Y4.228 E43.45378
G1 X-1.89 Y3.85 E43.48941
G1 X-1.823 Y3.764 E43.49485
G1 X-1.514 Y3.978 E43.5136
G1 X-.862 Y4.093 E43.54663
G1 X-.306 Y3.923 E43.57564
G1 X0.094 Y3.556 E43.60272
G1 X0.116 Y3.592 E43.60483
G1 X0.576 Y3.965 E43.63437
G1 X1.243 Y4.112 E43.66845
G1 X1.825 Y3.979 E43.69823
G1 X1.569 Y4.177 E43.71438
G1 X1.32 Y4.667 E43.7418
G1 X1.299 Y5.258 E43.7713
G1 X1.484 Y5.82 E43.80082
G1 X1.853 Y6.292 E43.83071
G1 X2.427 Y6.579 E43.86273
G1 X3.045 Y6.609 E43.8936
G1 X3.692 Y6.454 E43.92679
G1 X4.336 Y6.136 E43.96262
G1 X4.817 Y5.66 E43.99638
G1 X5.127 Y5.138 E44.02667
G1 X5.448 Y4.378 E44.06783
G1 X5.75 Y3.597 E44.10961
G1 X5.89 Y3.217 E44.12981
G1 X6.231 Y2.263 E44.18036
G1 X6.205 Y2.749 E44.20464
G1 X6.423 Y3.403 E44.23903
G1 X6.774 Y3.807 E44.26573
G1 X7.215 Y4.042 E44.29066
G1 X7.812 Y4.091 E44.32055
G1 X8.312 Y4.064 E44.34553
G1 X8.789 Y4.07 E44.36933
G1 X8.523 Y4.284 E44.38636
G1 X8.084 Y4.604 E44.41346
G1 X7.566 Y4.951 E44.44457
G1 X7.166 Y5.198 E44.46802
G1 X6.661 Y5.484 E44.49698
G1 X5.929 Y5.85 E44.53781
G1 X5.516 Y6.031 E44.5603
G1 X4.948 Y6.261 E44.59088
G1 X4.492 Y6.419 E44.61495
G1 X3.925 Y6.599 E44.64463
G1 X3.432 Y6.731 E44.67009
G1 X2.724 Y6.888 E44.70627
G1 X2.448 Y6.938 E44.72027
G1 X1.953 Y7.015 E44.74526
G1 X1.358 Y7.085 E44.77515
G1 X0.869 Y7.12 E44.79961
G1 X0.273 Y7.144 E44.82937
G1 X-.303 Y7.14 E44.85811
G1 X-.812 Y7.118 E44.88352
G1 X-8.537 Y6.643 E45.26965
G1 X-10.517 Y6.524 E45.36861
G1 X-21.838 Y5.834 E45.93447
G1 X-24.174 Y5.688 E46.05124
G1 X-24.44 Y5.63 E46.06482
G1 X-24.598 Y5.547 E46.07373
G1 X-24.738 Y5.412 E46.08343
G1 X-24.822 Y5.266 E46.09183
G1 X-24.907 Y4.826 E46.11419
G1 X-24.907 Y2.984 E46.20609
G1 X-24.679 Y3.235 E46.22301
G1 X-24.032 Y3.675 E46.26204
G1 X-23.421 Y3.916 E46.29481
G1 X-22.719 Y4.038 E46.33036
G1 X-21.95 Y4.027 E46.36873
G1 X-21.217 Y3.864 E46.40619
G1 X-20.61 Y3.562 E46.44001
G1 X-20.072 Y3.07 E46.47639
G1 X-19.712 Y2.43 E46.51302
G1 X-19.62 Y1.855 E46.54207
G1 X-19.862 Y1.213 E46.5763
G1 X-20.368 Y0.756 E46.61032
G1 X-20.955 Y0.554 E46.64129
G1 X-21.559 Y0.571 E46.67144
G1 X-22.1 Y0.832 E46.7014
G1 X-22.351 Y1.061 E46.71835
G1 X-22.648 Y1.014 E46.73336
G1 X-22.822 Y0.812 E46.74666
G1 X-22.91 Y0.496 E46.76302
G1 X-22.946 Y-0.005 E46.78808
G1 X-22.929 Y-.418 E46.8087
G1 X-22.842 Y-.83 E46.82971
G1 X-22.703 Y-1.049 E46.84265
G1 X-22.458 Y-1.124 E46.85544
G1 X-22.374 Y-1.088 E46.86
G1 X-21.889 Y-.795 E46.88826
G1 X-21.272 Y-.602 E46.92052
G1 X-20.701 Y-.654 E46.94912
G1 X-20.138 Y-.986 E46.98173
G1 X-19.988 Y-1.212 E46.99526
G1 X-19.947 Y-1.169 E46.99823
G1 X-19.387 Y-.971 E47.02786
G1 X-18.874 Y-.98 E47.05346
G1 X-18.696 Y-1.001 E47.0624
G1 X-18.707 Y-.802 E47.07234
G1 X-18.698 Y0.091 E47.1169
G1 X-18.703 Y1.335 E47.17896
G1 X-18.691 Y1.954 E47.20985
G1 X-18.739 Y2.62 E47.24316
G1 X-18.575 Y3.216 E47.274
G1 X-18.194 Y3.639 E47.30241
G1 X-17.588 Y3.884 E47.33502
G1 X-16.954 Y3.889 E47.36665
G1 X-16.335 Y3.614 E47.40044
G1 X-15.933 Y3.105 E47.4328
G1 X-15.764 Y2.451 E47.4665
G1 X-15.782 Y1.661 E47.50592
G1 X-15.783 Y1.424 E47.51775
G1 X-15.779 Y0.808 E47.54848
G1 X-15.78 Y-.598 E47.61863
G1 X-15.778 Y-1.001 E47.63873
G1 X-15.721 Y-1 E47.64158
G1 X-15.07 Y-1.04 E47.67412
G1 X-14.467 Y-1.26 E47.70614
G1 X-14.41 Y-1.318 E47.7102
G1 X-13.964 Y-.936 E47.73949
G0 F3600 X-14.235 Y-2.421
G0 X-13.759 Y-3.145
G0 X-12.771 Y-3.529
G0 X-6.39 Y-3.34
G0 X1.478 Y-1.92
G0 X2.04 Y-1.324
G0 X1.828 Y0.704
G1 F1800 X2.081 Y0.271 E47.76451
G1 X2.343 Y0.948 E47.80073
G1 X2.619 Y1.678 E47.83967
G1 X2.823 Y2.238 E47.8694
G1 X3.029 Y2.698 E47.89455
G1 X3.002 Y2.781 E47.8989
G1 X2.724 Y3.444 E47.93477
G1 X2.584 Y3.667 E47.9479
G1 X2.054 Y3.828 E47.97554
G1 X2.409 Y3.559 E47.99776
G1 X2.679 Y2.93 E48.03191
G1 X2.651 Y2.248 E48.06596
G1 X2.426 Y1.715 E48.09483
G1 X1.951 Y0.916 E48.1412
G1 X1.828 Y0.704 E48.15343
G0 F3600 X2.791 Y4.179
G0 X2.004 Y4.537
G0 X1.977 Y5.557
G0 X2.994 Y6.054
G0 X4.012 Y5.681
G0 X6.498 Y1.514
G1 F1800 X6.711 Y0.917 E48.18505
G1 X6.94 Y0.228 E48.22128
G1 X7.314 Y0.366 E48.24116
G1 X6.904 Y0.936 E48.27619
G1 X6.498 Y1.514 E48.31143
G0 F3600 X6.912 Y3.125
G0 X7.901 Y4.507
G1 F1800 X7.652 Y4.258 E48.329
G0 F3600 X7.563 Y4.735
G1 F1800 X6.914 Y4.086 E48.37479
G1 X6.844 Y4.016
G0 F3600 X7.216 Y4.953
G1 F1800 X5.919 Y3.656 E48.4663
G0 F3600 X6.233 Y3.404
G1 F1800 X6.07 Y3.242 E48.47777
G0 F3600 X5.761 Y4.064
G1 F1800 X6.859 Y5.162 E48.55524
G0 F3600 X6.495 Y5.364
G1 F1800 X5.602 Y4.471 E48.61824
G0 F3600 X5.434 Y4.869
G1 F1800 X6.118 Y5.552 E48.66647
G0 F3600 X5.736 Y5.736
G1 F1800 X5.261 Y5.261 E48.69998
G0 F3600 X5.05 Y5.616
G1 F1800 X5.34 Y5.906 E48.72044
G0 F3600 X4.938 Y6.069
G1 F1800 X4.799 Y5.93 E48.73025
G0 F3600 X2.259 Y6.784
G1 F1800 X2.082 Y6.607 E48.74274
G0 F3600 X1.763 Y6.854
G1 F1800 X-.822 Y4.268 E48.92516
G0 F3600 X-.388 Y4.136
G1 F1800 X1.295 Y5.82 E49.04394
G0 F3600 X1.125 Y5.085
G1 F1800 X-0.038 Y3.921 E49.12603
G1 X-.108 Y3.851
G0 F3600 X0.803 Y4.198
G1 F1800 X1.17 Y4.565 E49.15193
G0 F3600 X1.255 Y6.911
G1 F1800 X-1.492 Y4.164 E49.34574
G0 F3600 X-2.056 Y4.166
G1 F1800 X0.721 Y6.944 E49.54171
G0 F3600 X0.174 Y6.962
G1 F1800 X-2.404 Y4.383 E49.72364
G0 F3600 X-2.868 Y4.485
G1 F1800 X-.399 Y6.954 E49.89784
G0 F3600 X-.994 Y6.925
G1 F1800 X-3.406 Y4.513 E50.06802
G1 X-3.476 Y4.443
G0 F3600 X-4.197 Y4.287
G1 F1800 X-1.597 Y6.887 E50.25146
G0 F3600 X-2.199 Y6.851
G1 F1800 X-5.331 Y3.719 E50.47244
G0 F3600 X-5.739 Y3.877
G1 F1800 X-2.802 Y6.814 E50.67966
G0 F3600 X-3.405 Y6.776
G1 F1800 X-6.206 Y3.975 E50.87729
G0 F3600 X-6.716 Y4.031
G1 F1800 X-4.007 Y6.74 E51.06842
G0 F3600 X-4.61 Y6.703
G1 F1800 X-7.264 Y4.049 E51.25568
G0 F3600 X-7.829 Y4.049
G1 F1800 X-5.213 Y6.665 E51.44025
G0 F3600 X-5.815 Y6.629
G1 F1800 X-8.356 Y4.088 E51.61953
G0 F3600 X-8.99 Y4.02
G1 F1800 X-6.418 Y6.592 E51.801
G0 F3600 X-7.021 Y6.554
G1 F1800 X-10.126 Y3.449 E52.02007
G0 F3600 X-10.435 Y3.706
G1 F1800 X-7.624 Y6.518 E52.21844
G0 F3600 X-8.227 Y6.48
G1 F1800 X-10.8 Y3.907 E52.39998
G0 F3600 X-11.206 Y4.067
G1 F1800 X-8.828 Y6.444 E52.56772
G0 F3600 X-9.43 Y6.408
G1 F1800 X-11.66 Y4.179 E52.72503
G0 F3600 X-12.187 Y4.217
G1 F1800 X-10.032 Y6.372 E52.87707
G0 F3600 X-10.634 Y6.335
G1 F1800 X-12.78 Y4.19 E53.02845
G0 F3600 X-13.511 Y4.024
G1 F1800 X-11.237 Y6.298 E53.18889
G0 F3600 X-11.839 Y6.262
G1 F1800 X-15.592 Y2.509 E53.45369
G0 F3600 X-15.708 Y2.959
G1 F1800 X-12.441 Y6.226 E53.68419
G0 F3600 X-13.043 Y6.189
G1 F1800 X-15.89 Y3.342 E53.88506
G0 F3600 X-16.141 Y3.657
G1 F1800 X-13.646 Y6.152 E54.0611
G0 F3600 X-14.248 Y6.115
G1 F1800 X-16.485 Y3.879 E54.2189
G0 F3600 X-16.877 Y4.053
G1 F1800 X-14.851 Y6.078 E54.36181
G0 F3600 X-15.453 Y6.042
G1 F1800 X-17.43 Y4.065 E54.50129
G1 X-17.5 Y3.995
G0 F3600 X-18.254 Y3.807
G1 F1800 X-16.056 Y6.005 E54.65638
G0 F3600 X-16.658 Y5.968
G1 F1800 X-19.753 Y2.873 E54.87474
G0 F3600 X-19.97 Y3.222
G1 F1800 X-17.261 Y5.931 E55.06588
G0 F3600 X-17.863 Y5.895
G1 F1800 X-20.265 Y3.493 E55.23535
G0 F3600 X-20.576 Y3.747
G1 F1800 X-18.466 Y5.858 E55.38426
G0 F3600 X-19.068 Y5.821
G1 F1800 X-20.955 Y3.935 E55.51736
G0 F3600 X-21.373 Y4.082
G1 F1800 X-19.671 Y5.784 E55.63745
G0 F3600 X-20.273 Y5.748
G1 F1800 X-21.834 Y4.186 E55.74762
G0 F3600 X-22.373 Y4.213
G1 F1800 X-20.875 Y5.712 E55.85335
G0 F3600 X-21.477 Y5.675
G1 F1800 X-22.977 Y4.175 E55.95918
G0 F3600 X-23.731 Y3.986
G1 F1800 X-22.08 Y5.637 E56.07567
G0 F3600 X-22.683 Y5.6
G1 F1800 X-24.726 Y3.558 E56.21978
G0 F3600 X-24.726 Y4.123
G1 F1800 X-23.287 Y5.562 E56.32131
G0 F3600 X-23.891 Y5.524
G1 F1800 X-24.726 Y4.689 E56.38022
G1 X-24.796 Y4.619
G0 F3600 X-21.4 Y3.34
G0 X-20.507 Y2.72
G0 X-20.189 Y1.912
G0 X-20.655 Y1.24
G0 X-22.364 Y0.828
G1 F1800 X-22.732 Y0.461 E56.40615
G0 F3600 X-22.76 Y-.132
G1 F1800 X-22.029 Y0.598 E56.45769
G0 F3600 X-21.647 Y0.414
G1 F1800 X-22.698 Y-.636 E56.53181
G0 F3600 X-22.375 Y-.879
G1 F1800 X-21.117 Y0.378 E56.62053
G0 F3600 X-20.363 Y0.566
G1 F1800 X-21.375 Y-.444 E56.69186
G0 F3600 X-20.825 Y-.461
G1 F1800 X-18.879 Y1.485 E56.82916
G0 F3600 X-18.879 Y0.919
G1 F1800 X-20.412 Y-.613 E56.93729
G0 F3600 X-20.057 Y-.823
G1 F1800 X-18.878 Y0.354 E57.02041
G0 F3600 X-18.88 Y-.212
G1 F1800 X-19.48 Y-.812 E57.06274
G1 X-19.55 Y-.882
G0 F3600 X-19.64 Y1.289
G1 F1800 X-18.876 Y2.053 E57.11664
G0 F3600 X-18.915 Y2.58
G1 F1800 X-19.465 Y2.03 E57.15545
G0 F3600 X-19.55 Y2.511
G1 F1800 X-18.55 Y3.51 E57.22597
G1 X-18.48 Y3.58
G0 F3600 X-17.069 Y3.337
G0 X-15.595 Y1.941
G1 F1800 X-14.889 Y2.646 E57.27575
G0 F3600 X-14.943 Y2.027
G1 F1800 X-15.602 Y1.368 E57.32224
G0 F3600 X-15.599 Y0.805
G1 F1800 X-14.864 Y1.54 E57.3741
G0 F3600 X-14.65 Y1.188
G1 F1800 X-15.599 Y0.239 E57.44106
G0 F3600 X-15.599 Y-.325
G1 F1800 X-14.381 Y0.891 E57.52692
G0 F3600 X-14.027 Y0.68
G1 F1800 X-15.537 Y-.83 E57.63346
G0 F3600 X-15.011 Y-.869
G1 F1800 X-14.285 Y-.143 E57.68468
G0 F3600 X-14.231 Y-.654
G1 F1800 X-14.596 Y-1.02 E57.71047
G0 F3600 X-16.437 Y2.853
G0 X-17.477 Y3.334
G0 X-21.209 Y-1.161
G0 X-20.279 Y-1.769
G0 X-20.573 Y-2.881
G0 X-21.608 Y-3.476
G0 X-22.825 Y-3.542
G0 X-23.995 Y-3.128
G0 X-24.796 Y-2.32
G0 X-25.256 Y-1.424
G0 X-25.195 Y-1.437
;TYPE:SKIN
G1 F1800 X-25.358 Y-1.317 E57.71658
G1 X-25.404 Y0.333 E57.7664
G1 X-25.351 Y1.234 E57.79363
G0 F3600 X-25.444 Y1.425
G1 F1800 X-25.501 Y1.368 E57.79565
;MESH:NONMESH
G0 F600 X-25.501 Y1.368 Z0.8
G0 F3600 X-25.397 Y1.368
G0 X-24.761 Y2.326
G0 X-23.771 Y3.186
G0 X-22.676 Y3.486
G0 X-11.853 Y3.473
G0 X-6.455 Y3.279
G0 X-5.289 Y2.893
G0 X-4.14 Y1.241
G0 X-1.619 Y-1.598
G0 X-.903 Y-1.963
G0 X9.871 Y-1.959
G0 X12.426 Y-.646
G0 X12.705 Y-.815
;TIME_ELAPSED:47.859806
;LAYER:1
M106 S255
;TYPE:WALL-INNER
;MESH:benchy.stl
G1 F2700 X13.045 Y-.186 E57.8551
G1 X13.066 Y0.059 E57.87555
G1 X13.001 Y0.307 E57.89686
G1 X12.723 Y0.783 E57.9427
G1 X12.585 Y0.999 E57.96401
G1 X12.186 Y1.586 E58.02303
G1 X11.839 Y2.05 E58.07121
G1 X11.475 Y2.503 E58.11953
G1 X11.152 Y2.875 E58.16049
G1 X10.795 Y3.258 E58.20403
G1 X10.46 Y3.595 E58.24354
G1 X10.095 Y3.938 E58.28519
G1 X9.704 Y4.281 E58.32844
G1 X9.324 Y4.592 E58.36927
G1 X8.923 Y4.899 E58.41126
G1 X8.41 Y5.261 E58.46347
G1 X8.002 Y5.527 E58.50396
G1 X7.573 Y5.784 E58.54555
G1 X6.996 Y6.107 E58.60053
G1 X6.539 Y6.337 E58.64307
G1 X6.046 Y6.563 E58.68817
G1 X5.342 Y6.851 E58.75141
G1 X4.7 Y7.079 E58.80806
G1 X4.159 Y7.245 E58.85512
G1 X3.649 Y7.38 E58.89898
G1 X3.127 Y7.5 E58.94352
G1 X2.557 Y7.61 E58.99179
G1 X2.004 Y7.693 E59.03829
G1 X1.303 Y7.77 E59.09693
G1 X0.563 Y7.815 E59.15857
G1 X-0.048 Y7.824 E59.20938
G1 X-.793 Y7.802 E59.27136
G1 X-3.706 Y7.611 E59.51409
G1 X-4.114 Y7.587 E59.54808
G1 X-5.106 Y7.521 E59.63074
G1 X-6.248 Y7.449 E59.72589
G1 X-7.277 Y7.381 E59.81164
G1 X-9.212 Y7.26 E59.97285
G1 X-16.978 Y6.762 E60.61992
G1 X-17.267 Y6.745 E60.64399
G1 X-18.553 Y6.661 E60.75115
G1 X-20.412 Y6.545 E60.90603
G1 X-21.687 Y6.461 E61.01228
G1 X-24.393 Y6.289 E61.23773
G1 X-24.749 Y6.215 E61.26797
G1 X-25.029 Y6.066 E61.29434
G1 X-25.239 Y5.86 E61.3188
G1 X-25.389 Y5.594 E61.34419
G1 X-25.477 Y5.216 E61.37647
G1 X-25.486 Y4.943 E61.39918
G1 X-25.487 Y-5.054 E62.23043
G1 X-25.439 Y-5.449 E62.26352
G1 X-25.313 Y-5.749 E62.29057
G1 X-25.134 Y-5.979 E62.31481
G1 X-24.874 Y-6.161 E62.3412
G1 X-24.395 Y-6.289 E62.38242
G1 X-6.691 Y-7.421 E63.85752
G1 X-.798 Y-7.801 E64.34855
G1 X-.176 Y-7.823 E64.4003
G1 X0.405 Y-7.819 E64.44861
G1 X1.006 Y-7.792 E64.49863
G1 X1.584 Y-7.743 E64.54687
G1 X2.295 Y-7.652 E64.60647
G1 X2.981 Y-7.53 E64.66441
G1 X3.654 Y-7.379 E64.72176
G1 X4.299 Y-7.203 E64.77735
G1 X4.957 Y-6.99 E64.83486
G1 X5.573 Y-6.762 E64.88947
G1 X6.165 Y-6.511 E64.94294
G1 X6.753 Y-6.231 E64.99709
G1 X7.201 Y-5.997 E65.03912
G1 X7.767 Y-5.672 E65.09339
G1 X8.409 Y-5.262 E65.15673
G1 X9.11 Y-4.759 E65.22847
G1 X9.703 Y-4.282 E65.29175
G1 X10.183 Y-3.857 E65.34506
G1 X10.736 Y-3.32 E65.40916
G1 X11.145 Y-2.883 E65.45892
G1 X11.575 Y-2.385 E65.51363
G1 X12.035 Y-1.795 E65.57584
G1 X12.325 Y-1.387 E65.61746
G1 X12.705 Y-.815 E65.67456
G0 F5400 X13.31 Y-.585
;TYPE:WALL-OUTER
G1 F1800 X13.439 Y-.281 E65.70202
G1 X13.471 Y0.093 E65.73323
G1 X13.374 Y0.46 E65.7648
G1 X13.06 Y0.998 E65.8166
G1 X12.916 Y1.224 E65.83888
G1 X12.517 Y1.811 E65.8979
G1 X12.151 Y2.301 E65.94875
G1 X11.787 Y2.754 E65.99707
G1 X11.445 Y3.148 E66.04045
G1 X11.088 Y3.531 E66.08399
G1 X10.734 Y3.887 E66.12573
G1 X10.359 Y4.239 E66.1685
G1 X9.968 Y4.582 E66.21175
G1 X9.567 Y4.91 E66.25483
G1 X9.154 Y5.226 E66.29807
G1 X8.641 Y5.588 E66.35027
G1 X8.208 Y5.87 E66.39324
G1 X7.779 Y6.127 E66.43482
G1 X7.182 Y6.461 E66.4917
G1 X6.706 Y6.701 E66.53603
G1 X6.213 Y6.927 E66.58112
G1 X5.476 Y7.228 E66.64732
G1 X4.834 Y7.456 E66.70397
G1 X4.261 Y7.632 E66.75381
G1 X3.744 Y7.769 E66.79828
G1 X3.209 Y7.892 E66.84393
G1 X2.617 Y8.006 E66.89406
G1 X2.061 Y8.09 E66.94082
G1 X1.346 Y8.168 E67.00062
G1 X0.571 Y8.215 E67.06518
G1 X-0.054 Y8.224 E67.11716
G1 X-.805 Y8.202 E67.17963
G1 X-3.731 Y8.01 E67.42345
G1 X-4.141 Y7.986 E67.4576
G1 X-5.132 Y7.92 E67.54018
G1 X-6.274 Y7.848 E67.63533
G1 X-7.303 Y7.78 E67.72108
G1 X-9.238 Y7.659 E67.88229
G1 X-9.997 Y7.609 E67.94554
G1 X-17.003 Y7.161 E68.52928
G1 X-17.293 Y7.144 E68.55343
G1 X-18.578 Y7.06 E68.66051
G1 X-20.438 Y6.944 E68.81547
G1 X-21.713 Y6.86 E68.92172
G1 X-24.45 Y6.686 E69.14976
G1 X-24.883 Y6.596 E69.18653
G1 X-25.268 Y6.392 E69.22276
G1 X-25.562 Y6.103 E69.25704
G1 X-25.764 Y5.743 E69.29136
G1 X-25.876 Y5.265 E69.33219
G1 X-25.886 Y4.943 E69.35897
G1 X-25.887 Y-5.077 E70.19214
G1 X-25.829 Y-5.552 E70.23193
G1 X-25.661 Y-5.955 E70.26823
G1 X-25.414 Y-6.272 E70.30165
G1 X-25.056 Y-6.522 E70.33796
G1 X-24.641 Y-6.662 E70.37438
G1 X-24.43 Y-6.687 E70.39204
G1 X-6.717 Y-7.82 E71.86789
G1 X-.812 Y-8.201 E72.35992
G1 X-.187 Y-8.223 E72.41192
G1 X0.423 Y-8.219 E72.46264
G1 X1.033 Y-8.192 E72.51341
G1 X1.622 Y-8.142 E72.56257
G1 X2.354 Y-8.048 E72.62393
G1 X3.051 Y-7.924 E72.6828
G1 X3.755 Y-7.766 E72.74279
G1 X4.422 Y-7.584 E72.80028
G1 X5.08 Y-7.371 E72.85779
G1 X5.712 Y-7.137 E72.91383
G1 X6.333 Y-6.874 E72.9699
G1 X6.932 Y-6.589 E73.02506
G1 X7.4 Y-6.344 E73.06898
G1 X7.966 Y-6.019 E73.12325
G1 X8.636 Y-5.592 E73.18932
G1 X9.361 Y-5.071 E73.26355
G1 X9.954 Y-4.594 E73.32683
G1 X10.462 Y-4.144 E73.38326
G1 X11.015 Y-3.607 E73.44736
G1 X11.448 Y-3.144 E73.50007
G1 X11.878 Y-2.646 E73.55478
G1 X12.361 Y-2.027 E73.62006
G1 X12.651 Y-1.619 E73.66168
G1 X13.048 Y-1.021 E73.72137
G1 X13.31 Y-.585 E73.76366
G0 F5400 X13.388 Y-.401
G0 X12.664 Y-0.072
;TYPE:SKIN
G1 F1800 X12.637 Y0.155 E73.78267
G1 X12.234 Y0.823 E73.84754
G1 X11.874 Y1.352 E73.90075
G1 X11.535 Y1.806 E73.94786
G1 X11.181 Y2.247 E73.99488
G1 X10.862 Y2.614 E74.03531
G1 X10.518 Y2.983 E74.07726
G1 X9.833 Y3.649 E74.1567
G1 X9.457 Y3.979 E74.1983
G1 X9.087 Y4.282 E74.23807
G1 X8.671 Y4.6 E74.28161
G1 X8.212 Y4.924 E74.32832
G1 X7.382 Y5.443 E74.40972
G1 X6.805 Y5.766 E74.4647
G1 X6.37 Y5.985 E74.5052
G1 X5.898 Y6.202 E74.5484
G1 X5.197 Y6.489 E74.61138
G1 X4.585 Y6.706 E74.66537
G1 X4.051 Y6.87 E74.71182
G1 X3.555 Y7.001 E74.75448
G1 X3.046 Y7.118 E74.7979
G1 X2.491 Y7.225 E74.8449
G1 X1.956 Y7.306 E74.8899
G1 X1.277 Y7.38 E74.94669
G1 X0.539 Y7.425 E75.00817
G1 X-0.042 Y7.434 E75.05648
G1 X-.768 Y7.412 E75.11688
G1 X-3.682 Y7.221 E75.3597
G1 X-4.088 Y7.197 E75.39352
G1 X-5.08 Y7.131 E75.47618
G1 X-6.222 Y7.059 E75.57133
G1 X-7.251 Y6.991 E75.65708
G1 X-9.186 Y6.87 E75.81829
G1 X-16.953 Y6.372 E76.46544
G1 X-17.242 Y6.355 E76.48952
G1 X-18.528 Y6.271 E76.59667
G1 X-20.387 Y6.155 E76.75155
G1 X-21.662 Y6.071 E76.8578
G1 X-24.344 Y5.901 E77.08126
G1 X-24.613 Y5.845 E77.1041
G1 X-24.797 Y5.746 E77.12148
G1 X-24.927 Y5.619 E77.13659
G1 X-25.022 Y5.451 E77.15264
G1 X-25.089 Y5.166 E77.17698
G1 X-25.096 Y4.943 E77.19553
G1 X-25.097 Y-5.023 E78.02421
G1 X-25.057 Y-5.353 E78.05185
G1 X-24.974 Y-5.55 E78.06962
G1 X-24.864 Y-5.691 E78.08449
G1 X-24.706 Y-5.802 E78.10055
G1 X-24.334 Y-5.901 E78.13256
G1 X-6.666 Y-7.031 E79.60466
G1 X-.773 Y-7.411 E80.09568
G1 X-.164 Y-7.433 E80.14635
G1 X0.387 Y-7.429 E80.19217
G1 X0.988 Y-7.402 E80.24219
G1 X1.551 Y-7.355 E80.28917
G1 X2.227 Y-7.268 E80.34584
G1 X2.913 Y-7.146 E80.40378
G1 X3.555 Y-7.002 E80.45849
G1 X4.187 Y-6.829 E80.51297
G1 X4.829 Y-6.621 E80.56909
G1 X5.43 Y-6.399 E80.62236
G1 X5.997 Y-6.158 E80.67359
G1 X6.585 Y-5.879 E80.72771
G1 X7.013 Y-5.655 E80.76787
G1 X7.564 Y-5.338 E80.82073
G1 X8.19 Y-4.939 E80.88246
G1 X8.866 Y-4.455 E80.95159
G1 X9.444 Y-3.99 E81.01327
G1 X9.94 Y-3.55 E81.0684
G1 X10.451 Y-3.053 E81.12768
G1 X10.86 Y-2.616 E81.17745
G1 X11.267 Y-2.145 E81.22921
G1 X11.717 Y-1.569 E81.28998
G1 X12.003 Y-1.166 E81.33107
G1 X12.375 Y-.606 E81.38698
G1 X12.664 Y-0.072 E81.43746
G0 F5400 X11.621 Y1.389
G1 F1800 X8.536 Y4.473 E81.80018
G1 X8.466 Y4.543
G0 F5400 X6.989 Y5.456
G1 F1800 X12.477 Y-0.032 E82.44552
G0 F5400 X12.281 Y-.401
G1 F1800 X5.858 Y6.021 E83.20076
G1 X5.788 Y6.091
G0 F5400 X4.916 Y6.397
G1 F1800 X12.062 Y-.748 E84.04102
G0 F5400 X11.836 Y-1.088
G1 F1800 X4.072 Y6.675 E84.95394
G0 F5400 X3.311 Y6.87
G1 F1800 X11.601 Y-1.419 E85.92873
G0 F5400 X11.354 Y-1.738
G1 F1800 X2.596 Y7.02 E86.9586
G0 F5400 X1.921 Y7.129
G1 F1800 X11.105 Y-2.054 E88.03851
G0 F5400 X10.843 Y-2.358
G1 F1800 X1.288 Y7.196 E89.16205
G0 F5400 X0.684 Y7.235
G1 F1800 X10.575 Y-2.655 E90.32509
G0 F5400 X10.301 Y-2.947
G1 F1800 X0.103 Y7.25 E91.52424
G0 F5400 X-.452 Y7.24
G1 F1800 X10.014 Y-3.226 E92.75496
G0 F5400 X9.724 Y-3.501
G1 F1800 X-.993 Y7.216 E94.0152
G0 F5400 X-1.524 Y7.181
G1 F1800 X9.424 Y-3.767 E95.3026
G0 F5400 X9.115 Y-4.024
G1 F1800 X-2.055 Y7.146 E96.61611
G0 F5400 X-2.585 Y7.111
G1 F1800 X8.801 Y-4.275 E97.95501
G0 F5400 X8.473 Y-4.514
G1 F1800 X-3.116 Y7.076 E99.31785
G0 F5400 X-3.647 Y7.042
G1 F1800 X8.144 Y-4.75 E100.70444
G0 F5400 X7.802 Y-4.973
G1 F1800 X-4.181 Y7.009 E102.11349
G0 F5400 X-4.711 Y6.974
G1 F1800 X7.455 Y-5.192 E103.54412
G0 F5400 X7.096 Y-5.399
G1 F1800 X-5.242 Y6.939 E104.99497
G0 F5400 X-5.774 Y6.906
G1 F1800 X6.73 Y-5.599 E106.4654
G0 F5400 X6.354 Y-5.788
G1 F1800 X-6.306 Y6.872 E107.95412
G0 F5400 X-6.837 Y6.837
G1 F1800 X5.97 Y-5.97 E109.46013
G0 F5400 X5.575 Y-6.141
G1 F1800 X-7.368 Y6.803 E110.98218
G0 F5400 X-7.901 Y6.769
G1 F1800 X5.171 Y-6.302 E112.51929
G0 F5400 X4.757 Y-6.454
G1 F1800 X-8.433 Y6.736 E114.07034
G0 F5400 X-8.966 Y6.703
G1 F1800 X4.33 Y-6.593 E115.63384
G0 F5400 X3.893 Y-6.721
G1 F1800 X-9.497 Y6.669 E117.2084
G0 F5400 X-10.029 Y6.635
G1 F1800 X3.447 Y-6.841 E118.79308
G0 F5400 X2.985 Y-6.945
G1 F1800 X-10.561 Y6.601 E120.38598
G0 F5400 X-11.093 Y6.567
G1 F1800 X2.509 Y-7.035 E121.98548
G0 F5400 X2.021 Y-7.112
G1 F1800 X-11.624 Y6.532 E123.58996
G0 F5400 X-12.155 Y6.499
G1 F1800 X1.519 Y-7.176 E125.19798
G0 F5400 X0.997 Y-7.22
G1 F1800 X-12.687 Y6.465 E126.80717
G0 F5400 X-13.219 Y6.431
G1 F1800 X0.456 Y-7.245 E128.41531
G0 F5400 X-.101 Y-7.252
G1 F1800 X-13.751 Y6.397 E130.02038
G0 F5400 X-14.282 Y6.362
G1 F1800 X-.686 Y-7.232 E131.61905
G0 F5400 X-1.289 Y-7.196
G1 F1800 X-14.813 Y6.328 E133.20937
G0 F5400 X-15.345 Y6.294
G1 F1800 X-1.893 Y-7.157 E134.79116
G0 F5400 X-2.498 Y-7.118
G1 F1800 X-15.877 Y6.26 E136.36437
G0 F5400 X-16.409 Y6.226
G1 F1800 X-3.102 Y-7.079 E137.92906
G0 F5400 X-3.707 Y-7.04
G1 F1800 X-16.94 Y6.192 E139.4851
G0 F5400 X-17.472 Y6.158
G1 F1800 X-4.311 Y-7.001 E141.03261
G0 F5400 X-4.916 Y-6.962
G1 F1800 X-18.003 Y6.124 E142.57148
G0 F5400 X-18.535 Y6.09
G1 F1800 X-5.521 Y-6.923 E144.10177
G0 F5400 X-6.125 Y-6.885
G1 F1800 X-19.067 Y6.057 E145.62365
G0 F5400 X-19.6 Y6.023
G1 F1800 X-6.73 Y-6.846 E147.13701
G0 F5400 X-7.334 Y-6.807
G1 F1800 X-20.132 Y5.99 E148.64189
G0 F5400 X-20.664 Y5.956
G1 F1800 X-7.939 Y-6.768 E150.1382
G0 F5400 X-8.543 Y-6.73
G1 F1800 X-21.194 Y5.921 E151.62586
G0 F5400 X-21.725 Y5.886
G1 F1800 X-9.147 Y-6.691 E153.10488
G0 F5400 X-9.751 Y-6.653
G1 F1800 X-22.257 Y5.852 E154.57543
G0 F5400 X-22.789 Y5.818
G1 F1800 X-10.356 Y-6.614 E156.03739
G0 F5400 X-10.96 Y-6.575
G1 F1800 X-23.321 Y5.785 E157.49089
G0 F5400 X-23.853 Y5.751
G1 F1800 X-11.564 Y-6.537 E158.93593
G0 F5400 X-12.169 Y-6.498
G1 F1800 X-24.378 Y5.71 E160.37155
G0 F5400 X-24.761 Y5.528
G1 F1800 X-12.773 Y-6.46 E161.78125
G0 F5400 X-13.377 Y-6.421
G1 F1800 X-24.909 Y5.11 E163.13727
G0 F5400 X-24.915 Y4.55
G1 F1800 X-13.982 Y-6.382 E164.42284
G0 F5400 X-14.586 Y-6.344
G1 F1800 X-24.915 Y3.985 E165.63746
G0 F5400 X-24.915 Y3.419
G1 F1800 X-15.19 Y-6.305 E166.78098
G0 F5400 X-15.794 Y-6.267
G1 F1800 X-24.915 Y2.853 E167.85348
G0 F5400 X-24.915 Y2.288
G1 F1800 X-16.399 Y-6.228 E168.8549
G0 F5400 X-17.003 Y-6.189
G1 F1800 X-24.915 Y1.722 E169.78523
G0 F5400 X-24.915 Y1.156
G1 F1800 X-17.607 Y-6.151 E170.64454
G0 F5400 X-18.212 Y-6.112
G1 F1800 X-24.915 Y0.591 E171.43276
G0 F5400 X-24.915 Y0.025
G1 F1800 X-18.816 Y-6.074 E172.14995
G0 F5400 X-19.42 Y-6.035
G1 F1800 X-24.915 Y-.54 E172.79612
G0 F5400 X-24.915 Y-1.105
G1 F1800 X-20.025 Y-5.996 E173.37121
G0 F5400 X-20.629 Y-5.958
G1 F1800 X-24.915 Y-1.671 E173.87527
G0 F5400 X-24.915 Y-2.237
G1 F1800 X-21.233 Y-5.919 E174.30824
G0 F5400 X-21.837 Y-5.881
G1 F1800 X-24.915 Y-2.802 E174.67025
G0 F5400 X-24.915 Y-3.368
G1 F1800 X-22.442 Y-5.842 E174.96112
G0 F5400 X-23.046 Y-5.803
G1 F1800 X-24.915 Y-3.934 E175.1809
G0 F5400 X-24.915 Y-4.5
G1 F1800 X-23.65 Y-5.765 E175.32965
G0 F5400 X-24.255 Y-5.726
G1 F1800 X-24.908 Y-5.072 E175.4065
G1 X-24.978 Y-5.002
;MESH:NONMESH
G0 F600 X-24.978 Y-5.002 Z1.3
G0 F5400 X-20.225 Y-1.434
;TIME_ELAPSED:95.838594
;LAYER:2
;TYPE:WALL-INNER
;MESH:benchy.stl
G1 F3600 X-25.724 Y-1.435 E175.86374
G1 X-25.724 Y-5.314 E176.18628
G1 X-25.68 Y-5.692 E176.21792
G1 X-25.548 Y-6.015 E176.24694
G1 X-25.373 Y-6.238 E176.27051
G1 X-25.109 Y-6.424 E176.29736
G1 X-24.627 Y-6.55 E176.33879
G1 X-6.478 Y-7.774 E177.85131
G1 X-.933 Y-8.156 E178.31347
G1 X-.29 Y-8.182 E178.36698
G1 X0.307 Y-8.182 E178.41662
G1 X0.926 Y-8.158 E178.46813
G1 X1.673 Y-8.098 E178.53044
G1 X2.265 Y-8.022 E178.58007
G1 X3.118 Y-7.874 E178.65206
G1 X3.651 Y-7.756 E178.69745
G1 X4.377 Y-7.567 E178.75983
G1 X5.175 Y-7.314 E178.82944
G1 X5.659 Y-7.135 E178.87235
G1 X6.33 Y-6.861 E178.93262
G1 X6.817 Y-6.637 E178.97719
G1 X7.476 Y-6.301 E179.0387
G1 X7.933 Y-6.045 E179.08225
G1 X8.402 Y-5.76 E179.12788
G1 X8.85 Y-5.467 E179.1724
G1 X9.243 Y-5.192 E179.21228
G1 X9.71 Y-4.842 E179.26081
G1 X10.183 Y-4.453 E179.31173
G1 X10.589 Y-4.095 E179.35674
G1 X11.064 Y-3.645 E179.41114
G1 X11.537 Y-3.154 E179.46783
G1 X11.89 Y-2.76 E179.51182
G1 X12.385 Y-2.157 E179.57669
G1 X12.714 Y-1.718 E179.62231
G1 X13.1 Y-1.162 E179.67859
G1 X13.44 Y-.62 E179.73179
G1 X13.651 Y-.218 E179.76954
G1 X13.687 Y0.029 E179.79029
G1 X13.658 Y0.199 E179.80463
G1 X13.365 Y0.744 E179.85608
G1 X12.97 Y1.356 E179.91665
G1 X12.574 Y1.91 E179.97327
G1 X12.161 Y2.438 E180.02901
G1 X11.811 Y2.85 E180.07396
G1 X11.455 Y3.242 E180.11799
G1 X11.072 Y3.636 E180.16368
G1 X10.606 Y4.082 E180.21732
G1 X10.214 Y4.427 E180.26074
G1 X9.752 Y4.804 E180.31032
G1 X9.297 Y5.152 E180.35795
G1 X8.817 Y5.491 E180.40682
G1 X8.418 Y5.751 E180.44641
G1 X7.923 Y6.051 E180.49454
G1 X7.472 Y6.304 E180.53754
G1 X6.954 Y6.571 E180.586
G1 X6.478 Y6.795 E180.62974
G1 X5.833 Y7.07 E180.68804
G1 X5.18 Y7.312 E180.74595
G1 X4.665 Y7.48 E180.79099
G1 X3.964 Y7.68 E180.85161
G1 X3.411 Y7.813 E180.8989
G1 X2.86 Y7.924 E180.94564
G1 X2.121 Y8.043 E181.00788
G1 X1.542 Y8.11 E181.05634
G1 X0.938 Y8.157 E181.10672
G1 X0.369 Y8.179 E181.15407
G1 X-.449 Y8.179 E181.22208
G1 X-1.248 Y8.135 E181.28862
G1 X-2.704 Y8.033 E181.40998
G1 X-4.491 Y7.912 E181.55891
G1 X-5.02 Y7.874 E181.60301
G1 X-5.924 Y7.814 E181.67835
G1 X-6.466 Y7.775 E181.72353
G1 X-7.392 Y7.714 E181.80069
G1 X-9.446 Y7.573 E181.97189
G1 X-10.403 Y7.51 E182.05163
G1 X-20.354 Y6.838 E182.88095
G1 X-21.333 Y6.774 E182.96253
G1 X-21.916 Y6.733 E183.01112
G1 X-22.888 Y6.669 E183.09212
G1 X-23.909 Y6.598 E183.17722
G1 X-24.624 Y6.552 E183.2368
G1 X-24.975 Y6.482 E183.26656
G1 X-25.259 Y6.332 E183.29326
G1 X-25.472 Y6.127 E183.31784
G1 X-25.627 Y5.856 E183.3438
G1 X-25.725 Y5.332 E183.38813
G1 X-25.723 Y1.435 E183.71217
G1 X-20.225 Y1.435 E184.16933
G1 X-20.225 Y-1.434 E184.40789
G0 F7200 X-20.625 Y-1.034
;TYPE:WALL-OUTER
G1 F1800 X-26.124 Y-1.035 E184.86513
G1 X-26.124 Y-5.334 E185.22259
G1 X-26.071 Y-5.792 E185.26093
G1 X-25.897 Y-6.218 E185.29919
G1 X-25.65 Y-6.532 E185.33241
G1 X-25.29 Y-6.785 E185.369
G1 X-24.896 Y-6.919 E185.4036
G1 X-24.674 Y-6.948 E185.42222
G1 X-6.505 Y-8.173 E186.93641
G1 X-.949 Y-8.556 E187.39949
G1 X-.306 Y-8.582 E187.453
G1 X0.322 Y-8.582 E187.50521
G1 X0.95 Y-8.558 E187.55747
G1 X1.711 Y-8.496 E187.62096
G1 X2.318 Y-8.419 E187.67183
G1 X3.204 Y-8.265 E187.74661
G1 X3.737 Y-8.147 E187.792
G1 X4.484 Y-7.952 E187.8562
G1 X5.308 Y-7.691 E187.92807
G1 X5.798 Y-7.51 E187.9715
G1 X6.488 Y-7.228 E188.03348
G1 X6.999 Y-6.993 E188.08025
G1 X7.658 Y-6.657 E188.14176
G1 X8.141 Y-6.387 E188.18777
G1 X8.61 Y-6.102 E188.2334
G1 X9.069 Y-5.802 E188.279
G1 X9.484 Y-5.512 E188.3211
G1 X9.95 Y-5.161 E188.36961
G1 X10.448 Y-4.753 E188.42314
G1 X10.854 Y-4.395 E188.46815
G1 X11.352 Y-3.923 E188.5252
G1 X11.825 Y-3.432 E188.58189
G1 X12.188 Y-3.027 E188.62711
G1 X12.705 Y-2.397 E188.69488
G1 X13.043 Y-1.946 E188.74174
G1 X13.439 Y-1.375 E188.79952
G1 X13.784 Y-.825 E188.8535
G1 X14.037 Y-.343 E188.89877
G1 X14.092 Y0.033 E188.93037
G1 X14.041 Y0.33 E188.95542
G1 X13.707 Y0.952 E189.01413
G1 X13.302 Y1.58 E189.07626
G1 X12.897 Y2.145 E189.13407
G1 X12.466 Y2.697 E189.1923
G1 X12.115 Y3.111 E189.23743
G1 X11.742 Y3.521 E189.28352
G1 X11.359 Y3.915 E189.32921
G1 X10.87 Y4.382 E189.38543
G1 X10.467 Y4.737 E189.43009
G1 X9.995 Y5.122 E189.48074
G1 X9.528 Y5.479 E189.52961
G1 X9.048 Y5.818 E189.57848
G1 X8.625 Y6.093 E189.62043
G1 X8.119 Y6.4 E189.66964
G1 X7.661 Y6.657 E189.71331
G1 X7.137 Y6.927 E189.76232
G1 X6.635 Y7.163 E189.80845
G1 X5.984 Y7.44 E189.86728
G1 X5.317 Y7.688 E189.92645
G1 X4.775 Y7.865 E189.97386
G1 X4.074 Y8.065 E190.03447
G1 X3.499 Y8.203 E190.08364
G1 X2.924 Y8.319 E190.13241
G1 X2.185 Y8.438 E190.19465
G1 X1.573 Y8.509 E190.24588
G1 X0.959 Y8.557 E190.29709
G1 X0.384 Y8.579 E190.34494
G1 X-.453 Y8.579 E190.41454
G1 X-1.214 Y8.537 E190.47791
G1 X-1.264 Y8.535 E190.48207
G1 X-2.732 Y8.432 E190.60444
G1 X-4.519 Y8.311 E190.75337
G1 X-5.047 Y8.273 E190.79738
G1 X-5.953 Y8.213 E190.87288
G1 X-6.494 Y8.174 E190.91798
G1 X-7.419 Y8.113 E190.99506
G1 X-9.473 Y7.972 E191.16626
G1 X-10.429 Y7.909 E191.24592
G1 X-12.542 Y7.765 E191.42203
G1 X-20.38 Y7.237 E192.07524
G1 X-21.361 Y7.173 E192.15698
G1 X-21.943 Y7.132 E192.20549
G1 X-22.916 Y7.068 E192.28657
G1 X-23.936 Y6.997 E192.37159
G1 X-24.675 Y6.949 E192.43317
G1 X-25.112 Y6.862 E192.47022
G1 X-25.495 Y6.66 E192.50622
G1 X-25.79 Y6.377 E192.54021
G1 X-26.002 Y6.007 E192.57567
G1 X-26.111 Y5.577 E192.61256
G1 X-26.125 Y5.332 E192.63296
G1 X-26.123 Y1.035 E192.99026
G1 X-20.625 Y1.035 E193.44742
G1 X-20.625 Y-1.034 E193.61946
G0 F7200 X-20.825 Y-1.034
G0 X-20.824 Y-1.534
G0 X-19.835 Y-1.824
;TYPE:SKIN
G1 F1800 X-25.334 Y-1.825 E194.0767
G1 X-25.334 Y-5.29 E194.36482
G1 X-25.298 Y-5.596 E194.39044
G1 X-25.206 Y-5.821 E194.41065
G1 X-25.101 Y-5.954 E194.42474
G1 X-24.944 Y-6.064 E194.44068
G1 X-24.57 Y-6.162 E194.47283
G1 X-6.452 Y-7.384 E195.98277
G1 X-.907 Y-7.766 E196.44493
G1 X-.274 Y-7.792 E196.49761
G1 X0.292 Y-7.792 E196.54467
G1 X0.911 Y-7.768 E196.59618
G1 X1.636 Y-7.71 E196.65666
G1 X2.199 Y-7.638 E196.70385
G1 X3.043 Y-7.491 E196.77509
G1 X3.541 Y-7.381 E196.81749
G1 X4.276 Y-7.19 E196.88064
G1 X5.04 Y-6.948 E196.94728
G1 X5.518 Y-6.771 E196.98966
G1 X6.167 Y-6.506 E197.04795
G1 X6.654 Y-6.282 E197.09252
G1 X7.292 Y-5.957 E197.15206
G1 X7.736 Y-5.708 E197.19439
G1 X8.22 Y-5.414 E197.24148
G1 X8.604 Y-5.163 E197.27962
G1 X9.019 Y-4.872 E197.32177
G1 X9.469 Y-4.535 E197.36851
G1 X9.93 Y-4.156 E197.41814
G1 X10.32 Y-3.812 E197.46138
G1 X10.783 Y-3.374 E197.51437
G1 X11.251 Y-2.888 E197.57048
G1 X11.588 Y-2.512 E197.61246
G1 X12.083 Y-1.909 E197.67733
G1 X12.398 Y-1.49 E197.72092
G1 X12.775 Y-.947 E197.77588
G1 X13.102 Y-.426 E197.82703
G1 X13.275 Y-0.097 E197.85794
G1 X13.284 Y0.071 E197.87193
G1 X13.031 Y0.542 E197.91638
G1 X12.652 Y1.13 E197.97455
G1 X12.266 Y1.67 E198.02975
G1 X11.84 Y2.214 E198.0872
G1 X11.522 Y2.588 E198.12802
G1 X11.172 Y2.976 E198.17147
G1 X10.803 Y3.355 E198.21545
G1 X10.348 Y3.789 E198.26773
G1 X9.962 Y4.13 E198.31056
G1 X9.515 Y4.494 E198.35849
G1 X9.045 Y4.853 E198.40767
G1 X8.618 Y5.155 E198.45116
G1 X8.21 Y5.421 E198.49166
G1 X7.726 Y5.714 E198.5387
G1 X7.287 Y5.96 E198.58055
G1 X6.781 Y6.221 E198.62789
G1 X6.318 Y6.439 E198.67044
G1 X5.701 Y6.702 E198.72621
G1 X5.038 Y6.948 E198.78501
G1 X4.544 Y7.109 E198.82821
G1 X3.861 Y7.304 E198.88728
G1 X3.328 Y7.432 E198.93285
G1 X2.791 Y7.54 E198.9784
G1 X2.08 Y7.655 E199.03829
G1 X1.47 Y7.726 E199.08935
G1 X0.923 Y7.767 E199.13496
G1 X0.354 Y7.789 E199.18231
G1 X-.428 Y7.789 E199.24733
G1 X-1.221 Y7.745 E199.31337
G1 X-2.677 Y7.643 E199.43474
G1 X-4.464 Y7.522 E199.58367
G1 X-4.993 Y7.484 E199.62777
G1 X-5.897 Y7.424 E199.7031
G1 X-6.439 Y7.385 E199.74828
G1 X-7.365 Y7.324 E199.82545
G1 X-9.419 Y7.183 E199.99664
G1 X-10.376 Y7.12 E200.07639
G1 X-20.327 Y6.448 E200.9057
G1 X-21.306 Y6.384 E200.98728
G1 X-21.889 Y6.343 E201.03588
G1 X-22.861 Y6.279 E201.11687
G1 X-23.883 Y6.208 E201.20206
G1 X-24.583 Y6.163 E201.26038
G1 X-24.841 Y6.112 E201.28225
G1 X-25.027 Y6.014 E201.29973
G1 X-25.16 Y5.885 E201.31514
G1 X-25.255 Y5.72 E201.33097
G1 X-25.335 Y5.292 E201.36718
G1 X-25.333 Y1.825 E201.65546
G1 X-19.835 Y1.825 E202.11262
G1 X-19.835 Y-1.824 E202.41603
G0 F7200 X-20.197 Y1.463
G0 X-25.127 Y5.419
G1 F1800 X-24.563 Y5.983 E202.48236
G0 F7200 X-23.959 Y6.021
G1 F1800 X-25.153 Y4.827 E202.62276
G0 F7200 X-25.153 Y4.261
G1 F1800 X-23.352 Y6.063 E202.8346
G0 F7200 X-22.744 Y6.105
G1 F1800 X-25.153 Y3.696 E203.11788
G0 F7200 X-25.153 Y3.131
G1 F1800 X-22.138 Y6.145 E203.47237
G0 F7200 X-21.531 Y6.187
G1 F1800 X-25.153 Y2.565 E203.89829
G0 F7200 X-25.148 Y2.004
G1 F1800 X-20.925 Y6.227 E204.39488
G0 F7200 X-20.32 Y6.267
G1 F1800 X-24.582 Y2.004 E204.89612
G0 F7200 X-24.016 Y2.004
G1 F1800 X-19.713 Y6.308 E205.40217
G0 F7200 X-19.106 Y6.349
G1 F1800 X-23.451 Y2.004 E205.91311
G0 F7200 X-22.885 Y2.004
G1 F1800 X-18.5 Y6.39 E206.42881
G0 F7200 X-17.893 Y6.431
G1 F1800 X-22.319 Y2.004 E206.94934
G0 F7200 X-21.754 Y2.004
G1 F1800 X-17.286 Y6.472 E207.47474
G0 F7200 X-16.679 Y6.513
G1 F1800 X-21.188 Y2.004 E208.00496
G0 F7200 X-20.622 Y2.004
G1 F1800 X-16.073 Y6.554 E208.53995
G0 F7200 X-15.466 Y6.595
G1 F1800 X-20.057 Y2.004 E209.07982
G0 F7200 X-19.654 Y1.841
G1 F1800 X-14.859 Y6.636 E209.64367
G0 F7200 X-14.253 Y6.677
G1 F1800 X-19.654 Y1.275 E210.27885
G0 F7200 X-19.654 Y0.709
G1 F1800 X-13.646 Y6.718 E210.9854
G0 F7200 X-13.039 Y6.759
G1 F1800 X-19.654 Y0.144 E211.76327
G0 F7200 X-19.654 Y-.421
G1 F1800 X-12.433 Y6.8 E212.61241
G0 F7200 X-11.826 Y6.841
G1 F1800 X-19.654 Y-.987 E213.53292
G0 F7200 X-19.654 Y-1.552
G1 F1800 X-11.219 Y6.882 E214.52475
G0 F7200 X-10.612 Y6.923
G1 F1800 X-23.583 Y-6.047 E216.04998
G0 F7200 X-24.113 Y-6.011
G1 F1800 X-20.106 Y-2.004 E216.52118
G0 F7200 X-20.672 Y-2.004
G1 F1800 X-24.627 Y-5.96 E216.98631
G0 F7200 X-25.011 Y-5.777
G1 F1800 X-21.237 Y-2.004 E217.43005
G0 F7200 X-21.803 Y-2.004
G1 F1800 X-25.145 Y-5.346 E217.82304
G0 F7200 X-25.153 Y-4.788
G1 F1800 X-22.369 Y-2.004 E218.15042
G0 F7200 X-22.935 Y-2.005
G1 F1800 X-25.153 Y-4.222 E218.41118
G0 F7200 X-25.153 Y-3.657
G1 F1800 X-23.501 Y-2.005 E218.60544
G0 F7200 X-24.067 Y-2.005
G1 F1800 X-25.153 Y-3.091 E218.73315
G0 F7200 X-25.153 Y-2.525
G1 F1800 X-24.632 Y-2.005 E218.79435
G0 F7200 X-23.053 Y-6.083
G1 F1800 X-10.007 Y6.962 E220.3284
G0 F7200 X-9.402 Y7.002
G1 F1800 X-22.523 Y-6.118 E221.87127
G0 F7200 X-21.993 Y-6.154
G1 F1800 X-8.794 Y7.044 E223.42332
G0 F7200 X-8.187 Y7.085
G1 F1800 X-21.463 Y-6.19 E224.98441
G0 F7200 X-20.933 Y-6.226
G1 F1800 X-7.58 Y7.127 E226.55462
G0 F7200 X-6.974 Y7.167
G1 F1800 X-20.403 Y-6.261 E228.13371
G0 F7200 X-19.873 Y-6.297
G1 F1800 X-6.368 Y7.207 E229.72174
G0 F7200 X-5.76 Y7.25
G1 F1800 X-19.343 Y-6.332 E231.31894
G0 F7200 X-18.813 Y-6.368
G1 F1800 X-5.153 Y7.291 E232.92519
G0 F7200 X-4.545 Y7.334
G1 F1800 X-18.283 Y-6.404 E234.54067
G0 F7200 X-17.754 Y-6.44
G1 F1800 X-3.937 Y7.375 E236.16533
G0 F7200 X-3.331 Y7.416
G1 F1800 X-17.223 Y-6.475 E237.79886
G0 F7200 X-16.694 Y-6.511
G1 F1800 X-2.724 Y7.457 E239.44151
G0 F7200 X-2.116 Y7.5
G1 F1800 X-16.163 Y-6.547 E241.09333
G0 F7200 X-15.634 Y-6.583
G1 F1800 X-1.507 Y7.543 E242.7545
G0 F7200 X-.904 Y7.58
G1 F1800 X-15.103 Y-6.618 E244.42413
G0 F7200 X-14.574 Y-6.654
G1 F1800 X-.311 Y7.607 E246.10123
G0 F7200 X0.253 Y7.607
G1 F1800 X-14.043 Y-6.689 E247.78233
G0 F7200 X-13.514 Y-6.725
G1 F1800 X0.802 Y7.59 E249.46573
G0 F7200 X1.332 Y7.555
G1 F1800 X-12.984 Y-6.762 E251.14924
G0 F7200 X-12.454 Y-6.797
G1 F1800 X1.843 Y7.5 E252.83046
G0 F7200 X2.339 Y7.43
G1 F1800 X-11.924 Y-6.833 E254.50767
G0 F7200 X-11.394 Y-6.868
G1 F1800 X2.823 Y7.348 E256.17943
G0 F7200 X3.294 Y7.254
G1 F1800 X-10.864 Y-6.904 E257.8443
G0 F7200 X-10.334 Y-6.94
G1 F1800 X3.75 Y7.144 E259.50047
G0 F7200 X4.193 Y7.021
G1 F1800 X-9.804 Y-6.976 E261.14641
G0 F7200 X-9.274 Y-7.011
G1 F1800 X4.628 Y6.891 E262.78118
G0 F7200 X5.051 Y6.748
G1 F1800 X-8.744 Y-7.047 E264.40336
G0 F7200 X-8.214 Y-7.083
G1 F1800 X5.464 Y6.595 E266.01179
G0 F7200 X5.869 Y6.435
G1 F1800 X-7.684 Y-7.119 E267.60558
G0 F7200 X-7.154 Y-7.154
G1 F1800 X6.264 Y6.264 E269.18343
G0 F7200 X6.648 Y6.083
G1 F1800 X-6.624 Y-7.19 E270.74418
G0 F7200 X-6.095 Y-7.226
G1 F1800 X7.022 Y5.891 E272.28664
G0 F7200 X7.391 Y5.694
G1 F1800 X-5.566 Y-7.263 E273.81028
G0 F7200 X-5.036 Y-7.299
G1 F1800 X7.75 Y5.487 E275.31382
G0 F7200 X8.102 Y5.274
G1 F1800 X-4.507 Y-7.336 E276.7966
G0 F7200 X-3.978 Y-7.372
G1 F1800 X8.445 Y5.051 E278.25745
G0 F7200 X8.779 Y4.819
G1 F1800 X-3.449 Y-7.409 E279.69536
G0 F7200 X-2.919 Y-7.445
G1 F1800 X9.105 Y4.579 E281.1093
G0 F7200 X9.425 Y4.334
G1 F1800 X-2.39 Y-7.481 E282.49865
G0 F7200 X-1.861 Y-7.517
G1 F1800 X9.736 Y4.08 E283.86237
G0 F7200 X10.04 Y3.818
G1 F1800 X-1.332 Y-7.554 E285.19963
G0 F7200 X-.8 Y-7.588
G1 F1800 X10.337 Y3.548 E286.50919
G0 F7200 X10.626 Y3.272
G1 F1800 X-.257 Y-7.611 E287.78895
G0 F7200 X0.309 Y-7.609
G1 F1800 X10.907 Y2.988 E289.03514
G0 F7200 X11.18 Y2.695
G1 F1800 X0.898 Y-7.587 E290.24422
G0 F7200 X1.511 Y-7.539
G1 F1800 X11.447 Y2.396 E291.41256
G0 F7200 X11.708 Y2.091
G1 F1800 X2.155 Y-7.461 E292.53586
G0 F7200 X2.839 Y-7.342
G1 F1800 X11.956 Y1.774 E293.60789
G0 F7200 X12.2 Y1.452
G1 F1800 X3.559 Y-7.188 E294.62395
G0 F7200 X4.331 Y-6.982
G1 F1800 X12.435 Y1.122 E295.57692
G0 F7200 X12.661 Y0.782
G1 F1800 X5.173 Y-6.705 E296.45739
G1 X5.103 Y-6.775
G0 F7200 X6.112 Y-6.332
G1 F1800 X12.882 Y0.436 E297.25337
G0 F7200 X13.08 Y0.069
G1 F1800 X7.219 Y-5.791 E297.94252
G1 X7.149 Y-5.861
G0 F7200 X8.706 Y-4.869
G1 F1800 X12.387 Y-1.188 E298.37538
G1 X12.457 Y-1.118
;MESH:NONMESH
G0 F600 X12.457 Y-1.118 Z1.8
G0 F7200 X-20.225 Y-1.598
;TIME_ELAPSED:145.911415
;LAYER:3
;TYPE:WALL-INNER
;MESH:benchy.stl
G1 F3600 X-25.96 Y-1.598 E298.85224
G1 X-25.961 Y-5.317 E299.16148
G1 X-25.948 Y-5.784 E299.20033
G1 X-25.861 Y-6.122 E299.22935
G1 X-25.708 Y-6.383 E299.2545
G1 X-25.488 Y-6.597 E299.28002
G1 X-25.219 Y-6.737 E299.30524
G1 X-24.854 Y-6.812 E299.33622
G1 X-9.687 Y-7.886 E300.60052
G1 X-3.806 Y-8.309 E301.09079
G1 X-1.389 Y-8.488 E301.29232
G1 X-.582 Y-8.535 E301.35953
G1 X0.059 Y-8.545 E301.41284
G1 X0.69 Y-8.53 E301.46532
G1 X1.625 Y-8.463 E301.54327
G1 X2.232 Y-8.392 E301.59408
G1 X2.833 Y-8.298 E301.64466
G1 X3.573 Y-8.151 E301.7074
G1 X4.288 Y-7.975 E301.76863
G1 X4.879 Y-7.802 E301.81983
G1 X5.436 Y-7.619 E301.86858
G1 X5.967 Y-7.425 E301.91559
G1 X6.486 Y-7.214 E301.96217
G1 X7.269 Y-6.853 E302.03387
G1 X7.792 Y-6.584 E302.08277
G1 X8.403 Y-6.237 E302.14119
G1 X8.894 Y-5.935 E302.18913
G1 X9.353 Y-5.63 E302.23495
G1 X9.824 Y-5.291 E302.2832
G1 X10.262 Y-4.954 E302.32916
G1 X10.893 Y-4.424 E302.39768
G1 X11.309 Y-4.041 E302.44469
G1 X11.72 Y-3.638 E302.49256
G1 X12.192 Y-3.137 E302.54979
G1 X12.573 Y-2.699 E302.59806
G1 X12.928 Y-2.261 E302.64494
G1 X13.263 Y-1.816 E302.69126
G1 X13.603 Y-1.331 E302.74051
G1 X14.002 Y-.709 E302.80195
G1 X14.231 Y-.308 E302.84035
G1 X14.299 Y-0.057 E302.86197
G1 X14.277 Y0.175 E302.88135
G1 X14.139 Y0.482 E302.90934
G1 X13.844 Y0.965 E302.9564
G1 X13.526 Y1.443 E303.00413
G1 X13.118 Y2.013 E303.06242
G1 X12.669 Y2.585 E303.12289
G1 X12.211 Y3.117 E303.18126
G1 X11.929 Y3.419 E303.21561
G1 X11.538 Y3.821 E303.26224
G1 X11.13 Y4.21 E303.30912
G1 X10.701 Y4.588 E303.35666
G1 X10.034 Y5.134 E303.42833
G1 X9.59 Y5.463 E303.47428
G1 X9.112 Y5.793 E303.52258
G1 X8.659 Y6.084 E303.56735
G1 X8.034 Y6.452 E303.62766
G1 X7.533 Y6.719 E303.67486
G1 X6.91 Y7.024 E303.73254
G1 X6.247 Y7.313 E303.79268
G1 X5.558 Y7.577 E303.85403
G1 X5.019 Y7.76 E303.90136
G1 X4.3 Y7.972 E303.96369
G1 X3.725 Y8.116 E304.01298
G1 X3.151 Y8.238 E304.06178
G1 X2.54 Y8.346 E304.11337
G1 X1.943 Y8.428 E304.16347
G1 X1.168 Y8.504 E304.22823
G1 X0.686 Y8.53 E304.26836
G1 X-0.084 Y8.545 E304.3324
G1 X-.729 Y8.529 E304.38605
G1 X-1.044 Y8.513 E304.41227
G1 X-6.682 Y8.102 E304.88232
G1 X-12.751 Y7.668 E305.38825
G1 X-20.692 Y7.108 E306.05018
G1 X-22.151 Y7.003 E306.17181
G1 X-22.269 Y6.997 E306.18164
G1 X-24.862 Y6.811 E306.3978
G1 X-25.215 Y6.739 E306.42776
G1 X-25.486 Y6.6 E306.45308
G1 X-25.715 Y6.376 E306.47972
G1 X-25.864 Y6.115 E306.50471
G1 X-25.961 Y5.593 E306.54886
G1 X-25.961 Y1.599 E306.88096
G1 X-20.225 Y1.599 E307.35791
G1 X-20.225 Y-1.598 E307.62374
G0 F7200 X-20.625 Y-1.198
;TYPE:WALL-OUTER
G1 F1800 X-26.36 Y-1.198 E308.10061
G1 X-26.361 Y-5.328 E308.44402
G1 X-26.347 Y-5.838 E308.48644
G1 X-26.234 Y-6.276 E308.52405
G1 X-26.025 Y-6.633 E308.55845
G1 X-25.725 Y-6.925 E308.59326
G1 X-25.355 Y-7.118 E308.62796
G1 X-24.909 Y-7.209 E308.66581
G1 X-9.715 Y-8.285 E309.93236
G1 X-3.835 Y-8.708 E310.42255
G1 X-1.419 Y-8.887 E310.62399
G1 X-.588 Y-8.935 E310.6932
G1 X0.062 Y-8.945 E310.74726
G1 X0.706 Y-8.93 E310.80082
G1 X1.658 Y-8.862 E310.88018
G1 X2.284 Y-8.788 E310.9326
G1 X2.903 Y-8.692 E310.98468
G1 X3.66 Y-8.541 E311.04887
G1 X4.4 Y-8.359 E311.11223
G1 X4.999 Y-8.184 E311.16412
G1 X5.573 Y-7.995 E311.21437
G1 X6.104 Y-7.801 E311.26138
G1 X6.654 Y-7.577 E311.31076
G1 X7.452 Y-7.209 E311.38383
G1 X7.975 Y-6.94 E311.43273
G1 X8.613 Y-6.578 E311.49372
G1 X9.104 Y-6.276 E311.54166
G1 X9.587 Y-5.955 E311.58988
G1 X10.058 Y-5.616 E311.63813
G1 X10.506 Y-5.271 E311.68515
G1 X11.164 Y-4.718 E311.75662
G1 X11.589 Y-4.327 E311.80464
G1 X12 Y-3.924 E311.8525
G1 X12.494 Y-3.4 E311.91238
G1 X12.875 Y-2.962 E311.96065
G1 X13.239 Y-2.513 E312.00871
G1 X13.591 Y-2.046 E312.05734
G1 X13.931 Y-1.561 E312.10659
G1 X14.339 Y-.925 E312.16942
G1 X14.604 Y-.461 E312.21385
G1 X14.703 Y-0.091 E312.2457
G1 X14.669 Y0.28 E312.27668
G1 X14.494 Y0.668 E312.31207
G1 X14.177 Y1.187 E312.36264
G1 X13.858 Y1.665 E312.41042
G1 X13.433 Y2.26 E312.47122
G1 X12.984 Y2.832 E312.53168
G1 X12.512 Y3.381 E312.59188
G1 X12.216 Y3.698 E312.62795
G1 X11.814 Y4.111 E312.67587
G1 X11.395 Y4.51 E312.72398
G1 X10.963 Y4.891 E312.77188
G1 X10.287 Y5.444 E312.8445
G1 X9.817 Y5.792 E312.89312
G1 X9.339 Y6.122 E312.94142
G1 X8.862 Y6.429 E312.98859
G1 X8.237 Y6.797 E313.0489
G1 X7.718 Y7.073 E313.09778
G1 X7.07 Y7.391 E313.1578
G1 X6.398 Y7.684 E313.21875
G1 X5.701 Y7.951 E313.28082
G1 X5.132 Y8.144 E313.33078
G1 X4.413 Y8.356 E313.39311
G1 X3.822 Y8.504 E313.44376
G1 X3.221 Y8.632 E313.49486
G1 X2.61 Y8.74 E313.54645
G1 X1.987 Y8.826 E313.59875
G1 X1.205 Y8.902 E313.66408
G1 X0.694 Y8.93 E313.70663
G1 X-0.086 Y8.945 E313.7715
G1 X-.739 Y8.929 E313.82581
G1 X-1.073 Y8.912 E313.85362
G1 X-6.711 Y8.501 E314.32367
G1 X-12.78 Y8.067 E314.82959
G1 X-20.721 Y7.507 E315.49153
G1 X-22.174 Y7.402 E315.61266
G1 X-22.287 Y7.397 E315.62207
G1 X-24.917 Y7.208 E315.84132
G1 X-25.348 Y7.12 E315.87789
G1 X-25.723 Y6.928 E315.91293
G1 X-26.033 Y6.625 E315.94897
G1 X-26.24 Y6.262 E315.98372
G1 X-26.348 Y5.807 E316.0226
G1 X-26.361 Y5.602 E316.03968
G1 X-26.361 Y1.199 E316.40579
G1 X-20.625 Y1.199 E316.88274
G1 X-20.625 Y-1.198 E317.08205
G0 F7200 X-20.825 Y-1.198
G0 X-20.825 Y-1.698
G0 X-19.835 Y-1.988
;TYPE:SKIN
G1 F1800 X-25.57 Y-1.988 E317.55892
G1 X-25.571 Y-5.306 E317.83481
G1 X-25.56 Y-5.728 E317.86991
G1 X-25.496 Y-5.972 E317.89089
G1 X-25.395 Y-6.144 E317.90747
G1 X-25.26 Y-6.275 E317.92312
G1 X-25.087 Y-6.366 E317.93937
G1 X-24.807 Y-6.424 E317.96315
G1 X-9.66 Y-7.496 E319.22577
G1 X-3.779 Y-7.919 E319.71605
G1 X-1.362 Y-8.098 E319.91757
G1 X-.559 Y-8.145 E319.98445
G1 X0.055 Y-8.155 E320.03552
G1 X0.672 Y-8.14 E320.08683
G1 X1.574 Y-8.076 E320.16202
G1 X2.179 Y-8.005 E320.21268
G1 X2.773 Y-7.912 E320.26267
G1 X3.492 Y-7.77 E320.32361
G1 X4.179 Y-7.601 E320.38244
G1 X4.77 Y-7.428 E320.43364
G1 X5.302 Y-7.253 E320.48021
G1 X5.827 Y-7.061 E320.52669
G1 X6.297 Y-6.871 E320.56884
G1 X7.105 Y-6.498 E320.64284
G1 X7.606 Y-6.241 E320.68966
G1 X8.204 Y-5.901 E320.74686
G1 X8.683 Y-5.606 E320.79364
G1 X9.131 Y-5.309 E320.83833
G1 X9.586 Y-4.981 E320.88497
G1 X10.018 Y-4.649 E320.93027
G1 X10.635 Y-4.131 E320.99726
G1 X11.036 Y-3.762 E321.04257
G1 X11.441 Y-3.365 E321.08973
G1 X11.903 Y-2.875 E321.14573
G1 X12.27 Y-2.453 E321.19223
G1 X12.62 Y-2.021 E321.23846
G1 X12.943 Y-1.592 E321.28311
G1 X13.279 Y-1.113 E321.33176
G1 X13.668 Y-.507 E321.39164
G1 X13.869 Y-.156 E321.42527
G1 X13.895 Y0.075 E321.4446
G1 X13.796 Y0.296 E321.46474
G1 X13.519 Y0.749 E321.50889
G1 X13.204 Y1.221 E321.55607
G1 X12.801 Y1.787 E321.61385
G1 X12.373 Y2.331 E321.6714
G1 X11.92 Y2.857 E321.72912
G1 X11.65 Y3.147 E321.76207
G1 X11.269 Y3.538 E321.80746
G1 X10.866 Y3.922 E321.85375
G1 X10.448 Y4.291 E321.90011
G1 X9.795 Y4.825 E321.97025
G1 X9.363 Y5.145 E322.01496
G1 X8.875 Y5.482 E322.06427
G1 X8.448 Y5.756 E322.10646
G1 X7.851 Y6.108 E322.16408
G1 X7.389 Y6.354 E322.2076
G1 X6.738 Y6.673 E322.26788
G1 X6.098 Y6.952 E322.32594
G1 X5.394 Y7.221 E322.3886
G1 X4.923 Y7.382 E322.42999
G1 X4.189 Y7.598 E322.49361
G1 X3.643 Y7.734 E322.5404
G1 X3.069 Y7.856 E322.58919
G1 X2.473 Y7.962 E322.63953
G1 X1.904 Y8.04 E322.68728
G1 X1.147 Y8.114 E322.75053
G1 X0.665 Y8.14 E322.79067
G1 X-0.082 Y8.155 E322.85279
G1 X-.709 Y8.139 E322.90494
G1 X-1.096 Y8.119 E322.93717
G1 X-6.653 Y7.714 E323.40046
G1 X-12.722 Y7.28 E323.90639
G1 X-20.663 Y6.72 E324.56832
G1 X-22.127 Y6.613 E324.69038
G1 X-22.284 Y6.605 E324.70345
G1 X-24.81 Y6.423 E324.91403
G1 X-25.085 Y6.367 E324.93737
G1 X-25.254 Y6.28 E324.95317
G1 X-25.404 Y6.135 E324.97052
G1 X-25.492 Y5.981 E324.98527
G1 X-25.571 Y5.553 E325.02146
G1 X-25.571 Y1.989 E325.31781
G1 X-19.835 Y1.989 E325.79476
G1 X-19.835 Y-1.988 E326.12545
G0 F7200 X-25.37 Y-5.741
G1 F1800 X-24.89 Y-6.222 E326.18195
G0 F7200 X-24.265 Y-6.281
G1 F1800 X-25.389 Y-5.157 E326.31412
G0 F7200 X-25.389 Y-4.591
G1 F1800 X-23.656 Y-6.324 E326.51791
G0 F7200 X-23.048 Y-6.367
G1 F1800 X-25.389 Y-4.026 E326.79319
G0 F7200 X-25.389 Y-3.46
G1 F1800 X-22.439 Y-6.41 E327.14009
G0 F7200 X-21.83 Y-6.453
G1 F1800 X-25.389 Y-2.894 E327.5586
G0 F7200 X-25.389 Y-2.329
G1 F1800 X-21.221 Y-6.496 E328.04867
G0 F7200 X-20.612 Y-6.54
G1 F1800 X-24.984 Y-2.167 E328.56284
G0 F7200 X-24.419 Y-2.167
G1 F1800 X-20.004 Y-6.583 E329.08207
G0 F7200 X-19.395 Y-6.626
G1 F1800 X-23.853 Y-2.167 E329.60636
G0 F7200 X-23.287 Y-2.167
G1 F1800 X-18.786 Y-6.669 E330.1357
G0 F7200 X-18.177 Y-6.712
G1 F1800 X-22.722 Y-2.167 E330.67015
G0 F7200 X-22.156 Y-2.167
G1 F1800 X-17.568 Y-6.755 E331.20967
G0 F7200 X-16.96 Y-6.798
G1 F1800 X-21.59 Y-2.167 E331.75418
G0 F7200 X-21.025 Y-2.167
G1 F1800 X-16.351 Y-6.841 E332.30381
G0 F7200 X-15.743 Y-6.884
G1 F1800 X-20.459 Y-2.167 E332.85843
G0 F7200 X-19.893 Y-2.167
G1 F1800 X-15.134 Y-6.927 E333.41811
G0 F7200 X-14.525 Y-6.97
G1 F1800 X-19.654 Y-1.842 E334.02118
G0 F7200 X-19.654 Y-1.276
G1 F1800 X-13.916 Y-7.013 E334.69587
G0 F7200 X-13.307 Y-7.056
G1 F1800 X-19.654 Y-.71 E335.44217
G0 F7200 X-19.654 Y-.144
G1 F1800 X-12.698 Y-7.1 E336.26014
G0 F7200 X-12.09 Y-7.143
G1 F1800 X-19.654 Y0.42 E337.14955
G0 F7200 X-19.654 Y0.986
G1 F1800 X-11.481 Y-7.186 E338.11057
G0 F7200 X-10.872 Y-7.229
G1 F1800 X-19.654 Y1.552 E339.14321
G0 F7200 X-19.654 Y2.117
G1 F1800 X-10.263 Y-7.272 E340.2474
G0 F7200 X-9.654 Y-7.315
G1 F1800 X-23.321 Y6.35 E341.85442
G0 F7200 X-23.848 Y6.312
G1 F1800 X-19.704 Y2.168 E342.34172
G0 F7200 X-20.27 Y2.168
G1 F1800 X-24.376 Y6.274 E342.82456
G0 F7200 X-24.89 Y6.223
G1 F1800 X-20.836 Y2.168 E343.30134
G0 F7200 X-21.402 Y2.168
G1 F1800 X-25.257 Y6.024 E343.75471
G0 F7200 X-25.38 Y5.581
G1 F1800 X-21.967 Y2.168 E344.15606
G0 F7200 X-22.533 Y2.168
G1 F1800 X-25.39 Y5.025 E344.49202
G0 F7200 X-25.39 Y4.459
G1 F1800 X-23.099 Y2.168 E344.76142
G0 F7200 X-23.664 Y2.168
G1 F1800 X-25.39 Y3.894 E344.96438
G0 F7200 X-25.39 Y3.328
G1 F1800 X-24.23 Y2.168 E345.10079
G0 F7200 X-24.796 Y2.168
G1 F1800 X-25.39 Y2.762 E345.17064
G1 X-25.46 Y2.832
G0 F7200 X-22.793 Y6.388
G1 F1800 X-9.045 Y-7.359 E346.78724
G0 F7200 X-8.435 Y-7.403
G1 F1800 X-22.265 Y6.426 E348.41349
G0 F7200 X-21.735 Y6.461
G1 F1800 X-7.826 Y-7.447 E350.04902
G0 F7200 X-7.216 Y-7.491
G1 F1800 X-21.208 Y6.5 E351.69431
G0 F7200 X-20.681 Y6.539
G1 F1800 X-6.607 Y-7.534 E353.34925
G0 F7200 X-5.998 Y-7.578
G1 F1800 X-20.153 Y6.576 E355.01371
G0 F7200 X-19.625 Y6.614
G1 F1800 X-5.388 Y-7.621 E356.68775
G0 F7200 X-4.779 Y-7.665
G1 F1800 X-19.096 Y6.651 E358.37126
G0 F7200 X-18.567 Y6.688
G1 F1800 X-4.169 Y-7.709 E360.0643
G0 F7200 X-3.559 Y-7.754
G1 F1800 X-18.039 Y6.725 E361.76698
G0 F7200 X-17.51 Y6.762
G1 F1800 X-2.948 Y-7.799 E363.4793
G0 F7200 X-2.338 Y-7.843
G1 F1800 X-16.982 Y6.8 E365.20126
G0 F7200 X-16.454 Y6.837
G1 F1800 X-1.727 Y-7.889 E366.93298
G0 F7200 X-1.12 Y-7.93
G1 F1800 X-15.926 Y6.875 E368.674
G0 F7200 X-15.397 Y6.911
G1 F1800 X-.52 Y-7.964 E370.4233
G0 F7200 X0.054 Y-7.974
G1 F1800 X-14.869 Y6.949 E372.17813
G0 F7200 X-14.34 Y6.986
G1 F1800 X0.607 Y-7.961 E373.93578
G0 F7200 X1.139 Y-7.927
G1 F1800 X-13.811 Y7.023 E375.69379
G0 F7200 X-13.283 Y7.061
G1 F1800 X1.661 Y-7.884 E377.45115
G0 F7200 X2.167 Y-7.824
G1 F1800 X-12.755 Y7.098 E379.20586
G0 F7200 X-12.227 Y7.136
G1 F1800 X2.655 Y-7.747 E380.95593
G0 F7200 X3.132 Y-7.657
G1 F1800 X-11.699 Y7.173 E382.69988
G0 F7200 X-11.17 Y7.211
G1 F1800 X3.599 Y-7.558 E384.4366
G0 F7200 X4.052 Y-7.446
G1 F1800 X-10.643 Y7.249 E386.16462
G0 F7200 X-10.115 Y7.286
G1 F1800 X4.492 Y-7.321 E387.88229
G0 F7200 X4.924 Y-7.187
G1 F1800 X-9.586 Y7.324 E389.58862
G0 F7200 X-9.058 Y7.361
G1 F1800 X5.347 Y-7.044 E391.28254
G0 F7200 X5.762 Y-6.894
G1 F1800 X-8.531 Y7.399 E392.96328
G0 F7200 X-8.003 Y7.437
G1 F1800 X6.165 Y-6.73 E394.62927
G0 F7200 X6.553 Y-6.553
G1 F1800 X-7.474 Y7.474 E396.27874
G0 F7200 X-6.946 Y7.512
G1 F1800 X6.94 Y-6.375 E397.91169
G0 F7200 X7.317 Y-6.186
G1 F1800 X-6.419 Y7.55 E399.52693
G0 F7200 X-5.892 Y7.589
G1 F1800 X7.685 Y-5.988 E401.12349
G0 F7200 X8.046 Y-5.783
G1 F1800 X-5.364 Y7.627 E402.7004
G0 F7200 X-4.838 Y7.666
G1 F1800 X8.398 Y-5.569 E404.25679
G0 F7200 X8.743 Y-5.349
G1 F1800 X-4.31 Y7.704 E405.79172
G0 F7200 X-3.783 Y7.743
G1 F1800 X9.082 Y-5.122 E407.30455
G0 F7200 X9.41 Y-4.885
G1 F1800 X-3.256 Y7.781 E408.79397
G0 F7200 X-2.729 Y7.82
G1 F1800 X9.732 Y-4.641 E410.25929
G0 F7200 X10.046 Y-4.389
G1 F1800 X-2.201 Y7.858 E411.69945
G0 F7200 X-1.675 Y7.897
G1 F1800 X10.354 Y-4.131 E413.11391
G0 F7200 X10.656 Y-3.867
G1 F1800 X-1.147 Y7.935 E414.50179
G0 F7200 X-.607 Y7.961
G1 F1800 X10.949 Y-3.595 E415.86069
G0 F7200 X11.235 Y-3.315
G1 F1800 X-0.054 Y7.974 E417.18819
G0 F7200 X0.523 Y7.962
G1 F1800 X11.511 Y-3.026 E418.48029
G0 F7200 X11.786 Y-2.735
G1 F1800 X1.116 Y7.934 E419.73494
G0 F7200 X1.742 Y7.874
G1 F1800 X12.048 Y-2.431 E420.94679
G0 F7200 X12.305 Y-2.122
G1 F1800 X2.39 Y7.791 E422.1126
G0 F7200 X3.078 Y7.669
G1 F1800 X12.555 Y-1.807 E423.22696
G0 F7200 X12.797 Y-1.483
G1 F1800 X3.807 Y7.506 E424.28406
G1 X3.737 Y7.576
G0 F7200 X4.587 Y7.292
G1 F1800 X13.03 Y-1.151 E425.27689
G0 F7200 X13.256 Y-.811
G1 F1800 X5.431 Y7.013 E426.19699
G1 X5.361 Y7.083
G0 F7200 X6.377 Y6.633
G1 F1800 X13.478 Y-.467 E427.03196
G0 F7200 X13.686 Y-.109
G1 F1800 X7.47 Y6.105 E427.76279
G1 X7.4 Y6.175
G0 F7200 X8.893 Y5.248
G1 F1800 X13.118 Y1.023 E428.25962
G1 X13.188 Y0.953
;MESH:NONMESH
G0 F600 X13.188 Y0.953 Z2.3
G0 F7200 X-20.125 Y-1.491
G0 X-20.225 Y-1.491
;TIME_ELAPSED:198.742479
;LAYER:4
;TYPE:WALL-INNER
;MESH:benchy.stl
G1 F3600 X-26.194 Y-1.493 E428.75595
G1 X-26.193 Y-5.854 E429.11857
G1 X-26.13 Y-6.271 E429.15363
G1 X-25.983 Y-6.586 E429.18254
G1 X-25.789 Y-6.803 E429.20674
G1 X-25.521 Y-6.969 E429.23295
G1 X-25.1 Y-7.071 E429.26897
G1 X-17.679 Y-7.622 E429.88773
G1 X-15.307 Y-7.795 E430.08548
G1 X-8.4 Y-8.311 E430.6614
G1 X-1.145 Y-8.864 E431.26641
G1 X-.198 Y-8.901 E431.34521
G1 X0.611 Y-8.89 E431.41249
G1 X1.572 Y-8.829 E431.49256
G1 X2.39 Y-8.731 E431.56106
G1 X3.144 Y-8.608 E431.62458
G1 X4.049 Y-8.414 E431.70154
G1 X4.537 Y-8.287 E431.74347
G1 X5.085 Y-8.128 E431.79092
G1 X5.67 Y-7.935 E431.84214
G1 X6.525 Y-7.61 E431.9182
G1 X7.335 Y-7.253 E431.9918
G1 X8.185 Y-6.822 E432.07105
G1 X8.917 Y-6.404 E432.14114
G1 X9.424 Y-6.082 E432.19108
G1 X9.892 Y-5.764 E432.23813
G1 X10.393 Y-5.395 E432.28986
G1 X10.622 Y-5.219 E432.31388
G1 X11.097 Y-4.831 E432.36488
G1 X11.526 Y-4.454 E432.41237
G1 X11.958 Y-4.047 E432.46172
G1 X12.39 Y-3.611 E432.51275
G1 X12.783 Y-3.185 E432.56095
G1 X13.167 Y-2.739 E432.60988
G1 X13.539 Y-2.275 E432.65933
G1 X13.901 Y-1.788 E432.70979
G1 X14.238 Y-1.302 E432.75896
G1 X14.573 Y-.779 E432.81061
G1 X14.829 Y-.338 E432.85301
G1 X14.91 Y-0.05 E432.87789
G1 X14.886 Y0.191 E432.89802
G1 X14.545 Y0.822 E432.95766
G1 X14.254 Y1.277 E433.00257
G1 X14.097 Y1.51 E433.02593
G1 X13.739 Y2.01 E433.07707
G1 X13.382 Y2.476 E433.12588
G1 X13.003 Y2.933 E433.17525
G1 X12.598 Y3.388 E433.2259
G1 X12.191 Y3.814 E433.27489
G1 X11.758 Y4.238 E433.32528
G1 X11.33 Y4.629 E433.37348
G1 X10.869 Y5.02 E433.42374
G1 X10.41 Y5.385 E433.47251
G1 X9.973 Y5.706 E433.51759
G1 X9.471 Y6.051 E433.56824
G1 X8.938 Y6.389 E433.62072
G1 X8.429 Y6.688 E433.66981
G1 X7.905 Y6.972 E433.71936
G1 X7.227 Y7.304 E433.78214
G1 X6.553 Y7.6 E433.84335
G1 X6.083 Y7.782 E433.88525
G1 X5.54 Y7.981 E433.93334
G1 X4.966 Y8.164 E433.98344
G1 X4.064 Y8.41 E434.06118
G1 X3.149 Y8.608 E434.13902
G1 X2.227 Y8.754 E434.21664
G1 X1.421 Y8.842 E434.28406
G1 X0.466 Y8.895 E434.36359
G1 X-.515 Y8.895 E434.44516
G1 X-1.173 Y8.864 E434.49993
G1 X-5.421 Y8.536 E434.85421
G1 X-6.177 Y8.481 E434.91724
G1 X-6.892 Y8.425 E434.97687
G1 X-10.695 Y8.141 E435.29397
G1 X-11.439 Y8.083 E435.35602
G1 X-12.234 Y8.026 E435.4223
G1 X-12.985 Y7.968 E435.48493
G1 X-13.787 Y7.911 E435.55178
G1 X-16.865 Y7.681 E435.80843
G1 X-19.243 Y7.506 E436.0067
G1 X-20.002 Y7.448 E436.07
G1 X-20.809 Y7.39 E436.13727
G1 X-21.565 Y7.332 E436.20032
G1 X-25.093 Y7.072 E436.49447
G1 X-25.458 Y6.995 E436.52548
G1 X-25.723 Y6.856 E436.55037
G1 X-25.949 Y6.634 E436.57671
G1 X-26.095 Y6.378 E436.60121
G1 X-26.194 Y5.848 E436.64605
G1 X-26.193 Y1.493 E437.00817
G1 X-20.225 Y1.491 E437.50441
G1 X-20.225 Y-1.491 E437.75236
G0 F7200 X-20.625 Y-1.091
;TYPE:WALL-OUTER
G1 F1800 X-26.596 Y-1.093 E438.24885
G1 X-26.593 Y-1.73 E438.30182
G1 X-26.595 Y-2.904 E438.39944
G1 X-26.593 Y-5.886 E438.64739
G1 X-26.518 Y-6.386 E438.68943
G1 X-26.321 Y-6.807 E438.72808
G1 X-26.047 Y-7.114 E438.7623
G1 X-25.683 Y-7.34 E438.79792
G1 X-25.262 Y-7.456 E438.83423
G1 X-25.143 Y-7.469 E438.84419
G1 X-17.709 Y-8.021 E439.46403
G1 X-15.337 Y-8.194 E439.66179
G1 X-8.43 Y-8.71 E440.23771
G1 X-3.13 Y-9.113 E440.67967
G1 X-1.175 Y-9.263 E440.84271
G1 X-.706 Y-9.289 E440.88177
G1 X-.203 Y-9.301 E440.9236
G1 X0.623 Y-9.29 E440.99229
G1 X1.607 Y-9.227 E441.07428
G1 X2.454 Y-9.126 E441.14521
G1 X3.214 Y-9.002 E441.20924
G1 X4.142 Y-8.803 E441.28816
G1 X4.638 Y-8.674 E441.33077
G1 X5.21 Y-8.508 E441.38029
G1 X5.804 Y-8.312 E441.43231
G1 X6.673 Y-7.982 E441.5096
G1 X7.516 Y-7.61 E441.58621
G1 X8.371 Y-7.177 E441.66591
G1 X9.124 Y-6.746 E441.73805
G1 X9.649 Y-6.413 E441.78974
G1 X10.117 Y-6.095 E441.83679
G1 X10.637 Y-5.712 E441.89049
G1 X10.875 Y-5.529 E441.91545
G1 X11.35 Y-5.141 E441.96645
G1 X11.8 Y-4.745 E442.0163
G1 X12.242 Y-4.329 E442.06677
G1 X12.674 Y-3.893 E442.1178
G1 X13.086 Y-3.446 E442.16835
G1 X13.479 Y-2.989 E442.21847
G1 X13.86 Y-2.514 E442.2691
G1 X14.23 Y-2.016 E442.32069
G1 X14.575 Y-1.518 E442.37106
G1 X14.91 Y-.995 E442.42271
G1 X15.2 Y-.495 E442.47077
G1 X15.315 Y-0.087 E442.50602
G1 X15.278 Y0.292 E442.53768
G1 X15.148 Y0.596 E442.56517
G1 X14.882 Y1.038 E442.60807
G1 X14.591 Y1.493 E442.65297
G1 X14.422 Y1.743 E442.67807
G1 X14.064 Y2.243 E442.7292
G1 X13.69 Y2.731 E442.78032
G1 X13.302 Y3.199 E442.83087
G1 X12.897 Y3.654 E442.88152
G1 X12.471 Y4.1 E442.93281
G1 X12.038 Y4.524 E442.9832
G1 X11.589 Y4.934 E443.03376
G1 X11.127 Y5.326 E443.08414
G1 X10.656 Y5.7 E443.13414
G1 X10.2 Y6.036 E443.18124
G1 X9.698 Y6.381 E443.23189
G1 X9.153 Y6.727 E443.28557
G1 X8.619 Y7.04 E443.33704
G1 X8.092 Y7.325 E443.38685
G1 X7.395 Y7.667 E443.45141
G1 X6.698 Y7.973 E443.51471
G1 X6.221 Y8.158 E443.55725
G1 X5.678 Y8.357 E443.60533
G1 X5.071 Y8.55 E443.6583
G1 X4.161 Y8.798 E443.73672
G1 X3.221 Y9.001 E443.81669
G1 X2.274 Y9.152 E443.89642
G1 X1.464 Y9.24 E443.96417
G1 X0.472 Y9.295 E444.04678
G1 X-0.025 Y9.302 E444.08811
G1 X-.53 Y9.295 E444.13011
G1 X-.692 Y9.289 E444.14359
G1 X-1.204 Y9.262 E444.18622
G1 X-5.451 Y8.935 E444.54041
G1 X-6.208 Y8.88 E444.60352
G1 X-6.923 Y8.824 E444.66315
G1 X-10.726 Y8.54 E444.98025
G1 X-11.469 Y8.482 E445.04222
G1 X-12.265 Y8.425 E445.10858
G1 X-13.015 Y8.367 E445.17113
G1 X-13.817 Y8.31 E445.23798
G1 X-16.895 Y8.08 E445.49463
G1 X-19.273 Y7.905 E445.6929
G1 X-20.031 Y7.847 E445.75611
G1 X-20.84 Y7.789 E445.82355
G1 X-21.595 Y7.731 E445.88652
G1 X-25.145 Y7.469 E446.1825
G1 X-25.596 Y7.374 E446.22083
G1 X-25.962 Y7.182 E446.25519
G1 X-26.268 Y6.881 E446.29088
G1 X-26.47 Y6.529 E446.32463
G1 X-26.581 Y6.091 E446.3622
G1 X-26.594 Y5.848 E446.38243
G1 X-26.593 Y1.093 E446.77781
G1 X-20.625 Y1.091 E447.27405
G1 X-20.625 Y-1.091 E447.45549
G0 F7200 X-20.825 Y-1.091
G0 X-20.824 Y-1.591
G0 X-19.835 Y-1.881
;TYPE:SKIN
G1 F1800 X-25.804 Y-1.883 E447.95181
G1 X-25.803 Y-5.822 E448.27934
G1 X-25.752 Y-6.16 E448.30777
G1 X-25.654 Y-6.369 E448.32696
G1 X-25.538 Y-6.5 E448.34151
G1 X-25.368 Y-6.605 E448.35812
G1 X-25.034 Y-6.686 E448.3867
G1 X-17.65 Y-7.234 E449.00237
G1 X-15.278 Y-7.407 E449.20013
G1 X-8.371 Y-7.923 E449.77605
G1 X-1.13 Y-8.474 E450.37988
G1 X-.189 Y-8.511 E450.45818
G1 X0.586 Y-8.5 E450.52263
G1 X1.535 Y-8.439 E450.60171
G1 X2.351 Y-8.342 E450.67003
G1 X3.05 Y-8.228 E450.72892
G1 X3.967 Y-8.032 E450.80689
G1 X4.439 Y-7.91 E450.84743
G1 X4.962 Y-7.758 E450.89272
G1 X5.54 Y-7.567 E450.94334
G1 X6.373 Y-7.251 E451.01742
G1 X7.177 Y-6.896 E451.0905
G1 X7.992 Y-6.483 E451.16647
G1 X8.724 Y-6.065 E451.23656
G1 X9.21 Y-5.756 E451.28445
G1 X9.646 Y-5.461 E451.32822
G1 X10.155 Y-5.085 E451.38084
G1 X10.379 Y-4.913 E451.40432
G1 X10.845 Y-4.533 E451.45432
G1 X11.264 Y-4.165 E451.50069
G1 X11.681 Y-3.772 E451.54833
G1 X12.103 Y-3.346 E451.59819
G1 X12.496 Y-2.92 E451.64639
G1 X12.863 Y-2.495 E451.69308
G1 X13.23 Y-2.037 E451.74188
G1 X13.584 Y-1.561 E451.7912
G1 X13.91 Y-1.091 E451.83877
G1 X14.24 Y-.576 E451.88963
G1 X14.465 Y-.189 E451.92685
G1 X14.506 Y0.075 E451.94906
G1 X14.211 Y0.621 E452.00067
G1 X13.93 Y1.059 E452.04394
G1 X13.776 Y1.288 E452.06688
G1 X13.429 Y1.773 E452.11647
G1 X13.082 Y2.227 E452.16398
G1 X12.707 Y2.679 E452.21282
G1 X12.311 Y3.124 E452.26235
G1 X11.918 Y3.535 E452.30963
G1 X11.49 Y3.954 E452.35944
G1 X11.072 Y4.336 E452.40652
G1 X10.627 Y4.714 E452.45507
G1 X10.168 Y5.079 E452.50383
G1 X9.752 Y5.384 E452.54672
G1 X9.256 Y5.726 E452.59682
G1 X8.735 Y6.056 E452.6481
G1 X8.238 Y6.348 E452.69603
G1 X7.733 Y6.621 E452.74377
G1 X7.055 Y6.953 E452.80654
G1 X6.412 Y7.236 E452.86495
G1 X5.945 Y7.417 E452.9066
G1 X5.421 Y7.609 E452.953
G1 X4.847 Y7.792 E453.0031
G1 X3.971 Y8.031 E453.0786
G1 X3.091 Y8.222 E453.15347
G1 X2.166 Y8.368 E453.23134
G1 X1.393 Y8.452 E453.29599
G1 X0.444 Y8.505 E453.37503
G1 X-.497 Y8.505 E453.45327
G1 X-1.196 Y8.472 E453.51146
G1 X-5.391 Y8.148 E453.86131
G1 X-6.147 Y8.093 E453.92434
G1 X-6.862 Y8.037 E453.98398
G1 X-10.665 Y7.753 E454.30108
G1 X-11.41 Y7.695 E454.36321
G1 X-12.205 Y7.638 E454.42949
G1 X-12.956 Y7.58 E454.49212
G1 X-13.76 Y7.522 E454.55914
G1 X-16.838 Y7.292 E454.81579
G1 X-20.78 Y7.002 E455.14446
G1 X-21.536 Y6.944 E455.2075
G1 X-25.03 Y6.686 E455.49882
G1 X-25.326 Y6.624 E455.52397
G1 X-25.489 Y6.538 E455.53929
G1 X-25.638 Y6.393 E455.55658
G1 X-25.723 Y6.244 E455.57085
G1 X-25.804 Y5.808 E455.60772
G1 X-25.803 Y1.883 E455.93408
G1 X-19.835 Y1.881 E456.43033
G1 X-19.835 Y-1.881 E456.74314
G0 F7200 X-20.197 Y1.519
G0 X-25.562 Y6.115
G1 F1800 X-25.215 Y6.462 E456.78394
G0 F7200 X-24.574 Y6.538
G1 F1800 X-25.623 Y5.489 E456.9073
G0 F7200 X-25.623 Y4.923
G1 F1800 X-23.963 Y6.583 E457.1025
G0 F7200 X-23.352 Y6.629
G1 F1800 X-25.623 Y4.357 E457.36961
G0 F7200 X-25.622 Y3.792
G1 F1800 X-22.741 Y6.674 E457.70845
G0 F7200 X-22.13 Y6.719
G1 F1800 X-25.622 Y3.227 E458.11908
G0 F7200 X-25.622 Y2.661
G1 F1800 X-21.519 Y6.764 E458.60157
G0 F7200 X-20.907 Y6.811
G1 F1800 X-25.622 Y2.095 E459.15607
G0 F7200 X-25.09 Y2.062
G1 F1800 X-20.295 Y6.857 E459.71993
G0 F7200 X-19.685 Y6.902
G1 F1800 X-24.524 Y2.062 E460.28902
G0 F7200 X-23.958 Y2.062
G1 F1800 X-19.074 Y6.947 E460.8634
G0 F7200 X-18.463 Y6.991
G1 F1800 X-23.393 Y2.062 E461.44307
G0 F7200 X-22.827 Y2.062
G1 F1800 X-17.853 Y7.037 E462.02803
G0 F7200 X-17.242 Y7.081
G1 F1800 X-22.262 Y2.061 E462.61834
G0 F7200 X-21.696 Y2.061
G1 F1800 X-16.631 Y7.126 E463.21395
G0 F7200 X-16.02 Y7.172
G1 F1800 X-21.131 Y2.061 E463.81496
G0 F7200 X-20.565 Y2.061
G1 F1800 X-15.409 Y7.218 E464.42133
G0 F7200 X-14.797 Y7.264
G1 F1800 X-19.999 Y2.061 E465.0331
G0 F7200 X-19.654 Y1.842
G1 F1800 X-14.186 Y7.309 E465.67604
G0 F7200 X-13.575 Y7.354
G1 F1800 X-19.654 Y1.276 E466.39082
G0 F7200 X-19.654 Y0.71
G1 F1800 X-12.965 Y7.399 E467.1774
G0 F7200 X-12.352 Y7.446
G1 F1800 X-19.654 Y0.144 E468.03606
G0 F7200 X-19.654 Y-.42
G1 F1800 X-11.742 Y7.491 E468.96639
G0 F7200 X-11.131 Y7.536
G1 F1800 X-19.654 Y-.986 E469.96857
G0 F7200 X-19.654 Y-1.552
G1 F1800 X-10.518 Y7.583 E471.04284
G0 F7200 X-9.907 Y7.628
G1 F1800 X-24.11 Y-6.573 E472.71288
G0 F7200 X-24.636 Y-6.534
G1 F1800 X-20.163 Y-2.061 E473.23887
G0 F7200 X-20.729 Y-2.061
G1 F1800 X-25.141 Y-6.474 E473.75775
G0 F7200 X-25.501 Y-6.268
G1 F1800 X-21.295 Y-2.061 E474.2524
G0 F7200 X-21.86 Y-2.061
G1 F1800 X-25.62 Y-5.821 E474.69455
G0 F7200 X-25.623 Y-5.258
G1 F1800 X-22.426 Y-2.061 E475.07049
G0 F7200 X-22.992 Y-2.062
G1 F1800 X-25.623 Y-4.693 E475.37988
G0 F7200 X-25.623 Y-4.127
G1 F1800 X-23.558 Y-2.062 E475.6227
G0 F7200 X-24.124 Y-2.062
G1 F1800 X-25.623 Y-3.561 E475.79898
G0 F7200 X-25.623 Y-2.996
G1 F1800 X-24.69 Y-2.062 E475.90875
G0 F7200 X-25.255 Y-2.062
G1 F1800 X-25.623 Y-2.43 E475.95202
G0 F7200 X-23.583 Y-6.612
G1 F1800 X-9.296 Y7.674 E477.632
G0 F7200 X-8.684 Y7.72
G1 F1800 X-23.056 Y-6.651 E479.32198
G0 F7200 X-22.53 Y-6.691
G1 F1800 X-8.073 Y7.765 E481.02196
G0 F7200 X-7.462 Y7.811
G1 F1800 X-22.003 Y-6.73 E482.73187
G0 F7200 X-21.476 Y-6.769
G1 F1800 X-6.851 Y7.856 E484.45165
G0 F7200 X-6.237 Y7.904
G1 F1800 X-20.95 Y-6.808 E486.18173
G0 F7200 X-20.424 Y-6.847
G1 F1800 X-5.626 Y7.95 E487.9218
G0 F7200 X-5.014 Y7.995
G1 F1800 X-19.897 Y-6.887 E489.67187
G0 F7200 X-19.371 Y-6.926
G1 F1800 X-4.401 Y8.043 E491.43217
G0 F7200 X-3.787 Y8.091
G1 F1800 X-18.844 Y-6.965 E493.2027
G0 F7200 X-18.318 Y-7.004
G1 F1800 X-3.174 Y8.138 E494.9834
G0 F7200 X-2.561 Y8.186
G1 F1800 X-17.791 Y-7.043 E496.77427
G0 F7200 X-17.264 Y-7.082
G1 F1800 X-1.948 Y8.233 E498.57526
G0 F7200 X-1.335 Y8.28
G1 F1800 X-16.737 Y-7.12 E500.3863
G0 F7200 X-16.209 Y-7.158
G1 F1800 X-.738 Y8.312 E502.20551
G0 F7200 X-.161 Y8.324
G1 F1800 X-15.682 Y-7.196 E504.0306
G0 F7200 X-15.155 Y-7.235
G1 F1800 X0.404 Y8.324 E505.86022
G0 F7200 X0.941 Y8.295
G1 F1800 X-14.629 Y-7.275 E507.69113
G0 F7200 X-14.102 Y-7.314
G1 F1800 X1.472 Y8.26 E509.52252
G0 F7200 X1.982 Y8.205
G1 F1800 X-13.576 Y-7.353 E511.35202
G0 F7200 X-13.049 Y-7.392
G1 F1800 X2.478 Y8.135 E513.17787
G0 F7200 X2.967 Y8.058
G1 F1800 X-12.523 Y-7.432 E514.99938
G0 F7200 X-11.997 Y-7.471
G1 F1800 X3.436 Y7.962 E516.81418
G0 F7200 X3.9 Y7.86
G1 F1800 X-11.47 Y-7.51 E518.62158
G0 F7200 X-10.944 Y-7.55
G1 F1800 X4.345 Y7.739 E520.41945
G0 F7200 X4.79 Y7.619
G1 F1800 X-10.418 Y-7.59 E522.20785
G0 F7200 X-9.891 Y-7.628
G1 F1800 X5.219 Y7.482 E523.98467
G0 F7200 X5.639 Y7.336
G1 F1800 X-9.365 Y-7.668 E525.74902
G0 F7200 X-8.838 Y-7.707
G1 F1800 X6.05 Y7.182 E527.4998
G0 F7200 X6.453 Y7.019
G1 F1800 X-8.312 Y-7.747 E529.23611
G0 F7200 X-7.787 Y-7.787
G1 F1800 X6.846 Y6.846 E530.95684
G0 F7200 X7.23 Y6.665
G1 F1800 X-7.261 Y-7.826 E532.66087
G0 F7200 X-6.735 Y-7.866
G1 F1800 X7.61 Y6.479 E534.34773
G0 F7200 X7.979 Y6.282
G1 F1800 X-6.209 Y-7.906 E536.01613
G0 F7200 X-5.683 Y-7.946
G1 F1800 X8.341 Y6.078 E537.66524
G0 F7200 X8.695 Y5.866
G1 F1800 X-5.158 Y-7.986 E539.29419
G0 F7200 X-4.632 Y-8.026
G1 F1800 X9.041 Y5.646 E540.90197
G0 F7200 X9.379 Y5.419
G1 F1800 X-4.106 Y-8.065 E542.48765
G0 F7200 X-3.58 Y-8.106
G1 F1800 X9.713 Y5.188 E544.05086
G0 F7200 X10.04 Y4.949
G1 F1800 X-3.054 Y-8.145 E545.59061
G0 F7200 X-2.529 Y-8.186
G1 F1800 X10.355 Y4.698 E547.10567
G0 F7200 X10.665 Y4.443
G1 F1800 X-2.003 Y-8.225 E548.59533
G0 F7200 X-1.477 Y-8.265
G1 F1800 X10.97 Y4.182 E550.05901
G0 F7200 X11.266 Y3.912
G1 F1800 X-.945 Y-8.299 E551.49493
G0 F7200 X-.401 Y-8.321
G1 F1800 X11.555 Y3.635 E552.90086
G0 F7200 X11.84 Y3.355
G1 F1800 X0.159 Y-8.325 E554.2744
G0 F7200 X0.742 Y-8.308
G1 F1800 X12.116 Y3.066 E555.61189
G0 F7200 X12.384 Y2.768
G1 F1800 X1.347 Y-8.268 E556.9097
G0 F7200 X1.978 Y-8.203
G1 F1800 X12.648 Y2.466 E558.16435
G0 F7200 X12.905 Y2.157
G1 F1800 X2.634 Y-8.113 E559.37208
G0 F7200 X3.33 Y-7.983
G1 F1800 X13.152 Y1.838 E560.52702
G0 F7200 X13.393 Y1.513
G1 F1800 X4.058 Y-7.821 E561.62468
G1 X3.988 Y-7.891
G0 F7200 X4.84 Y-7.604
G1 F1800 X13.629 Y1.184 E562.65814
G0 F7200 X13.854 Y0.843
G1 F1800 X5.697 Y-7.313 E563.61728
G1 X5.627 Y-7.383
G0 F7200 X6.64 Y-6.936
G1 F1800 X14.073 Y0.497 E564.49135
G0 F7200 X14.272 Y0.13
G1 F1800 X7.726 Y-6.415 E565.26105
G1 X7.656 Y-6.485
G0 F7200 X9.089 Y-5.618
G1 F1800 X13.835 Y-.871 E565.8192
G1 X13.905 Y-.801
;MESH:NONMESH
G0 F600 X13.905 Y-.801 Z2.8
G0 F7200 X-20.125 Y-.909
G0 X-20.225 Y-.909
;TIME_ELAPSED:254.694810
;LAYER:5
;TYPE:WALL-INNER
;MESH:benchy.stl
G1 F3600 X-26.426 Y-.912 E566.33482
G1 X-26.427 Y-6.081 E566.76462
G1 X-26.382 Y-6.46 E566.79635
G1 X-26.256 Y-6.776 E566.82464
G1 X-26.074 Y-7.011 E566.84936
G1 X-25.825 Y-7.191 E566.87491
G1 X-25.342 Y-7.326 E566.91661
G1 X-11.742 Y-8.38 E568.05084
G1 X-7.113 Y-8.744 E568.43693
G1 X-1.31 Y-9.209 E568.921
G1 X-.979 Y-9.23 E568.94858
G1 X-.46 Y-9.25 E568.99177
G1 X0.359 Y-9.251 E569.05987
G1 X1.036 Y-9.223 E569.11621
G1 X1.696 Y-9.173 E569.17124
G1 X2.339 Y-9.099 E569.22506
G1 X3.142 Y-8.974 E569.29264
G1 X3.711 Y-8.86 E569.34089
G1 X4.244 Y-8.741 E569.3863
G1 X5.017 Y-8.533 E569.45286
G1 X5.644 Y-8.336 E569.50751
G1 X6.39 Y-8.07 E569.57336
G1 X7.104 Y-7.779 E569.63747
G1 X7.696 Y-7.509 E569.69158
G1 X8.24 Y-7.239 E569.74208
G1 X8.945 Y-6.853 E569.80891
G1 X9.402 Y-6.576 E569.85334
G1 X9.868 Y-6.281 E569.8992
G1 X10.313 Y-5.974 E569.94416
G1 X10.943 Y-5.51 E570.00922
G1 X11.549 Y-5.016 E570.07423
G1 X11.656 Y-4.926 E570.08585
G1 X12.127 Y-4.505 E570.13838
G1 X12.624 Y-4.023 E570.19595
G1 X13.068 Y-3.564 E570.24905
G1 X13.536 Y-3.037 E570.30765
G1 X14.015 Y-2.456 E570.37027
G1 X14.502 Y-1.802 E570.43807
G1 X14.857 Y-1.285 E570.49021
G1 X15.188 Y-.767 E570.54133
G1 X15.427 Y-.361 E570.5805
G1 X15.504 Y-.148 E570.59934
G1 X15.514 Y0.068 E570.61732
G1 X15.444 Y0.321 E570.63914
G1 X15.205 Y0.739 E570.67918
G1 X14.829 Y1.329 E570.73735
G1 X14.334 Y2.035 E570.80905
G1 X13.901 Y2.597 E570.86804
G1 X13.433 Y3.156 E570.92866
G1 X13.014 Y3.619 E570.98058
G1 X12.648 Y3.999 E571.02445
G1 X12.251 Y4.388 E571.07067
G1 X11.806 Y4.795 E571.12081
G1 X11.322 Y5.208 E571.17372
G1 X11.089 Y5.394 E571.19851
G1 X10.643 Y5.736 E571.24524
G1 X9.879 Y6.273 E571.32289
G1 X9.092 Y6.767 E571.40016
G1 X8.611 Y7.039 E571.4461
G1 X8.126 Y7.297 E571.49178
G1 X7.571 Y7.569 E571.54317
G1 X7.049 Y7.801 E571.59067
G1 X6.558 Y8.004 E571.63485
G1 X5.946 Y8.232 E571.68916
G1 X5.19 Y8.48 E571.75531
G1 X4.426 Y8.695 E571.82131
G1 X3.8 Y8.842 E571.87478
G1 X2.847 Y9.023 E571.95543
G1 X2.203 Y9.116 E572.00954
G1 X1.697 Y9.173 E572.05188
G1 X1.384 Y9.2 E572.078
G1 X0.883 Y9.232 E572.11974
G1 X0.374 Y9.251 E572.1621
G1 X-.116 Y9.256 E572.20284
G1 X-.616 Y9.246 E572.24443
G1 X-1.139 Y9.222 E572.28796
G1 X-1.643 Y9.183 E572.32999
G1 X-3.083 Y9.065 E572.45013
