;FLAVOR:Marlin
;TIME:3486
;Filament used: 6.72541m
;Layer height: 0.4
;MINX:-29.8
;MINY:-15.302
;MINZ:0.3
;MAXX:29.749
;MAXY:15.302
;MAXZ:47.9
;Generated with Cura_SteamEngine 4.13.1
M104 S200
M105
M109 S200
M82 ;absolute extrusion mode

G92 E0
G92 E0
;LAYER_COUNT:120
;LAYER:0
M107
;MESH:benchy.stl
G0 F3600 X-6.083 Y-.83 Z0.3
;TYPE:WALL-INNER
G1 F1800 X-5.995 Y-.392 E0.02229
G1 X-5.984 Y0.076 E0.04564
G1 X-6.04 Y0.552 E0.06956
G1 X-6.171 Y0.924 E0.08923
G1 X-6.324 Y1.118 E0.10156
G1 X-6.499 Y1.216 E0.11156
G1 X-7.278 Y1.287 E0.15059
G1 X-7.275 Y0.869 E0.17144
G1 X-7.273 Y-.889 E0.25915
G1 X-7.275 Y-1.339 E0.2816
G1 X-6.499 Y-1.291 E0.32039
G1 X-6.347 Y-1.238 E0.32842
G1 X-6.234 Y-1.138 E0.33595
G1 X-6.083 Y-.83 E0.35306
G0 F3600 X-5.701 Y-.959
;TYPE:WALL-OUTER
G1 F1800 X-5.596 Y-.435 E0.37973
G1 X-5.583 Y0.092 E0.40603
G1 X-5.648 Y0.643 E0.43371
G1 X-5.816 Y1.119 E0.45889
G1 X-6.06 Y1.429 E0.47857
G1 X-6.347 Y1.589 E0.49497
G1 X-6.42 Y1.609 E0.49874
G1 X-6.928 Y1.676 E0.52431
G1 X-7.456 Y1.693 E0.55066
G1 X-7.631 Y1.667 E0.55949
G1 X-7.684 Y1.561 E0.5654
G1 X-7.672 Y0.97 E0.59489
G1 X-7.675 Y0.869 E0.59993
G1 X-7.673 Y-.888 E0.68759
G1 X-7.677 Y-1.661 E0.72616
G1 X-7.642 Y-1.733 E0.73015
G1 X-6.936 Y-1.744 E0.76538
G1 X-6.408 Y-1.683 E0.79189
G1 X-6.14 Y-1.59 E0.80605
G1 X-5.91 Y-1.385 E0.82142
G1 X-5.701 Y-.959 E0.84509
G0 F3600 X-5.662 Y-.763
G0 X-6.454 Y-.698
;TYPE:SKIN
G1 F1800 X-6.385 Y-.352 E0.86269
G1 X-6.374 Y0.055 E0.883
G1 X-6.423 Y0.466 E0.90365
G1 X-6.581 Y0.814 E0.92272
G1 X-6.885 Y0.86 E0.93806
G1 X-6.883 Y-.924 E1.02707
G1 X-6.55 Y-.896 E1.04374
G1 X-6.454 Y-.698 E1.05472
G0 F3600 X-6.702 Y-.48
G1 F1800 X-6.565 Y-.342 E1.06442
G0 F3600 X-6.704 Y0.084
G1 F1800 X-6.573 Y0.214 E1.07362
G0 F3600 X-7.253 Y-.889
G0 X-9.276 Y-.879
G0 X-10.194 Y-1.08
G0 X-10.143 Y-2.295
G0 X-10.631 Y-3.072
G0 X-11.567 Y-3.509
G0 X-12.771 Y-3.529
G0 X-13.759 Y-3.145
G0 X-14.235 Y-2.421
G0 X-13.689 Y-1.427
G0 X-12.318 Y-1.544
;TYPE:WALL-INNER
G1 F1800 X-12.638 Y-1.446 E1.09032
G1 X-12.292 Y-1.611 E1.09316
G1 X-12.318 Y-1.544
G0 F3600 X-16.329 Y0.451
G0 X-16.317 Y2.389
G0 X-16.684 Y3.165
G0 X-17.477 Y3.334
G0 X-18.182 Y2.563
G0 X-21.465 Y0.959
G1 F1800 X-21.874 Y1.156 E1.11581
G1 X-22.134 Y1.407 E1.13383
G1 X-22.306 Y1.452 E1.1427
G1 X-22.587 Y1.446 E1.15673
G1 X-22.833 Y1.363 E1.16968
G1 X-23.038 Y1.206 E1.18256
G1 X-23.184 Y0.969 E1.19645
G1 X-23.294 Y0.568 E1.21719
G1 X-23.336 Y-0.005 E1.24586
G1 X-23.317 Y-.466 E1.26888
G1 X-23.214 Y-.958 E1.29396
G1 X-23.085 Y-1.217 E1.30839
G1 X-22.921 Y-1.381 E1.31996
G1 X-22.596 Y-1.513 E1.33746
G1 X-22.379 Y-1.514 E1.34829
G1 X-22.198 Y-1.437 E1.3581
G1 X-21.727 Y-1.154 E1.38552
G1 X-21.229 Y-.998 E1.41155
G1 X-20.824 Y-1.034 E1.43184
G1 X-20.413 Y-1.277 E1.45566
G1 X-20.125 Y-1.708 E1.48152
G1 X-20.084 Y-1.959 E1.49421
G1 X-20.049 Y-1.845
G1 X-19.728 Y-1.506 E1.5175
G1 X-19.323 Y-1.363 E1.53893
G1 X-18.9 Y-1.37 E1.56003
G1 X-18.384 Y-1.43 E1.58595
G1 X-18.292 Y-1.414 E1.59061
G1 X-18.283 Y-1.377 E1.59251
G1 X-18.317 Y-.793 E1.62169
G1 X-18.308 Y0.093 E1.6659
G1 X-18.313 Y1.333 E1.72776
G1 X-18.301 Y1.964 E1.75925
G1 X-18.345 Y2.581 E1.79011
G1 X-18.224 Y3.023 E1.81297
G1 X-17.964 Y3.311 E1.83233
G1 X-17.51 Y3.494 E1.85675
G1 X-17.036 Y3.499 E1.8804
G1 X-16.581 Y3.296 E1.90526
G1 X-16.29 Y2.928 E1.92866
G1 X-16.156 Y2.406 E1.95555
G1 X-16.172 Y1.669 E1.99233
G1 X-16.173 Y1.422 E2.00465
G1 X-16.169 Y0.806 E2.03539
G1 X-16.17 Y-.6 E2.10553
G1 X-16.167 Y-1.215 E2.13621
G1 X-16.162 Y-1.4 E2.14545
G1 X-15.729 Y-1.39 E2.16706
G1 X-15.15 Y-1.426 E2.196
G1 X-14.683 Y-1.596 E2.22079
G1 X-14.396 Y-1.889 E2.24125
G1 X-14.353 Y-2.004 E2.24738
G1 X-14.135 Y-1.596 E2.26344
G1 X-13.77 Y-1.283 E2.28743
G1 X-13.404 Y-1.167 E2.30658
G1 X-13.302 Y-1.186 E2.31176
G1 X-13.389 Y-1.13 E2.31208
G1 X-13.648 Y-.691 E2.33751
G1 X-13.725 Y-.234 E2.36063
G1 X-13.647 Y0.156 E2.38047
G1 X-13.426 Y0.474 E2.39979
G1 X-12.992 Y0.689 E2.42395
G1 X-12.433 Y0.799 E2.45238
G1 X-12.237 Y0.898 E2.46333
G1 X-12.05 Y1.099 E2.47703
G1 X-11.984 Y1.267 E2.48603
G1 X-12.044 Y1.479 E2.49703
G1 X-12.179 Y1.551 E2.50466
G1 X-12.335 Y1.46 E2.51367
G1 X-12.771 Y1.175 E2.53966
G1 X-13.188 Y1.082 E2.56097
G1 X-13.682 Y1.138 E2.58577
G1 X-14.11 Y1.394 E2.61066
G1 X-14.355 Y1.8 E2.63431
G1 X-14.396 Y2.313 E2.65999
G1 X-14.263 Y2.757 E2.68311
G1 X-13.964 Y3.147 E2.70763
G1 X-13.573 Y3.404 E2.73097
G1 X-13.005 Y3.591 E2.76081
G1 X-12.437 Y3.656 E2.78933
G1 X-11.833 Y3.634 E2.81948
G1 X-11.208 Y3.48 E2.8516
G1 X-10.693 Y3.199 E2.88087
G1 X-10.261 Y2.796 E2.91034
G1 X-9.907 Y2.223 E2.94394
G1 X-9.715 Y1.596 E2.97666
G1 X-9.694 Y1.038 E3.00452
G1 X-9.845 Y0.354 E3.03946
G1 X-10.075 Y-.242 E3.07134
G1 X-10.314 Y-.527 E3.08989
G1 X-10.134 Y-.737 E3.10369
G1 X-9.972 Y-1.255 E3.13077
G1 X-9.929 Y-1.877 E3.16187
G1 X-9.986 Y-2.337 E3.185
G1 X-10.166 Y-2.774 E3.20858
G1 X-10.521 Y-3.192 E3.23594
G1 X-10.932 Y-3.47 E3.26069
G1 X-11.534 Y-3.667 E3.2923
G1 X-12.212 Y-3.73 E3.32627
G1 X-12.801 Y-3.688 E3.35573
G1 X-13.363 Y-3.539 E3.38473
G1 X-13.854 Y-3.277 E3.4125
G1 X-14.211 Y-2.931 E3.4373
G1 X-14.27 Y-2.79 E3.44493
G1 X-14.473 Y-3.229 E3.46153
G1 X-14.849 Y-3.492 E3.48442
G1 X-15.302 Y-3.559 E3.50726
G1 X-16.024 Y-3.55 E3.54329
G1 X-16.202 Y-3.553 E3.55217
G1 X-16.766 Y-3.554 E3.58031
G1 X-17.208 Y-3.552 E3.60236
G1 X-18.011 Y-3.554 E3.64242
G1 X-18.559 Y-3.546 E3.66976
G1 X-19.201 Y-3.59 E3.70187
G1 X-19.654 Y-3.469 E3.72526
G1 X-19.953 Y-3.219 E3.74471
G1 X-20.16 Y-2.823 E3.767
G1 X-20.181 Y-2.62 E3.77718
G1 X-20.456 Y-2.996 E3.79138
G1 X-20.971 Y-3.39 E3.82373
G1 X-21.565 Y-3.632 E3.85573
G1 X-22.151 Y-3.722 E3.88531
G1 X-22.844 Y-3.703 E3.9199
G1 X-23.459 Y-3.564 E3.95135
G1 X-24.085 Y-3.263 E3.98601
G1 X-24.58 Y-2.862 E4.01779
G1 X-25.012 Y-2.304 E4.05299
G1 X-25.271 Y-1.761 E4.08301
G1 X-25.296 Y-1.667 E4.08786
G1 X-25.296 Y-2.304 E4.10115
G1 X-25.296 Y-4.868 E4.22907
G1 X-25.239 Y-5.264 E4.24903
G1 X-25.119 Y-5.551 E4.26455
G1 X-24.933 Y-5.781 E4.2793
G1 X-24.694 Y-5.949 E4.29388
G1 X-24.198 Y-6.08 E4.31947
G1 X-.692 Y-7.516 E5.49438
G1 X0.003 Y-7.536 E5.52907
G1 X0.673 Y-7.521 E5.5625
G1 X1.337 Y-7.479 E5.59569
G1 X2.152 Y-7.381 E5.63665
G1 X2.843 Y-7.262 E5.67163
G1 X3.628 Y-7.083 E5.7118
G1 X4.264 Y-6.903 E5.74477
G1 X4.878 Y-6.7 E5.77704
G1 X5.342 Y-6.526 E5.80176
G1 X5.922 Y-6.281 E5.83317
G1 X6.542 Y-5.986 E5.86743
G1 X7.019 Y-5.732 E5.89439
G1 X7.491 Y-5.457 E5.92164
G1 X7.957 Y-5.164 E5.9491
G1 X8.459 Y-4.817 E5.97955
G1 X8.948 Y-4.446 E6.01017
G1 X9.568 Y-3.93 E6.05042
G1 X10.117 Y-3.416 E6.08794
G1 X10.483 Y-3.044 E6.11397
G1 X10.838 Y-2.654 E6.14028
G1 X11.205 Y-2.219 E6.16868
G1 X11.5 Y-1.84 E6.19264
G1 X11.919 Y-1.256 E6.2285
G1 X12.198 Y-.83 E6.2539
G1 X12.456 Y-.404 E6.27875
G1 X12.562 Y-.132 E6.29331
G1 X12.567 Y0.103 E6.30504
G1 X12.488 Y0.347 E6.31784
G1 X12.186 Y0.848 E6.34702
G1 X11.888 Y1.307 E6.37432
G1 X11.525 Y1.814 E6.40543
G1 X11.108 Y2.337 E6.4388
G1 X11.096 Y2.241 E6.44363
G1 X10.846 Y1.817 E6.46819
G1 X10.382 Y1.565 E6.49453
G1 X9.752 Y1.482 E6.52623
G1 X9.686 Y1.467 E6.52961
G1 X10.246 Y0.666 E6.57837
G1 X10.599 Y0.174 E6.60858
G1 X10.951 Y-.413 E6.64273
G1 X11.063 Y-.902 E6.66776
G1 X10.991 Y-1.448 E6.69523
G1 X10.741 Y-1.841 E6.71847
G1 X10.396 Y-2.055 E6.73872
G1 X9.881 Y-2.12 E6.76462
G1 X9.469 Y-2.114 E6.78518
G1 X7.874 Y-2.119 E6.86475
G1 X7.281 Y-2.025 E6.89471
G1 X6.872 Y-1.743 E6.91949
G1 X6.769 Y-1.534 E6.93112
G1 X6.561 Y-1.826 E6.94136
G1 X6.225 Y-2.055 E6.96165
G1 X5.823 Y-2.131 E6.98206
G1 X5.404 Y-1.988 E7.00415
G1 X5.11 Y-1.722 E7.02393
G1 X4.818 Y-1.235 E7.05226
G1 X4.569 Y-.516 E7.09022
G1 X4.537 Y-.429 E7.09484
G1 X4.481 Y-.569 E7.09738
G1 X4.316 Y-1.123 E7.11437
G1 X4.127 Y-1.595 E7.13973
G1 X3.762 Y-1.944 E7.16493
G1 X3.357 Y-2.098 E7.18654
G1 X2.868 Y-2.104 E7.21094
G1 X2.487 Y-1.94 E7.23164
G1 X2.2 Y-1.574 E7.25484
G1 X2.172 Y-1.44 E7.26167
G1 X1.915 Y-1.834 E7.27769
G1 X1.534 Y-2.076 E7.30021
G1 X1.122 Y-2.126 E7.32092
G1 X0.668 Y-1.95 E7.34521
G1 X0.267 Y-1.569 E7.3728
G1 X0.174 Y-1.412 E7.38191
G1 X-.116 Y-1.802 E7.40616
G1 X-.517 Y-2.067 E7.43014
G1 X-.913 Y-2.129 E7.45013
G1 X-1.401 Y-1.992 E7.47542
G1 X-1.752 Y-1.698 E7.49826
G1 X-1.934 Y-1.273 E7.52133
G1 X-1.895 Y-.796 E7.54521
G1 X-1.663 Y-.266 E7.57407
G1 X-1.274 Y0.417 E7.61328
G1 X-1.06 Y0.75 E7.63303
G1 X-1.255 Y1.034 E7.65022
G1 X-1.544 Y1.538 E7.6792
G1 X-1.73 Y1.857 E7.69763
G1 X-1.881 Y1.491 E7.70753
G1 X-2.272 Y1.076 E7.73598
G1 X-2.77 Y0.828 E7.76373
G1 X-3.204 Y0.76 E7.78565
G1 X-3.754 Y0.845 E7.81342
G1 X-3.877 Y0.914 E7.82045
G1 X-3.833 Y0.729 E7.8237
G1 X-3.784 Y0.171 E7.85164
G1 X-3.787 Y-.386 E7.87943
G1 X-3.856 Y-.983 E7.90942
G1 X-4.011 Y-1.584 E7.94038
G1 X-4.247 Y-2.116 E7.96942
G1 X-4.562 Y-2.58 E7.9974
G1 X-5.048 Y-3.034 E8.03058
G1 X-5.605 Y-3.326 E8.06195
G1 X-6.366 Y-3.5 E8.1009
G1 X-7.02 Y-3.55 E8.13362
G1 X-7.684 Y-3.549 E8.16675
G1 X-8.177 Y-3.567 E8.19136
G1 X-8.71 Y-3.518 E8.21807
G1 X-9.177 Y-3.289 E8.24401
G1 X-9.447 Y-2.927 E8.26654
G1 X-9.509 Y-2.46 E8.29005
G1 X-9.466 Y-1.93 E8.31658
G1 X-9.477 Y-1.076 E8.35919
G1 X-9.475 Y-.686 E8.37864
G1 X-9.475 Y0.354 E8.43053
G1 X-9.475 Y1.258 E8.46966
G1 X-9.473 Y1.833 E8.49511
G1 X-9.486 Y2.393 E8.52305
G1 X-9.39 Y2.868 E8.54723
G1 X-9.19 Y3.213 E8.56713
G1 X-8.828 Y3.466 E8.58916
G1 X-8.375 Y3.518 E8.61191
G1 X-7.748 Y3.473 E8.64327
G1 X-7.046 Y3.482 E8.6783
G1 X-6.429 Y3.438 E8.70916
G1 X-5.802 Y3.307 E8.74111
G1 X-5.206 Y3.032 E8.77386
G1 X-4.796 Y2.699 E8.80021
G1 X-4.618 Y3.178 E8.82571
G1 X-4.248 Y3.607 E8.85397
G1 X-3.756 Y3.883 E8.88211
G1 X-3.196 Y3.97 E8.91039
G1 X-2.642 Y3.859 E8.93858
G1 X-2.155 Y3.556 E8.96719
G1 X-1.85 Y3.163 E8.99201
G1 X-1.747 Y3.343 E9.00236
G1 X-1.362 Y3.609 E9.0257
G1 X-.887 Y3.693 E9.04977
G1 X-.505 Y3.576 E9.0697
G1 X-.135 Y3.237 E9.09474
G1 X0.116 Y2.855 E9.11754
G1 X0.412 Y3.33 E9.14546
G1 X0.75 Y3.604 E9.16717
G1 X1.241 Y3.712 E9.19225
G1 X1.699 Y3.608 E9.21568
G1 X2.091 Y3.311 E9.24022
G1 X2.285 Y2.858 E9.26481
G1 X2.265 Y2.334 E9.29097
G1 X2.077 Y1.892 E9.31493
G1 X1.616 Y1.115 E9.36
G1 X1.4 Y0.743 E9.38146
G1 X1.496 Y0.473 E9.39576
G1 X1.706 Y0.14 E9.4154
G1 X2.096 Y-.531 E9.45412
G1 X2.154 Y-.687 E9.46243
G1 X2.362 Y-0.069 E9.49496
G1 X2.565 Y0.422 E9.52146
G1 X2.708 Y0.811 E9.54214
G1 X2.986 Y1.545 E9.5813
G1 X3.184 Y2.09 E9.61023
G1 X3.396 Y2.556 E9.63577
G1 X3.435 Y2.715 E9.64394
G1 X3.372 Y2.906 E9.65397
G1 X3.069 Y3.627 E9.69299
G1 X2.862 Y3.963 E9.71268
G1 X2.731 Y4.03 E9.72002
G1 X2.179 Y4.198 E9.74881
G1 X1.877 Y4.432 E9.76787
G1 X1.706 Y4.767 E9.78663
G1 X1.691 Y5.202 E9.80835
G1 X1.833 Y5.633 E9.83099
G1 X2.106 Y5.982 E9.85309
G1 X2.528 Y6.193 E9.87663
G1 X3.008 Y6.217 E9.90061
G1 X3.558 Y6.085 E9.92883
G1 X4.106 Y5.814 E9.95933
G1 X4.507 Y5.418 E9.98744
G1 X4.778 Y4.962 E10.01391
G1 X5.087 Y4.232 E10.05346
G1 X5.385 Y3.46 E10.09474
G1 X5.523 Y3.084 E10.11472
G1 X6.342 Y0.79 E10.23625
G1 X6.577 Y0.082 E10.27346
G1 X6.805 Y-.427 E10.30129
G1 X6.835 Y-.355 E10.30518
G1 X7.182 Y-0.078 E10.32733
G1 X7.595 Y0.041 E10.34878
G1 X8.004 Y0.069 E10.36923
G1 X7.824 Y0.324 E10.37622
G1 X7.222 Y1.162 E10.4277
G1 X6.831 Y1.72 E10.46169
G1 X6.623 Y2.226 E10.48898
G1 X6.599 Y2.696 E10.51246
G1 X6.768 Y3.206 E10.53927
G1 X7.021 Y3.497 E10.5585
G1 X7.328 Y3.66 E10.57585
G1 X7.818 Y3.701 E10.60038
G1 X8.295 Y3.674 E10.62421
G1 X9.061 Y3.683 E10.66243
G1 X9.837 Y3.682 E10.70115
G1 X9.744 Y3.768 E10.70747
G1 X9.303 Y4.157 E10.7368
G1 X8.76 Y4.594 E10.77158
G1 X8.308 Y4.924 E10.7995
G1 X7.771 Y5.283 E10.83173
G1 X7.37 Y5.531 E10.85525
G1 X6.835 Y5.833 E10.8859
G1 X6.101 Y6.2 E10.92684
G1 X5.662 Y6.392 E10.95074
G1 X5.085 Y6.626 E10.98181
G1 X4.611 Y6.791 E11.00685
G1 X4.052 Y6.969 E11.03612
G1 X3.525 Y7.109 E11.06332
G1 X2.794 Y7.272 E11.10069
G1 X2.508 Y7.324 E11.11519
G1 X2.006 Y7.402 E11.14053
G1 X1.411 Y7.472 E11.17042
G1 X0.89 Y7.51 E11.19649
G1 X0.287 Y7.534 E11.22659
G1 X-.32 Y7.53 E11.25688
G1 X-.836 Y7.508 E11.28264
G1 X-8.561 Y7.033 E11.66877
G1 X-10.541 Y6.914 E11.76773
G1 X-21.862 Y6.224 E12.33359
G1 X-24.221 Y6.076 E12.45151
G1 X-24.573 Y6 E12.46948
G1 X-24.828 Y5.866 E12.48385
G1 X-25.048 Y5.655 E12.49906
G1 X-25.193 Y5.403 E12.51356
G1 X-25.297 Y4.864 E12.54095
G1 X-25.297 Y1.583 E12.70464
G1 X-25.176 Y1.922 E12.7226
G1 X-24.89 Y2.423 E12.75138
G1 X-24.422 Y2.939 E12.78613
G1 X-23.849 Y3.328 E12.82068
G1 X-23.315 Y3.538 E12.84931
G1 X-22.688 Y3.648 E12.88107
G1 X-21.995 Y3.637 E12.91565
G1 X-21.348 Y3.494 E12.94871
G1 X-20.833 Y3.238 E12.9774
G1 X-20.382 Y2.824 E13.00794
G1 X-20.086 Y2.299 E13.03801
G1 X-20.022 Y1.896 E13.05837
G1 X-20.194 Y1.439 E13.08273
G1 X-20.571 Y1.099 E13.10806
G1 X-21.015 Y0.946 E13.13149
G1 X-21.465 Y0.959 E13.15395
G0 F3600 X-21.368 Y1.356
;TYPE:WALL-OUTER
G1 F1800 X-21.642 Y1.488 E13.16912
G1 X-21.931 Y1.767 E13.18916
G1 X-22.258 Y1.853 E13.20603
G1 X-22.656 Y1.845 E13.22589
G1 X-23.024 Y1.721 E13.24527
G1 X-23.34 Y1.479 E13.26512
G1 X-23.555 Y1.129 E13.28562
G1 X-23.69 Y0.637 E13.31107
G1 X-23.737 Y-0.001 E13.34299
G1 X-23.716 Y-.511 E13.36845
G1 X-23.594 Y-1.092 E13.39807
G1 X-23.413 Y-1.455 E13.41831
G1 X-23.148 Y-1.72 E13.437
G1 X-22.674 Y-1.913 E13.46254
G1 X-22.297 Y-1.914 E13.48134
G1 X-22.016 Y-1.794 E13.49659
G1 X-21.562 Y-1.521 E13.52302
G1 X-21.185 Y-1.403 E13.54273
G1 X-20.95 Y-1.424 E13.5545
G1 X-20.695 Y-1.575 E13.56928
G1 X-20.506 Y-1.858 E13.58626
G1 X-20.457 Y-2.157 E13.60138
G1 X-20.53 Y-2.419 E13.61495
G1 X-20.745 Y-2.713 E13.63312
G1 X-21.172 Y-3.04 E13.65995
G1 X-21.672 Y-3.244 E13.68689
G1 X-22.176 Y-3.321 E13.71233
G1 X-22.794 Y-3.304 E13.74317
G1 X-23.327 Y-3.184 E13.77043
G1 X-23.869 Y-2.923 E13.80044
G1 X-24.292 Y-2.58 E13.82761
G1 X-24.669 Y-2.093 E13.85834
G1 X-24.894 Y-1.621 E13.88442
G1 X-25.05 Y-1.047 E13.9141
G1 X-25.122 Y-.463 E13.94346
G1 X-25.138 Y0.082 E13.97066
G1 X-25.095 Y0.685 E14.00082
G1 X-24.985 Y1.266 E14.03032
G1 X-24.811 Y1.754 E14.05617
G1 X-24.564 Y2.187 E14.08104
G1 X-24.158 Y2.635 E14.1112
G1 X-23.661 Y2.972 E14.14116
G1 X-23.206 Y3.151 E14.16555
G1 X-22.656 Y3.247 E14.19341
G1 X-22.042 Y3.238 E14.22404
G1 X-21.482 Y3.114 E14.25266
G1 X-21.062 Y2.905 E14.27606
G1 X-20.699 Y2.572 E14.30064
G1 X-20.47 Y2.165 E14.32394
G1 X-20.434 Y1.938 E14.3354
G1 X-20.534 Y1.671 E14.34963
G1 X-20.778 Y1.451 E14.36602
G1 X-21.077 Y1.348 E14.3818
G1 X-21.368 Y1.356 E14.39632
G0 F3600 X-21.548 Y1.442
G0 X-21.677 Y1.172
G0 X-18.167 Y2.347
G0 X-17.869 Y3.174
G0 X-17.069 Y3.337
G0 X-16.656 Y2.746
G1 F1800 X-16.557 Y2.36 E14.4162
G1 X-16.572 Y1.678 E14.45023
G1 X-16.573 Y1.419 E14.46316
G1 X-16.569 Y0.805 E14.49379
G1 X-16.57 Y-.602 E14.56398
G1 X-16.567 Y-1.226 E14.59512
G1 X-16.553 Y-1.751 E14.62132
G1 X-16.464 Y-1.808 E14.62659
G1 X-15.737 Y-1.79 E14.66287
G1 X-15.233 Y-1.822 E14.68807
G1 X-14.905 Y-1.941 E14.70548
G1 X-14.741 Y-2.108 E14.71715
G1 X-14.656 Y-2.338 E14.72939
G1 X-14.663 Y-2.687 E14.7468
G1 X-14.791 Y-2.963 E14.76198
G1 X-15.001 Y-3.11 E14.77477
G1 X-15.329 Y-3.159 E14.79131
G1 X-16.026 Y-3.15 E14.82609
G1 X-16.206 Y-3.153 E14.83507
G1 X-16.765 Y-3.154 E14.86296
G1 X-17.207 Y-3.152 E14.88501
G1 X-18.009 Y-3.154 E14.92502
G1 X-18.568 Y-3.146 E14.95292
G1 X-19.162 Y-3.186 E14.98262
G1 X-19.465 Y-3.105 E14.99826
G1 X-19.635 Y-2.963 E15.00932
G1 X-19.77 Y-2.705 E15.02384
G1 X-19.802 Y-2.402 E15.03904
G1 X-19.694 Y-2.052 E15.05732
G1 X-19.504 Y-1.851 E15.07112
G1 X-19.258 Y-1.764 E15.08413
G1 X-18.927 Y-1.77 E15.10065
G1 X-18.371 Y-1.834 E15.12857
G1 X-18.098 Y-1.786 E15.1424
G1 X-17.94 Y-1.662 E15.15242
G1 X-17.881 Y-1.413 E15.16519
G1 X-17.917 Y-.784 E15.19662
G1 X-17.908 Y0.095 E15.24048
G1 X-17.913 Y1.33 E15.30209
G1 X-17.901 Y1.977 E15.33438
G1 X-17.941 Y2.541 E15.36259
G1 X-17.863 Y2.826 E15.37733
G1 X-17.729 Y2.975 E15.38732
G1 X-17.431 Y3.095 E15.40335
G1 X-17.119 Y3.098 E15.41892
G1 X-16.834 Y2.971 E15.43449
G1 X-16.656 Y2.746 E15.4488
G0 F3600 X-16.607 Y2.553
G0 X-16.317 Y2.628
G0 X-13.351 Y-.997
G0 X-13.093 Y-.845
G1 F1800 X-13.266 Y-.552 E15.46577
G1 X-13.318 Y-.24 E15.48155
G1 X-13.271 Y-0.004 E15.49356
G1 X-13.156 Y0.161 E15.50359
G1 X-12.862 Y0.307 E15.51997
G1 X-12.302 Y0.418 E15.54845
G1 X-11.994 Y0.573 E15.56566
G1 X-11.704 Y0.883 E15.58683
G1 X-11.578 Y1.208 E15.60422
G1 X-11.602 Y1.508 E15.61924
G1 X-11.742 Y1.758 E15.63353
G1 X-12.001 Y1.932 E15.6491
G1 X-12.265 Y1.964 E15.66237
G1 X-12.536 Y1.806 E15.67802
G1 X-12.929 Y1.55 E15.70142
G1 X-13.21 Y1.487 E15.71579
G1 X-13.551 Y1.526 E15.73291
G1 X-13.819 Y1.686 E15.74848
G1 X-13.964 Y1.926 E15.76247
G1 X-13.991 Y2.27 E15.77968
G1 X-13.901 Y2.572 E15.79541
G1 X-13.688 Y2.85 E15.81288
G1 X-13.398 Y3.041 E15.8302
G1 X-12.919 Y3.198 E15.85535
G1 X-12.421 Y3.255 E15.88036
G1 X-11.889 Y3.236 E15.90692
G1 X-11.354 Y3.104 E15.93441
G1 X-10.929 Y2.872 E15.95857
G1 X-10.573 Y2.54 E15.98285
G1 X-10.274 Y2.057 E16.01119
G1 X-10.113 Y1.529 E16.03873
G1 X-10.096 Y1.074 E16.06145
G1 X-10.229 Y0.47 E16.0923
G1 X-10.424 Y-0.036 E16.11936
G1 X-10.642 Y-.295 E16.13625
G1 X-10.926 Y-.453 E16.15246
G1 X-11.034 Y-.489 E16.15814
G1 X-10.723 Y-.666 E16.169
G1 X-10.491 Y-.935 E16.18673
G1 X-10.368 Y-1.329 E16.20732
G1 X-10.331 Y-1.866 E16.23417
G1 X-10.376 Y-2.234 E16.25267
G1 X-10.512 Y-2.563 E16.27043
G1 X-10.79 Y-2.891 E16.29188
G1 X-11.11 Y-3.107 E16.31114
G1 X-11.616 Y-3.273 E16.33771
G1 X-12.216 Y-3.329 E16.36777
G1 X-12.735 Y-3.292 E16.39373
G1 X-13.215 Y-3.164 E16.41852
G1 X-13.616 Y-2.95 E16.44119
G1 X-13.874 Y-2.701 E16.45908
G1 X-13.995 Y-2.411 E16.47476
G1 X-13.966 Y-2.128 E16.48895
G1 X-13.818 Y-1.851 E16.50462
G1 X-13.572 Y-1.64 E16.52079
G1 X-13.379 Y-1.579 E16.53089
G1 X-13.093 Y-1.632 E16.5454
G1 X-12.648 Y-1.913 E16.57166
G1 X-12.327 Y-2.021 E16.58855
G1 X-12.074 Y-1.981 E16.60133
G1 X-11.916 Y-1.814 E16.6128
G1 X-11.866 Y-1.593 E16.62411
G1 X-11.931 Y-1.379 E16.63526
G1 X-12.064 Y-1.227 E16.64534
G1 X-12.279 Y-1.11 E16.65755
G1 X-12.862 Y-.994 E16.68721
G1 X-13.093 Y-.845 E16.70092
G0 F3600 X-13.194 Y-.673
G0 X-13.452 Y-.825
G0 X-14.197 Y1.849
G0 X-14.117 Y2.684
G0 X-13.503 Y3.259
G0 X-12.667 Y3.467
G0 X-8.854 Y3.324
G0 X-8.682 Y3.08
G1 F1800 X-8.366 Y3.116 E16.71679
G1 X-7.759 Y3.073 E16.74715
G1 X-7.058 Y3.082 E16.78213
G1 X-6.484 Y3.041 E16.81084
G1 X-5.928 Y2.925 E16.83917
G1 X-5.419 Y2.69 E16.86714
G1 X-4.997 Y2.348 E16.89424
G1 X-4.629 Y1.864 E16.92458
G1 X-4.386 Y1.321 E16.95425
G1 X-4.229 Y0.665 E16.98791
G1 X-4.184 Y0.155 E17.01345
G1 X-4.187 Y-.362 E17.03924
G1 X-4.25 Y-.91 E17.06676
G1 X-4.39 Y-1.452 E17.09469
G1 X-4.598 Y-1.921 E17.12029
G1 X-4.868 Y-2.318 E17.14424
G1 X-5.282 Y-2.705 E17.17251
G1 X-5.745 Y-2.948 E17.1986
G1 X-6.426 Y-3.103 E17.23345
G1 X-7.035 Y-3.15 E17.26392
G1 X-7.697 Y-3.149 E17.29695
G1 X-8.166 Y-3.166 E17.32036
G1 X-8.6 Y-3.126 E17.3421
G1 X-8.914 Y-2.972 E17.35955
G1 X-9.064 Y-2.771 E17.37207
G1 X-9.107 Y-2.45 E17.38822
G1 X-9.066 Y-1.946 E17.41345
G1 X-9.077 Y-1.075 E17.45691
G1 X-9.075 Y-.686 E17.47632
G1 X-9.075 Y1.257 E17.57325
G1 X-9.073 Y1.842 E17.60244
G1 X-9.085 Y2.358 E17.62819
G1 X-9.011 Y2.724 E17.64682
G1 X-8.888 Y2.936 E17.65905
G1 X-8.682 Y3.08 E17.67159
G0 F3600 X-8.484 Y3.102
G0 X-8.518 Y3.4
G0 X-3.769 Y3.759
G0 X-3.623 Y3.499
G1 F1800 X-3.205 Y3.564 E17.69269
G1 X-2.792 Y3.481 E17.71371
G1 X-2.427 Y3.254 E17.73515
G1 X-2.171 Y2.924 E17.75599
G1 X-2.042 Y2.524 E17.77696
G1 X-2.062 Y2.1 E17.79813
G1 X-2.223 Y1.712 E17.81909
G1 X-2.514 Y1.402 E17.8403
G1 X-2.893 Y1.214 E17.86141
G1 X-3.205 Y1.165 E17.87717
G1 X-3.622 Y1.229 E17.89821
G1 X-3.992 Y1.436 E17.91937
G1 X-4.268 Y1.758 E17.93786
G1 X-4.414 Y2.151 E17.95878
G1 X-4.414 Y2.578 E17.98008
G1 X-4.268 Y2.971 E18.001
G1 X-3.991 Y3.293 E18.02219
G1 X-3.623 Y3.499 E18.04323
G0 F3600 X-3.426 Y3.529
G0 X-3.472 Y3.825
G0 X1.241 Y3.547
G0 X2.157 Y2.902
G0 X1.882 Y2.783
G1 F1800 X1.868 Y2.423 E18.0612
G1 X1.719 Y2.073 E18.08018
G1 X1.272 Y1.319 E18.12391
G1 X1.001 Y0.853 E18.1508
G1 X0.998 Y0.597 E18.16358
G1 X1.144 Y0.281 E18.18094
G1 X1.364 Y-0.067 E18.20148
G1 X1.728 Y-.694 E18.23765
G1 X1.836 Y-1.031 E18.25531
G1 X1.802 Y-1.274 E18.26755
G1 X1.627 Y-1.543 E18.28356
G1 X1.396 Y-1.69 E18.29722
G1 X1.173 Y-1.717 E18.30843
G1 X0.886 Y-1.606 E18.32378
G1 X0.583 Y-1.317 E18.34467
G1 X0.373 Y-.964 E18.36516
G1 X0.192 Y-.546 E18.38789
G1 X-0.087 Y-1.092 E18.41848
G1 X-.395 Y-1.507 E18.44426
G1 X-.665 Y-1.685 E18.4604
G1 X-.889 Y-1.72 E18.47171
G1 X-1.21 Y-1.63 E18.48834
G1 X-1.422 Y-1.453 E18.50212
G1 X-1.527 Y-1.207 E18.51546
G1 X-1.502 Y-.895 E18.53108
G1 X-1.305 Y-.446 E18.55554
G1 X-.932 Y0.21 E18.59319
G1 X-.64 Y0.663 E18.62008
G1 X-.607 Y0.797 E18.62696
G1 X-.916 Y1.247 E18.6542
G1 X-1.198 Y1.739 E18.68249
G1 X-1.476 Y2.217 E18.71008
G1 X-1.595 Y2.565 E18.72842
G1 X-1.582 Y2.827 E18.74151
G1 X-1.445 Y3.065 E18.75521
G1 X-1.206 Y3.23 E18.7697
G1 X-.912 Y3.282 E18.7846
G1 X-.708 Y3.22 E18.79523
G1 X-.442 Y2.976 E18.81324
G1 X-.127 Y2.498 E18.8418
G1 X0.104 Y2.001 E18.86915
G1 X0.419 Y2.585 E18.90225
G1 X0.716 Y3.062 E18.93028
G1 X0.928 Y3.234 E18.9439
G1 X1.239 Y3.302 E18.95979
G1 X1.526 Y3.237 E18.97447
G1 X1.765 Y3.056 E18.98942
G1 X1.882 Y2.783 E19.00424
G0 F3600 X1.875 Y2.583
G0 X2.175 Y2.571
G0 X1.853 Y5.179
G0 X2.618 Y6.097
G0 X2.632 Y5.798
G1 F1800 X2.971 Y5.815 E19.02118
G1 X3.421 Y5.707 E19.04426
G1 X3.871 Y5.484 E19.06932
G1 X4.189 Y5.17 E19.09162
G1 X4.42 Y4.781 E19.11419
G1 X4.716 Y4.082 E19.15206
G1 X5.011 Y3.319 E19.19287
G1 X5.147 Y2.948 E19.21258
G1 X5.909 Y0.808 E19.32592
G1 X5.964 Y0.658 E19.33389
G1 X6.201 Y-0.056 E19.37142
G1 X6.459 Y-.633 E19.40295
G1 X6.533 Y-1.001 E19.42168
G1 X6.465 Y-1.271 E19.43557
G1 X6.277 Y-1.536 E19.45178
G1 X6.069 Y-1.677 E19.46432
G1 X5.852 Y-1.718 E19.47534
G1 X5.611 Y-1.636 E19.48804
G1 X5.422 Y-1.465 E19.50075
G1 X5.182 Y-1.065 E19.52402
G1 X4.947 Y-.385 E19.55992
G1 X4.765 Y0.109 E19.58618
G1 X4.588 Y0.711 E19.61749
G1 X4.575 Y0.752 E19.61963
G1 X4.305 Y0.064 E19.64143
G1 X4.105 Y-.431 E19.66806
G1 X3.938 Y-.991 E19.69722
G1 X3.788 Y-1.366 E19.71737
G1 X3.544 Y-1.599 E19.7342
G1 X3.281 Y-1.699 E19.74824
G1 X2.948 Y-1.703 E19.76485
G1 X2.739 Y-1.613 E19.7762
G1 X2.573 Y-1.401 E19.78964
G1 X2.516 Y-1.127 E19.8036
G1 X2.548 Y-.77 E19.82148
G1 X2.737 Y-.21 E19.85097
G1 X2.935 Y0.269 E19.87683
G1 X3.083 Y0.671 E19.8982
G1 X3.362 Y1.408 E19.93751
G1 X3.555 Y1.939 E19.9657
G1 X3.775 Y2.425 E19.99232
G1 X3.85 Y2.73 E20.00799
G1 X3.745 Y3.052 E20.02488
G1 X3.434 Y3.792 E20.06493
G1 X3.252 Y4.144 E20.0847
G1 X3.095 Y4.293 E20.0955
G1 X2.879 Y4.403 E20.10759
G1 X2.366 Y4.559 E20.13434
G1 X2.193 Y4.693 E20.14526
G1 X2.103 Y4.87 E20.15517
G1 X2.093 Y5.145 E20.1689
G1 X2.191 Y5.441 E20.18445
G1 X2.366 Y5.665 E20.19863
G1 X2.632 Y5.798 E20.21347
G0 F3600 X2.832 Y5.808
G0 X2.818 Y6.106
G0 X9.902 Y3.509
G0 X10.974 Y2.733
G0 X10.701 Y1.853
G0 X10.558 Y2.116
G1 F1800 X10.256 Y1.952 E20.23062
G1 X9.738 Y1.884 E20.25668
G1 X9.025 Y1.927 E20.29232
G1 X8.889 Y1.931 E20.2991
G1 X9.358 Y1.237 E20.34089
G1 X9.919 Y0.437 E20.38964
G1 X10.264 Y-0.046 E20.41925
G1 X10.575 Y-.564 E20.4494
G1 X10.657 Y-.921 E20.46767
G1 X10.606 Y-1.308 E20.48715
G1 X10.453 Y-1.549 E20.50139
G1 X10.259 Y-1.669 E20.51277
G1 X9.859 Y-1.72 E20.53289
G1 X9.474 Y-1.714 E20.5521
G1 X8.415 Y-1.717 E20.60493
G1 X7.905 Y-1.719 E20.63037
G1 X7.433 Y-1.644 E20.65422
G1 X7.185 Y-1.473 E20.66925
G1 X7.057 Y-1.212 E20.68375
G1 X7.049 Y-.876 E20.70052
G1 X7.164 Y-.604 E20.71525
G1 X7.369 Y-.44 E20.72835
G1 X7.665 Y-.355 E20.74371
G1 X8.187 Y-.319 E20.76982
G1 X8.812 Y-.371 E20.80111
G1 X8.513 Y0.043 E20.81325
G1 X8.151 Y0.555 E20.84453
G1 X7.548 Y1.394 E20.89608
G1 X7.184 Y1.913 E20.92771
G1 X7.019 Y2.315 E20.94939
G1 X7.002 Y2.642 E20.96572
G1 X7.122 Y3.004 E20.98475
G1 X7.274 Y3.178 E20.99628
G1 X7.443 Y3.268 E21.00583
G1 X7.824 Y3.3 E21.0249
G1 X8.292 Y3.274 E21.04829
G1 X9.063 Y3.283 E21.08676
G1 X9.802 Y3.283 E21.12363
G1 X10.223 Y3.25 E21.14469
G1 X10.477 Y3.149 E21.15833
G1 X10.652 Y2.955 E21.17137
G1 X10.74 Y2.628 E21.18826
G1 X10.709 Y2.372 E21.20113
G1 X10.558 Y2.116 E21.21595
G0 F3600 X10.382 Y2.021
G0 X10.525 Y1.758
G0 X12.549 Y-.446
G0 X12.817 Y-.579
G1 F1800 X12.96 Y-.211 E21.23565
G1 X12.968 Y0.162 E21.25426
G1 X12.855 Y0.513 E21.27266
G1 X12.526 Y1.059 E21.30446
G1 X12.213 Y1.54 E21.33309
G1 X11.848 Y2.049 E21.36434
G1 X11.536 Y2.449 E21.38965
G1 X11.201 Y2.845 E21.41553
G1 X10.859 Y3.225 E21.44104
G1 X10.388 Y3.713 E21.47487
G1 X10.009 Y4.068 E21.50078
G1 X9.569 Y4.457 E21.53008
G1 X8.996 Y4.917 E21.56674
G1 X8.53 Y5.257 E21.59552
G1 X7.993 Y5.616 E21.62775
G1 X7.567 Y5.879 E21.65272
G1 X7.014 Y6.191 E21.6844
G1 X6.28 Y6.558 E21.72534
G1 X5.812 Y6.763 E21.75083
G1 X5.228 Y7 E21.78228
G1 X4.742 Y7.169 E21.80795
G1 X4.169 Y7.351 E21.83794
G1 X3.612 Y7.5 E21.86671
G1 X2.881 Y7.662 E21.90406
G1 X2.57 Y7.719 E21.91984
G1 X2.065 Y7.798 E21.94534
G1 X1.44 Y7.871 E21.97673
G1 X0.906 Y7.91 E22.00344
G1 X0.3 Y7.934 E22.0337
G1 X-.338 Y7.93 E22.06553
G1 X-.854 Y7.907 E22.0913
G1 X-8.586 Y7.432 E22.47778
G1 X-10.566 Y7.313 E22.57674
G1 X-21.887 Y6.623 E23.14259
G1 X-24.277 Y6.473 E23.26207
G1 X-24.711 Y6.38 E23.28421
G1 X-25.066 Y6.193 E23.30423
G1 X-25.367 Y5.903 E23.32508
G1 X-25.567 Y5.556 E23.34506
G1 X-25.682 Y5.105 E23.36828
G1 X-25.697 Y4.875 E23.37978
G1 X-25.696 Y-4.897 E23.86731
G1 X-25.628 Y-5.37 E23.89115
G1 X-25.466 Y-5.757 E23.91208
G1 X-25.208 Y-6.077 E23.93259
G1 X-24.878 Y-6.308 E23.95268
G1 X-24.461 Y-6.451 E23.97468
G1 X-24.237 Y-6.478 E23.98593
G1 X-.703 Y-7.916 E25.16224
G1 X0.001 Y-7.936 E25.19738
G1 X0.684 Y-7.921 E25.23146
G1 X1.372 Y-7.877 E25.26585
G1 X2.211 Y-7.777 E25.30801
G1 X2.925 Y-7.653 E25.34416
G1 X3.729 Y-7.47 E25.3853
G1 X4.379 Y-7.286 E25.419
G1 X5.003 Y-7.08 E25.45179
G1 X5.49 Y-6.897 E25.47774
G1 X6.089 Y-6.644 E25.51018
G1 X6.723 Y-6.343 E25.5452
G1 X7.22 Y-6.078 E25.5733
G1 X7.692 Y-5.803 E25.60055
G1 X8.184 Y-5.493 E25.62956
G1 X8.701 Y-5.136 E25.66091
G1 X9.19 Y-4.765 E25.69153
G1 X9.833 Y-4.23 E25.73326
G1 X10.402 Y-3.697 E25.77216
G1 X10.768 Y-3.325 E25.7982
G1 X11.144 Y-2.912 E25.82606
G1 X11.511 Y-2.477 E25.85445
G1 X11.825 Y-2.073 E25.87998
G1 X12.254 Y-1.475 E25.9167
G1 X12.533 Y-1.049 E25.94211
G1 X12.817 Y-.579 E25.9695
G0 F3600 X12.889 Y-.393
G0 X12.174 Y-0.056
;TYPE:SKIN
G1 F1800 X12.131 Y0.185 E25.98172
G1 X11.856 Y0.641 E26.00828
G1 X11.57 Y1.081 E26.03446
G1 X11.211 Y1.584 E26.06529
G1 X11.182 Y1.619 E26.06756
G1 X11.127 Y1.526 E26.07295
G1 X10.505 Y1.188 E26.10827
G1 X10.37 Y1.17 E26.11506
G1 X10.564 Y0.894 E26.1319
G1 X10.925 Y0.388 E26.16291
G1 X11.317 Y-.265 E26.2009
G1 X11.459 Y-.883 E26.23254
G1 X11.403 Y-1.305 E26.25378
G1 X11.865 Y-.627 E26.29471
G1 X12.174 Y-0.056 E26.3271
G0 F3600 X10.512 Y-2.433
G1 F1800 X9.903 Y-2.51 E26.35773
G1 X9.465 Y-2.504 E26.37958
G1 X7.844 Y-2.509 E26.46045
G1 X7.133 Y-2.396 E26.49637
G1 X6.777 Y-2.151 E26.51793
G1 X6.377 Y-2.423 E26.54206
G1 X5.794 Y-2.533 E26.57166
G1 X5.201 Y-2.331 E26.60292
G1 X4.806 Y-1.972 E26.62955
G1 X4.56 Y-1.563 E26.65336
G1 X4.458 Y-1.819 E26.66711
G1 X3.974 Y-2.281 E26.70049
G1 X3.431 Y-2.488 E26.72948
G1 X2.79 Y-2.495 E26.76146
G1 X2.241 Y-2.259 E26.79127
G1 X2.152 Y-2.146 E26.79845
G1 X1.669 Y-2.452 E26.82698
G1 X1.072 Y-2.525 E26.85698
G1 X0.455 Y-2.286 E26.88999
G1 X0.195 Y-2.039 E26.90789
G1 X0.157 Y-2.09 E26.91106
G1 X-.373 Y-2.439 E26.94272
G1 X-.937 Y-2.527 E26.9712
G1 X-1.587 Y-2.345 E27.00487
G1 X-2.074 Y-1.938 E27.03654
G1 X-2.33 Y-1.338 E27.06908
G1 X-2.279 Y-.699 E27.10106
G1 X-2.012 Y-0.091 E27.13419
G1 X-1.608 Y0.62 E27.17499
G1 X-1.528 Y0.743 E27.18231
G1 X-1.731 Y1.081 E27.20198
G1 X-2.036 Y0.758 E27.22414
G1 X-2.651 Y0.452 E27.25842
G1 X-3.204 Y0.366 E27.28634
G1 X-3.413 Y0.398 E27.29688
G1 X-3.394 Y0.187 E27.30745
G1 X-3.397 Y-.409 E27.33719
G1 X-3.472 Y-1.055 E27.36963
G1 X-3.641 Y-1.713 E27.40353
G1 X-3.904 Y-2.306 E27.43589
G1 X-4.264 Y-2.835 E27.46782
G1 X-4.82 Y-3.355 E27.5058
G1 X-5.469 Y-3.695 E27.54235
G1 X-6.307 Y-3.886 E27.58523
G1 X-7.006 Y-3.94 E27.62021
G1 X-7.67 Y-3.939 E27.65333
G1 X-8.188 Y-3.957 E27.67919
G1 X-8.817 Y-3.9 E27.7107
G1 X-9.433 Y-3.597 E27.74495
G1 X-9.82 Y-3.079 E27.77721
G1 X-9.833 Y-2.983 E27.78204
G1 X-10.258 Y-3.485 E27.81486
G1 X-10.759 Y-3.823 E27.84501
G1 X-11.454 Y-4.051 E27.8815
G1 X-12.208 Y-4.122 E27.91928
G1 X-12.865 Y-4.074 E27.95215
G1 X-13.507 Y-3.904 E27.98528
G1 X-14.086 Y-3.595 E28.01803
G1 X-14.182 Y-3.501 E28.02473
G1 X-14.701 Y-3.864 E28.05633
G1 X-15.276 Y-3.949 E28.08533
G1 X-16.022 Y-3.94 E28.12255
G1 X-16.198 Y-3.943 E28.13133
G1 X-16.766 Y-3.944 E28.15967
G1 X-17.21 Y-3.942 E28.18182
G1 X-18.013 Y-3.944 E28.22188
G1 X-18.538 Y-3.936 E28.24807
G1 X-19.239 Y-3.984 E28.28313
G1 X-19.838 Y-3.824 E28.31406
G1 X-20.263 Y-3.468 E28.34172
G1 X-20.311 Y-3.375 E28.34694
G1 X-20.776 Y-3.731 E28.37616
G1 X-21.46 Y-4.01 E28.41301
G1 X-22.126 Y-4.112 E28.44663
G1 X-22.893 Y-4.091 E28.48491
G1 X-23.588 Y-3.935 E28.52044
G1 X-24.295 Y-3.595 E28.55958
G1 X-24.861 Y-3.137 E28.59591
G1 X-24.906 Y-3.079 E28.59957
G1 X-24.906 Y-4.841 E28.68748
G1 X-24.861 Y-5.158 E28.70345
G1 X-24.78 Y-5.349 E28.7138
G1 X-24.526 Y-5.591 E28.7313
G1 X-24.141 Y-5.692 E28.75116
G1 X-.668 Y-7.126 E29.92442
G1 X0.007 Y-7.146 E29.95811
G1 X0.648 Y-7.131 E29.9901
G1 X1.3 Y-7.089 E30.02269
G1 X2.105 Y-6.993 E30.06314
G1 X2.767 Y-6.88 E30.09664
G1 X3.532 Y-6.705 E30.1358
G1 X4.136 Y-6.535 E30.1671
G1 X4.748 Y-6.332 E30.19927
G1 X5.197 Y-6.164 E30.22319
G1 X5.754 Y-5.928 E30.25337
G1 X6.366 Y-5.637 E30.28718
G1 X6.836 Y-5.387 E30.31373
G1 X7.325 Y-5.102 E30.34197
G1 X7.719 Y-4.854 E30.3652
G1 X8.23 Y-4.501 E30.39618
G1 X8.698 Y-4.146 E30.42549
G1 X9.31 Y-3.637 E30.4652
G1 X9.844 Y-3.137 E30.5017
G1 X10.512 Y-2.433 E30.55012
G0 F3600 X9.756 Y-2.688
G1 F1800 X8.02 Y-4.424 E30.6726
G1 X7.95 Y-4.494
G0 F3600 X8.058 Y-2.689
G1 F1800 X4.537 Y-6.21 E30.92103
G1 X4.467 Y-6.28
G0 F3600 X3.719 Y-6.462
G1 F1800 X7.539 Y-2.643 E31.19051
G0 F3600 X7.054 Y-2.561
G1 F1800 X2.968 Y-6.648 E31.47884
G0 F3600 X2.269 Y-6.781
G1 F1800 X6.482 Y-2.568 E31.77609
G0 F3600 X5.77 Y-2.714
G1 F1800 X1.617 Y-6.868 E32.06914
G0 F3600 X0.992 Y-6.926
G1 F1800 X5.347 Y-2.571 E32.37641
G0 F3600 X4.979 Y-2.374
G1 F1800 X0.398 Y-6.955 E32.69962
G0 F3600 X-.171 Y-6.96
G1 F1800 X4.683 Y-2.105 E33.04213
G1 X4.753 Y-2.035
G0 F3600 X3.609 Y-2.612
G1 F1800 X-.718 Y-6.94 E33.34746
G0 F3600 X-1.251 Y-6.908
G1 F1800 X2.983 Y-2.672 E33.64626
G0 F3600 X2.517 Y-2.573
G1 F1800 X-1.784 Y-6.875 E33.94976
G0 F3600 X-2.317 Y-6.843
G1 F1800 X2.124 Y-2.401 E34.26313
G1 X2.194 Y-2.331
G0 F3600 X1.279 Y-2.68
G1 F1800 X-2.851 Y-6.81 E34.55452
G0 F3600 X-3.384 Y-6.778
G1 F1800 X0.787 Y-2.607 E34.84881
G0 F3600 X0.379 Y-2.448
G1 F1800 X-3.917 Y-6.745 E35.15195
G0 F3600 X-4.45 Y-6.713
G1 F1800 X-.354 Y-2.617 E35.44095
G0 F3600 X-.999 Y-2.696
G1 F1800 X-4.983 Y-6.68 E35.72204
G0 F3600 X-5.516 Y-6.648
G1 F1800 X-1.441 Y-2.572 E36.00959
G0 F3600 X-1.819 Y-2.385
G1 F1800 X-6.05 Y-6.615 E36.30807
G0 F3600 X-6.583 Y-6.583
G1 F1800 X-2.127 Y-2.127 E36.62247
G0 F3600 X-2.339 Y-1.773
G1 F1800 X-7.116 Y-6.55 E36.95951
G0 F3600 X-7.649 Y-6.518
G1 F1800 X-2.508 Y-1.376 E37.32227
G0 F3600 X-2.463 Y-.766
G1 F1800 X-3.469 Y-1.772 E37.39325
G0 F3600 X-3.287 Y-1.024
G1 F1800 X-2.04 Y0.222 E37.4812
G0 F3600 X-2.505 Y0.323
G1 F1800 X-3.216 Y-.388 E37.53136
G1 X-3.286 Y-.458
G0 F3600 X-5.608 Y-3.911
G1 F1800 X-8.182 Y-6.485 E37.71297
G0 F3600 X-8.715 Y-6.453
G1 F1800 X-6.331 Y-4.068 E37.88121
G0 F3600 X-6.944 Y-4.116
G1 F1800 X-9.248 Y-6.419 E38.04374
G0 F3600 X-9.781 Y-6.387
G1 F1800 X-7.514 Y-4.12 E38.20369
G0 F3600 X-8.093 Y-4.133
G1 F1800 X-10.314 Y-6.354 E38.36039
G0 F3600 X-10.847 Y-6.322
G1 F1800 X-8.623 Y-4.097 E38.51734
G0 F3600 X-9.067 Y-3.976
G1 F1800 X-11.38 Y-6.289 E38.68053
G0 F3600 X-11.914 Y-6.257
G1 F1800 X-9.446 Y-3.79 E38.85463
G0 F3600 X-9.726 Y-3.503
G1 F1800 X-12.447 Y-6.224 E39.04661
G0 F3600 X-12.98 Y-6.192
G1 F1800 X-10.82 Y-4.032 E39.19901
G1 X-10.75 Y-3.962
G0 F3600 X-11.599 Y-4.245
G1 F1800 X-13.513 Y-6.159 E39.33405
G0 F3600 X-14.046 Y-6.127
G1 F1800 X-12.222 Y-4.302 E39.46278
G0 F3600 X-12.749 Y-4.263
G1 F1800 X-14.579 Y-6.094 E39.59193
G0 F3600 X-15.112 Y-6.062
G1 F1800 X-13.217 Y-4.166 E39.72567
G0 F3600 X-13.648 Y-4.031
G1 F1800 X-15.646 Y-6.029 E39.86664
G0 F3600 X-16.179 Y-5.996
G1 F1800 X-14.016 Y-3.834 E40.01922
G1 X-13.946 Y-3.764
G0 F3600 X-14.809 Y-4.061
G1 F1800 X-16.712 Y-5.964 E40.15348
G0 F3600 X-17.245 Y-5.931
G1 F1800 X-15.44 Y-4.126 E40.28084
G0 F3600 X-15.999 Y-4.12
G1 F1800 X-17.778 Y-5.899 E40.40635
G0 F3600 X-18.311 Y-5.866
G1 F1800 X-16.568 Y-4.123 E40.52933
G0 F3600 X-17.133 Y-4.122
G1 F1800 X-18.845 Y-5.834 E40.65012
G0 F3600 X-19.378 Y-5.801
G1 F1800 X-17.699 Y-4.123 E40.76855
G0 F3600 X-18.262 Y-4.12
G1 F1800 X-19.911 Y-5.769 E40.8849
G0 F3600 X-20.444 Y-5.736
G1 F1800 X-18.846 Y-4.138 E40.99764
G0 F3600 X-19.4 Y-4.127
G1 F1800 X-20.977 Y-5.703 E41.10887
G0 F3600 X-21.51 Y-5.67
G1 F1800 X-19.847 Y-4.007 E41.22621
G0 F3600 X-20.177 Y-3.773
G1 F1800 X-22.043 Y-5.638 E41.35783
G0 F3600 X-22.576 Y-5.605
G1 F1800 X-20.977 Y-4.007 E41.47061
G1 X-20.907 Y-3.937
G0 F3600 X-21.776 Y-4.24
G1 F1800 X-23.109 Y-5.573 E41.56466
G0 F3600 X-23.642 Y-5.54
G1 F1800 X-22.387 Y-4.285 E41.65321
G0 F3600 X-22.932 Y-4.265
G1 F1800 X-24.166 Y-5.498 E41.74024
G0 F3600 X-24.55 Y-5.317
G1 F1800 X-23.395 Y-4.162 E41.82173
G0 F3600 X-23.821 Y-4.022
G1 F1800 X-24.713 Y-4.914 E41.88467
G0 F3600 X-24.725 Y-4.36
G1 F1800 X-24.203 Y-3.838 E41.9215
G0 F3600 X-24.55 Y-3.62
G1 F1800 X-24.725 Y-3.795 E41.93384
G0 F3600 X5.456 Y-5.857
G1 F1800 X8.626 Y-2.687 E42.1575
G0 F3600 X9.193 Y-2.685
G1 F1800 X6.539 Y-5.34 E42.34479
G1 X6.469 Y-5.41
G0 F3600 X10.625 Y-1.723
G0 X11.522 Y-.357
G1 F1800 X11.965 Y0.086 E42.37605
G0 F3600 X11.761 Y0.447
G1 F1800 X11.347 Y0.033 E42.40526
G0 F3600 X11.134 Y0.386
G1 F1800 X11.542 Y0.794 E42.43405
G0 F3600 X11.313 Y1.13
G1 F1800 X10.906 Y0.724 E42.46273
G0 F3600 X10.899 Y-.91
G0 X10.625 Y-1.723
G0 X9.469 Y-1.954
G0 X-.903 Y-1.963
G0 X-3.991 Y0.7
G0 X-4.798 Y2.475
G0 X-5.851 Y3.152
G0 X-8.373 Y3.356
G0 X-9.205 Y2.865
G0 X-9.654 Y0.244
;TYPE:SKIN
G1 F1800 X-9.718 Y0.181 E42.46497
G0 F3600 X-9.654 Y-0.038
G1 F1800 X-9.895 Y-.278 E42.47345
G0 F3600 X-9.654 Y-.321
G1 F1800 X-9.977 Y-.643 E42.48483
G0 F3600 X-9.907 Y-.857
G1 F1800 X-9.654 Y-.603 E42.49377
G0 F3600 X-9.655 Y-.887
G1 F1800 X-9.84 Y-1.071 E42.50028
G0 F3600 X-9.654 Y-1.169
G1 F1800 X-9.787 Y-1.302 E42.50497
G0 F3600 X-9.651 Y-1.448
G1 F1800 X-9.77 Y-1.567 E42.50917
G0 F3600 X-9.647 Y-1.728
G1 F1800 X-9.751 Y-1.832 E42.51284
G0 F3600 X-9.652 Y-2.015
G1 F1800 X-9.78 Y-2.143 E42.51735
G0 F3600 X-9.677 Y-2.323
G1 F1800 X-9.86 Y-2.506 E42.52381
G0 F3600 X-9.67 Y-2.599
G1 F1800 X-9.845 Y-2.774 E42.52998
G0 F3600 X-11.003 Y-3.323
G0 X-12.213 Y-3.569
G0 X-13.306 Y-3.387
G0 X-14.076 Y-2.839
G0 X-14.007 Y-1.698
G0 X-12.827 Y-1.453
G0 X-13.964 Y-.936
;TYPE:SKIN
G1 F1800 X-14.021 Y-.827 E42.53612
G1 X-14.121 Y-.228 E42.56642
G1 X-14.014 Y0.312 E42.59388
G1 X-13.71 Y0.749 E42.62044
G1 X-13.81 Y0.76 E42.62546
G1 X-14.393 Y1.109 E42.65936
G1 X-14.737 Y1.677 E42.69249
G1 X-14.79 Y2.354 E42.72637
G1 X-14.616 Y2.938 E42.75677
G1 X-14.233 Y3.437 E42.78815
G1 X-13.744 Y3.759 E42.81736
G1 X-13.089 Y3.974 E42.85176
G1 X-12.452 Y4.046 E42.88374
G1 X-11.779 Y4.022 E42.91734
G1 X-11.066 Y3.847 E42.95396
G1 X-10.463 Y3.517 E42.98826
G1 X-9.957 Y3.046 E43.02275
G1 X-9.802 Y2.796 E43.03742
G1 X-9.76 Y3.008 E43.0482
G1 X-9.484 Y3.484 E43.07566
G1 X-8.97 Y3.842 E43.10691
G1 X-8.383 Y3.91 E43.13639
G1 X-7.748 Y3.863 E43.16815
G1 X-7.035 Y3.872 E43.20373
G1 X-6.375 Y3.826 E43.23674
G1 X-5.679 Y3.68 E43.27222
G1 X-4.998 Y3.366 E43.30963
G1 X-4.972 Y3.345 E43.3113
G1 X-4.959 Y3.379 E43.31311
G1 X-4.498 Y3.913 E43.34831
G1 X-3.885 Y4.257 E43.38338
G1 X-3.188 Y4.366 E43.41857
G1 X-2.496 Y4.228 E43.45378
G1 X-1.89 Y3.85 E43.48941
G1 X-1.823 Y3.764 E43.49485
G1 X-1.514 Y3.978 E43.5136
G1 X-.862 Y4.093 E43.54663
G1 X-.306 Y3.923 E43.57564
G1 X0.094 Y3.556 E43.60272
G1 X0.116 Y3.592 E43.60483
G1 X0.576 Y3.965 E43.63437
G1 X1.243 Y4.112 E43.66845
G1 X1.825 Y3.979 E43.69823
G1 X1.569 Y4.177 E43.71438
G1 X1.32 Y4.667 E43.7418
G1 X1.299 Y5.258 E43.7713
G1 X1.484 Y5.82 E43.80082
G1 X1.853 Y6.292 E43.83071
G1 X2.427 Y6.579 E43.86273
G1 X3.045 Y6.609 E43.8936
G1 X3.692 Y6.454 E43.92679
G1 X4.336 Y6.136 E43.96262
G1 X4.817 Y5.66 E43.99638
G1 X5.127 Y5.138 E44.02667
G1 X5.448 Y4.378 E44.06783
G1 X5.75 Y3.597 E44.10961
G1 X5.89 Y3.217 E44.12981
G1 X6.231 Y2.263 E44.18036
G1 X6.205 Y2.749 E44.20464
G1 X6.423 Y3.403 E44.23903
G1 X6.774 Y3.807 E44.26573
G1 X7.215 Y4.042 E44.29066
G1 X7.812 Y4.091 E44.32055
G1 X8.312 Y4.064 E44.34553
G1 X8.789 Y4.07 E44.36933
G1 X8.523 Y4.284 E44.38636
G1 X8.084 Y4.604 E44.41346
G1 X7.566 Y4.951 E44.44457
G1 X7.166 Y5.198 E44.46802
G1 X6.661 Y5.484 E44.49698
G1 X5.929 Y5.85 E44.53781
G1 X5.516 Y6.031 E44.5603
G1 X4.948 Y6.261 E44.59088
G1 X4.492 Y6.419 E44.61495
G1 X3.925 Y6.599 E44.64463
G1 X3.432 Y6.731 E44.67009
G1 X2.724 Y6.888 E44.70627
G1 X2.448 Y6.938 E44.72027
G1 X1.953 Y7.015 E44.74526
G1 X1.358 Y7.085 E44.77515
G1 X0.869 Y7.12 E44.79961
G1 X0.273 Y7.144 E44.82937
G1 X-.303 Y7.14 E44.85811
G1 X-.812 Y7.118 E44.88352
G1 X-8.537 Y6.643 E45.26965
G1 X-10.517 Y6.524 E45.36861
G1 X-21.838 Y5.834 E45.93447
G1 X-24.174 Y5.688 E46.05124
G1 X-24.44 Y5.63 E46.06482
G1 X-24.598 Y5.547 E46.07373
G1 X-24.738 Y5.412 E46.08343
G1 X-24.822 Y5.266 E46.09183
G1 X-24.907 Y4.826 E46.11419
G1 X-24.907 Y2.984 E46.20609
G1 X-24.679 Y3.235 E46.22301
G1 X-24.032 Y3.675 E46.26204
G1 X-23.421 Y3.916 E46.29481
G1 X-22.719 Y4.038 E46.33036
G1 X-21.95 Y4.027 E46.36873
G1 X-21.217 Y3.864 E46.40619
G1 X-20.61 Y3.562 E46.44001
G1 X-20.072 Y3.07 E46.47639
G1 X-19.712 Y2.43 E46.51302
G1 X-19.62 Y1.855 E46.54207
G1 X-19.862 Y1.213 E46.5763
G1 X-20.368 Y0.756 E46.61032
G1 X-20.955 Y0.554 E46.64129
G1 X-21.559 Y0.571 E46.67144
G1 X-22.1 Y0.832 E46.7014
G1 X-22.351 Y1.061 E46.71835
G1 X-22.648 Y1.014 E46.73336
G1 X-22.822 Y0.812 E46.74666
G1 X-22.91 Y0.496 E46.76302
G1 X-22.946 Y-0.005 E46.78808
G1 X-22.929 Y-.418 E46.8087
G1 X-22.842 Y-.83 E46.82971
G1 X-22.703 Y-1.049 E46.84265
G1 X-22.458 Y-1.124 E46.85544
G1 X-22.374 Y-1.088 E46.86
G1 X-21.889 Y-.795 E46.88826
G1 X-21.272 Y-.602 E46.92052
G1 X-20.701 Y-.654 E46.94912
G1 X-20.138 Y-.986 E46.98173
G1 X-19.988 Y-1.212 E46.99526
G1 X-19.947 Y-1.169 E46.99823
G1 X-19.387 Y-.971 E47.02786
G1 X-18.874 Y-.98 E47.05346
G1 X-18.696 Y-1.001 E47.0624
G1 X-18.707 Y-.802 E47.07234
G1 X-18.698 Y0.091 E47.1169
G1 X-18.703 Y1.335 E47.17896
G1 X-18.691 Y1.954 E47.20985
G1 X-18.739 Y2.62 E47.24316
G1 X-18.575 Y3.216 E47.274
G1 X-18.194 Y3.639 E47.30241
G1 X-17.588 Y3.884 E47.33502
G1 X-16.954 Y3.889 E47.36665
G1 X-16.335 Y3.614 E47.40044
G1 X-15.933 Y3.105 E47.4328
G1 X-15.764 Y2.451 E47.4665
G1 X-15.782 Y1.661 E47.50592
G1 X-15.783 Y1.424 E47.51775
G1 X-15.779 Y0.808 E47.54848
G1 X-15.78 Y-.598 E47.61863
G1 X-15.778 Y-1.001 E47.63873
G1 X-15.721 Y-1 E47.64158
G1 X-15.07 Y-1.04 E47.67412
G1 X-14.467 Y-1.26 E47.70614
G1 X-14.41 Y-1.318 E47.7102
G1 X-13.964 Y-.936 E47.73949
G0 F3600 X-14.235 Y-2.421
G0 X-13.759 Y-3.145
G0 X-12.771 Y-3.529
G0 X-6.39 Y-3.34
G0 X1.478 Y-1.92
G0 X2.04 Y-1.324
G0 X1.828 Y0.704
G1 F1800 X2.081 Y0.271 E47.76451
G1 X2.343 Y0.948 E47.80073
G1 X2.619 Y1.678 E47.83967
G1 X2.823 Y2.238 E47.8694
G1 X3.029 Y2.698 E47.89455
G1 X3.002 Y2.781 E47.8989
G1 X2.724 Y3.444 E47.93477
G1 X2.584 Y3.667 E47.9479
G1 X2.054 Y3.828 E47.97554
G1 X2.409 Y3.559 E47.99776
G1 X2.679 Y2.93 E48.03191
G1 X2.651 Y2.248 E48.06596
G1 X2.426 Y1.715 E48.09483
G1 X1.951 Y0.916 E48.1412
G1 X1.828 Y0.704 E48.15343
G0 F3600 X2.791 Y4.179
G0 X2.004 Y4.537
G0 X1.977 Y5.557
G0 X2.994 Y6.054
G0 X4.012 Y5.681
G0 X6.498 Y1.514
G1 F1800 X6.711 Y0.917 E48.18505
G1 X6.94 Y0.228 E48.22128
G1 X7.314 Y0.366 E48.24116
G1 X6.904 Y0.936 E48.27619
G1 X6.498 Y1.514 E48.31143
G0 F3600 X6.912 Y3.125
G0 X7.901 Y4.507
G1 F1800 X7.652 Y4.258 E48.329
G0 F3600 X7.563 Y4.735
G1 F1800 X6.914 Y4.086 E48.37479
G1 X6.844 Y4.016
G0 F3600 X7.216 Y4.953
G1 F1800 X5.919 Y3.656 E48.4663
G0 F3600 X6.233 Y3.404
G1 F1800 X6.07 Y3.242 E48.47777
G0 F3600 X5.761 Y4.064
G1 F1800 X6.859 Y5.162 E48.55524
G0 F3600 X6.495 Y5.364
G1 F1800 X5.602 Y4.471 E48.61824
G0 F3600 X5.434 Y4.869
G1 F1800 X6.118 Y5.552 E48.66647
G0 F3600 X5.736 Y5.736
G1 F1800 X5.261 Y5.261 E48.69998
G0 F3600 X5.05 Y5.616
G1 F1800 X5.34 Y5.906 E48.72044
G0 F3600 X4.938 Y6.069
G1 F1800 X4.799 Y5.93 E48.73025
G0 F3600 X2.259 Y6.784
G1 F1800 X2.082 Y6.607 E48.74274
G0 F3600 X1.763 Y6.854
G1 F1800 X-.822 Y4.268 E48.92516
G0 F3600 X-.388 Y4.136
G1 F1800 X1.295 Y5.82 E49.04394
G0 F3600 X1.125 Y5.085
G1 F1800 X-0.038 Y3.921 E49.12603
G1 X-.108 Y3.851
G0 F3600 X0.803 Y4.198
G1 F1800 X1.17 Y4.565 E49.15193
G0 F3600 X1.255 Y6.911
G1 F1800 X-1.492 Y4.164 E49.34574
G0 F3600 X-2.056 Y4.166
G1 F1800 X0.721 Y6.944 E49.54171
G0 F3600 X0.174 Y6.962
G1 F1800 X-2.404 Y4.383 E49.72364
G0 F3600 X-2.868 Y4.485
G1 F1800 X-.399 Y6.954 E49.89784
G0 F3600 X-.994 Y6.925
G1 F1800 X-3.406 Y4.513 E50.06802
G1 X-3.476 Y4.443
G0 F3600 X-4.197 Y4.287
G1 F1800 X-1.597 Y6.887 E50.25146
G0 F3600 X-2.199 Y6.851
G1 F1800 X-5.331 Y3.719 E50.47244
G0 F3600 X-5.739 Y3.877
G1 F1800 X-2.802 Y6.814 E50.67966
G0 F3600 X-3.405 Y6.776
G1 F1800 X-6.206 Y3.975 E50.87729
G0 F3600 X-6.716 Y4.031
G1 F1800 X-4.007 Y6.74 E51.06842
G0 F3600 X-4.61 Y6.703
G1 F1800 X-7.264 Y4.049 E51.25568
G0 F3600 X-7.829 Y4.049
G1 F1800 X-5.213 Y6.665 E51.44025
G0 F3600 X-5.815 Y6.629
G1 F1800 X-8.356 Y4.088 E51.61953
G0 F3600 X-8.99 Y4.02
G1 F1800 X-6.418 Y6.592 E51.801
G0 F3600 X-7.021 Y6.554
G1 F1800 X-10.126 Y3.449 E52.02007
G0 F3600 X-10.435 Y3.706
G1 F1800 X-7.624 Y6.518 E52.21844
G0 F3600 X-8.227 Y6.48
G1 F1800 X-10.8 Y3.907 E52.39998
G0 F3600 X-11.206 Y4.067
G1 F1800 X-8.828 Y6.444 E52.56772
G0 F3600 X-9.43 Y6.408
G1 F1800 X-11.66 Y4.179 E52.72503
G0 F3600 X-12.187 Y4.217
G1 F1800 X-10.032 Y6.372 E52.87707
G0 F3600 X-10.634 Y6.335
G1 F1800 X-12.78 Y4.19 E53.02845
G0 F3600 X-13.511 Y4.024
G1 F1800 X-11.237 Y6.298 E53.18889
G0 F3600 X-11.839 Y6.262
G1 F1800 X-15.592 Y2.509 E53.45369
G0 F3600 X-15.708 Y2.959
G1 F1800 X-12.441 Y6.226 E53.68419
G0 F3600 X-13.043 Y6.189
G1 F1800 X-15.89 Y3.342 E53.88506
G0 F3600 X-16.141 Y3.657
G1 F1800 X-13.646 Y6.152 E54.0611
G0 F3600 X-14.248 Y6.115
G1 F1800 X-16.485 Y3.879 E54.2189
G0 F3600 X-16.877 Y4.053
G1 F1800 X-14.851 Y6.078 E54.36181
G0 F3600 X-15.453 Y6.042
G1 F1800 X-17.43 Y4.065 E54.50129
G1 X-17.5 Y3.995
G0 F3600 X-18.254 Y3.807
G1 F1800 X-16.056 Y6.005 E54.65638
G0 F3600 X-16.658 Y5.968
G1 F1800 X-19.753 Y2.873 E54.87474
G0 F3600 X-19.97 Y3.222
G1 F1800 X-17.261 Y5.931 E55.06588
G0 F3600 X-17.863 Y5.895
G1 F1800 X-20.265 Y3.493 E55.23535
G0 F3600 X-20.576 Y3.747
G1 F1800 X-18.466 Y5.858 E55.38426
G0 F3600 X-19.068 Y5.821
G1 F1800 X-20.955 Y3.935 E55.51736
G0 F3600 X-21.373 Y4.082
G1 F1800 X-19.671 Y5.784 E55.63745
G0 F3600 X-20.273 Y5.748
G1 F1800 X-21.834 Y4.186 E55.74762
G0 F3600 X-22.373 Y4.213
G1 F1800 X-20.875 Y5.712 E55.85335
G0 F3600 X-21.477 Y5.675
G1 F1800 X-22.977 Y4.175 E55.95918
G0 F3600 X-23.731 Y3.986
G1 F1800 X-22.08 Y5.637 E56.07567
G0 F3600 X-22.683 Y5.6
G1 F1800 X-24.726 Y3.558 E56.21978
G0 F3600 X-24.726 Y4.123
G1 F1800 X-23.287 Y5.562 E56.32131
G0 F3600 X-23.891 Y5.524
G1 F1800 X-24.726 Y4.689 E56.38022
G1 X-24.796 Y4.619
G0 F3600 X-21.4 Y3.34
G0 X-20.507 Y2.72
G0 X-20.189 Y1.912
G0 X-20.655 Y1.24
G0 X-22.364 Y0.828
G1 F1800 X-22.732 Y0.461 E56.40615
G0 F3600 X-22.76 Y-.132
G1 F1800 X-22.029 Y0.598 E56.45769
G0 F3600 X-21.647 Y0.414
G1 F1800 X-22.698 Y-.636 E56.53181
G0 F3600 X-22.375 Y-.879
G1 F1800 X-21.117 Y0.378 E56.62053
G0 F3600 X-20.363 Y0.566
G1 F1800 X-21.375 Y-.444 E56.69186
G0 F3600 X-20.825 Y-.461
G1 F1800 X-18.879 Y1.485 E56.82916
G0 F3600 X-18.879 Y0.919
G1 F1800 X-20.412 Y-.613 E56.93729
G0 F3600 X-20.057 Y-.823
G1 F1800 X-18.878 Y0.354 E57.02041
G0 F3600 X-18.88 Y-.212
G1 F1800 X-19.48 Y-.812 E57.06274
G1 X-19.55 Y-.882
G0 F3600 X-19.64 Y1.289
G1 F1800 X-18.876 Y2.053 E57.11664
G0 F3600 X-18.915 Y2.58
G1 F1800 X-19.465 Y2.03 E57.15545
G0 F3600 X-19.55 Y2.511
G1 F1800 X-18.55 Y3.51 E57.22597
G1 X-18.48 Y3.58
G0 F3600 X-17.069 Y3.337
G0 X-15.595 Y1.941
G1 F1800 X-14.889 Y2.646 E57.27575
G0 F3600 X-14.943 Y2.027
G1 F1800 X-15.602 Y1.368 E57.32224
G0 F3600 X-15.599 Y0.805
G1 F1800 X-14.864 Y1.54 E57.3741
G0 F3600 X-14.65 Y1.188
G1 F1800 X-15.599 Y0.239 E57.44106
G0 F3600 X-15.599 Y-.325
G1 F1800 X-14.381 Y0.891 E57.52692
G0 F3600 X-14.027 Y0.68
G1 F1800 X-15.537 Y-.83 E57.63346
G0 F3600 X-15.011 Y-.869
G1 F1800 X-14.285 Y-.143 E57.68468
G0 F3600 X-14.231 Y-.654
G1 F1800 X-14.596 Y-1.02 E57.71047
G0 F3600 X-16.437 Y2.853
G0 X-17.477 Y3.334
G0 X-21.209 Y-1.161
G0 X-20.279 Y-1.769
G0 X-20.573 Y-2.881
G0 X-21.608 Y-3.476
G0 X-22.825 Y-3.542
G0 X-23.995 Y-3.128
G0 X-24.796 Y-2.32
G0 X-25.256 Y-1.424
G0 X-25.195 Y-1.437
;TYPE:SKIN
G1 F1800 X-25.358 Y-1.317 E57.71658
G1 X-25.404 Y0.333 E57.7664
G1 X-25.351 Y1.234 E57.79363
G0 F3600 X-25.444 Y1.425
G1 F1800 X-25.501 Y1.368 E57.79565
;MESH:NONMESH
G0 F600 X-25.501 Y1.368 Z0.7
G0 F3600 X-25.397 Y1.368
G0 X-24.761 Y2.326
G0 X-23.771 Y3.186
G0 X-22.676 Y3.486
G0 X-11.853 Y3.473
G0 X-6.455 Y3.279
G0 X-5.289 Y2.893
G0 X-4.14 Y1.241
G0 X-1.619 Y-1.598
G0 X-.903 Y-1.963
G0 X9.871 Y-1.959
G0 X12.549 Y-.446
G0 X12.787 Y-.579
;TIME_ELAPSED:47.847837
;LAYER:1
M106 S255
;TYPE:WALL-INNER
;MESH:benchy.stl
G1 F2700 X12.975 Y-.207 E57.82337
G1 X13.008 Y0.01 E57.83797
G1 X12.956 Y0.261 E57.85502
G1 X12.672 Y0.763 E57.89339
G1 X12.343 Y1.277 E57.93399
G1 X12.055 Y1.685 E57.96721
G1 X11.744 Y2.095 E58.00144
G1 X11.352 Y2.575 E58.04266
G1 X10.983 Y2.986 E58.0794
G1 X10.622 Y3.366 E58.11427
G1 X10.248 Y3.732 E58.14908
G1 X9.862 Y4.085 E58.18387
G1 X9.416 Y4.461 E58.22268
G1 X9.002 Y4.785 E58.25765
G1 X8.584 Y5.091 E58.29211
G1 X8.169 Y5.371 E58.32541
G1 X7.665 Y5.683 E58.36484
G1 X7.227 Y5.934 E58.39842
G1 X6.776 Y6.173 E58.43238
G1 X6.275 Y6.417 E58.46944
G1 X5.792 Y6.631 E58.50459
G1 X5.316 Y6.821 E58.53868
G1 X4.692 Y7.042 E58.58271
G1 X4.141 Y7.212 E58.62107
G1 X3.648 Y7.343 E58.655
G1 X3.122 Y7.464 E58.69091
G1 X2.539 Y7.576 E58.7304
G1 X1.85 Y7.677 E58.77672
G1 X1.035 Y7.755 E58.83118
G1 X0.462 Y7.78 E58.86933
G1 X-.196 Y7.786 E58.91311
G1 X-.776 Y7.766 E58.95171
G1 X-4.791 Y7.508 E59.21934
G1 X-4.994 Y7.493 E59.23288
G1 X-5.501 Y7.464 E59.26666
G1 X-5.704 Y7.448 E59.28021
G1 X-6.951 Y7.371 E59.36332
G1 X-7.159 Y7.355 E59.37719
G1 X-7.689 Y7.324 E59.41251
G1 X-7.899 Y7.308 E59.42652
G1 X-8.433 Y7.276 E59.4621
G1 X-8.645 Y7.26 E59.47625
G1 X-9.185 Y7.228 E59.51223
G1 X-9.398 Y7.212 E59.52644
G1 X-9.946 Y7.179 E59.56296
G1 X-10.926 Y7.115 E59.62829
G1 X-11.481 Y7.082 E59.66527
G1 X-15.38 Y6.833 E59.92516
G1 X-16.071 Y6.791 E59.97121
G1 X-16.953 Y6.733 E60.03001
G1 X-17.647 Y6.691 E60.07626
G1 X-18.529 Y6.633 E60.13506
G1 X-19.222 Y6.591 E60.18124
G1 X-23.869 Y6.294 E60.49099
G1 X-24.357 Y6.265 E60.52351
G1 X-24.709 Y6.195 E60.54738
G1 X-24.996 Y6.05 E60.56877
G1 X-25.208 Y5.848 E60.58825
G1 X-25.361 Y5.58 E60.60878
G1 X-25.451 Y5.207 E60.6343
G1 X-25.462 Y4.907 E60.65427
G1 X-25.463 Y-5.034 E61.31555
G1 X-25.419 Y-5.408 E61.3406
G1 X-25.282 Y-5.737 E61.36431
G1 X-25.106 Y-5.958 E61.3831
G1 X-24.879 Y-6.121 E61.40169
G1 X-24.37 Y-6.263 E61.43684
G1 X-5.319 Y-7.474 E62.70668
G1 X-.784 Y-7.765 E63.00897
G1 X-.164 Y-7.787 E63.05024
G1 X0.414 Y-7.783 E63.08869
G1 X1.118 Y-7.748 E63.13558
G1 X1.881 Y-7.673 E63.18657
G1 X2.686 Y-7.551 E63.24074
G1 X3.237 Y-7.439 E63.27814
G1 X3.74 Y-7.318 E63.31255
G1 X4.422 Y-7.126 E63.35968
G1 X5.067 Y-6.912 E63.40489
G1 X5.795 Y-6.63 E63.45682
G1 X6.395 Y-6.362 E63.50053
G1 X6.95 Y-6.086 E63.54176
G1 X7.408 Y-5.836 E63.57647
G1 X7.874 Y-5.558 E63.61257
G1 X8.373 Y-5.236 E63.65207
G1 X8.784 Y-4.948 E63.68546
G1 X9.369 Y-4.501 E63.73443
G1 X9.947 Y-4.011 E63.78484
G1 X10.518 Y-3.472 E63.83707
G1 X10.853 Y-3.129 E63.86896
G1 X11.365 Y-2.559 E63.91993
G1 X11.758 Y-2.078 E63.96125
G1 X12.058 Y-1.68 E63.9944
G1 X12.432 Y-1.141 E64.03804
G1 X12.787 Y-.579 E64.08226
G0 F5400 X13.139 Y-.769
;TYPE:WALL-OUTER
G1 F1800 X13.36 Y-.333 E64.11478
G1 X13.414 Y0.023 E64.13873
G1 X13.336 Y0.402 E64.16447
G1 X13.009 Y0.979 E64.20859
G1 X12.68 Y1.493 E64.24918
G1 X12.374 Y1.927 E64.28451
G1 X12.063 Y2.337 E64.31874
G1 X11.656 Y2.835 E64.36152
G1 X11.273 Y3.262 E64.39968
G1 X10.902 Y3.652 E64.43548
G1 X10.528 Y4.018 E64.47029
G1 X10.12 Y4.391 E64.50707
G1 X9.663 Y4.776 E64.54682
G1 X9.249 Y5.1 E64.58179
G1 X8.808 Y5.423 E64.61815
G1 X8.393 Y5.703 E64.65145
G1 X7.873 Y6.025 E64.69214
G1 X7.422 Y6.283 E64.7267
G1 X6.951 Y6.533 E64.76217
G1 X6.444 Y6.78 E64.79968
G1 X5.94 Y7.003 E64.83635
G1 X5.463 Y7.193 E64.8705
G1 X4.825 Y7.419 E64.91552
G1 X4.259 Y7.594 E64.95493
G1 X3.738 Y7.733 E64.9908
G1 X3.204 Y7.856 E65.02725
G1 X2.607 Y7.971 E65.0677
G1 X1.906 Y8.073 E65.11482
G1 X1.052 Y8.155 E65.17189
G1 X0.479 Y8.18 E65.21004
G1 X-.207 Y8.186 E65.25568
G1 X-.79 Y8.166 E65.29448
G1 X-4.821 Y7.907 E65.56318
G1 X-5.02 Y7.892 E65.57645
G1 X-5.533 Y7.863 E65.61063
G1 X-5.732 Y7.847 E65.62391
G1 X-6.982 Y7.77 E65.70722
G1 X-7.186 Y7.754 E65.72083
G1 X-7.72 Y7.723 E65.75641
G1 X-7.926 Y7.707 E65.77016
G1 X-8.464 Y7.675 E65.80601
G1 X-8.672 Y7.659 E65.81988
G1 X-9.216 Y7.627 E65.85613
G1 X-9.425 Y7.611 E65.87008
G1 X-9.972 Y7.578 E65.90653
G1 X-10.951 Y7.514 E65.97179
G1 X-11.506 Y7.481 E66.00878
G1 X-15.405 Y7.232 E66.26867
G1 X-16.097 Y7.19 E66.31478
G1 X-16.978 Y7.132 E66.37352
G1 X-17.673 Y7.09 E66.41983
G1 X-18.554 Y7.032 E66.47856
G1 X-19.248 Y6.99 E66.52481
G1 X-23.894 Y6.693 E66.8345
G1 X-24.408 Y6.662 E66.86875
G1 X-24.843 Y6.576 E66.89825
G1 X-25.227 Y6.381 E66.9269
G1 X-25.525 Y6.098 E66.95423
G1 X-25.737 Y5.727 E66.98266
G1 X-25.85 Y5.261 E67.01455
G1 X-25.862 Y4.907 E67.03812
G1 X-25.863 Y-5.056 E67.70086
G1 X-25.809 Y-5.511 E67.73134
G1 X-25.629 Y-5.943 E67.76247
G1 X-25.383 Y-6.252 E67.78874
G1 X-25.069 Y-6.478 E67.81448
G1 X-24.625 Y-6.635 E67.8458
G1 X-24.406 Y-6.661 E67.86047
G1 X-5.344 Y-7.873 E69.13104
G1 X-.798 Y-8.165 E69.43407
G1 X-.175 Y-8.187 E69.47553
G1 X0.434 Y-8.183 E69.51605
G1 X1.138 Y-8.148 E69.56293
G1 X1.924 Y-8.071 E69.61547
G1 X2.763 Y-7.943 E69.67193
G1 X3.326 Y-7.829 E69.71014
G1 X3.838 Y-7.706 E69.74516
G1 X4.548 Y-7.506 E69.79423
G1 X5.193 Y-7.292 E69.83944
G1 X5.947 Y-7 E69.89322
G1 X6.567 Y-6.723 E69.9384
G1 X7.142 Y-6.437 E69.98111
G1 X7.6 Y-6.187 E70.01582
G1 X8.079 Y-5.901 E70.05293
G1 X8.603 Y-5.564 E70.09438
G1 X9.014 Y-5.276 E70.12776
G1 X9.619 Y-4.814 E70.1784
G1 X10.222 Y-4.302 E70.23102
G1 X10.793 Y-3.763 E70.28325
G1 X11.151 Y-3.396 E70.31736
G1 X11.669 Y-2.819 E70.36894
G1 X12.068 Y-2.331 E70.41087
G1 X12.387 Y-1.908 E70.44611
G1 X12.761 Y-1.369 E70.48975
G1 X13.139 Y-.769 E70.53692
G0 F5400 X13.229 Y-.591
G0 X12.452 Y-.378
;TYPE:SKIN
G1 F1800 X12.612 Y0.001 E70.56429
G1 X12.586 Y0.125 E70.57272
G1 X12.344 Y0.553 E70.60542
G1 X12.02 Y1.059 E70.64539
G1 X11.745 Y1.449 E70.67714
G1 X11.442 Y1.848 E70.71046
G1 X11.062 Y2.314 E70.75046
G1 X10.7 Y2.717 E70.7865
G1 X10.349 Y3.087 E70.82042
G1 X9.98 Y3.448 E70.85476
G1 X9.599 Y3.797 E70.88913
G1 X9.176 Y4.153 E70.92591
G1 X8.762 Y4.477 E70.96088
G1 X7.957 Y5.043 E71.02634
G1 X7.466 Y5.347 E71.06475
G1 X6.605 Y5.822 E71.13016
G1 X6.11 Y6.063 E71.16679
G1 X5.641 Y6.272 E71.20094
G1 X5.186 Y6.453 E71.23352
G1 X4.569 Y6.671 E71.27705
G1 X4.029 Y6.838 E71.31465
G1 X3.554 Y6.964 E71.34734
G1 X3.041 Y7.082 E71.38235
G1 X2.474 Y7.191 E71.42076
G1 X1.795 Y7.291 E71.46641
G1 X1.018 Y7.365 E71.51833
G1 X0.445 Y7.39 E71.55649
G1 X-.186 Y7.396 E71.59846
G1 X-.751 Y7.376 E71.63607
G1 X-4.861 Y7.112 E71.91003
G1 X-4.968 Y7.103 E71.91717
G1 X-5.517 Y7.072 E71.95375
G1 X-5.676 Y7.058 E71.96437
G1 X-6.979 Y6.978 E72.05121
G1 X-7.132 Y6.965 E72.06142
G1 X-7.707 Y6.932 E72.09974
G1 X-7.872 Y6.918 E72.11075
G1 X-8.478 Y6.882 E72.15113
G1 X-8.619 Y6.87 E72.16055
G1 X-9.232 Y6.834 E72.20139
G1 X-9.371 Y6.822 E72.21067
G1 X-9.922 Y6.789 E72.24739
G1 X-10.903 Y6.725 E72.31279
G1 X-11.458 Y6.692 E72.34977
G1 X-15.357 Y6.443 E72.60966
G1 X-16.046 Y6.401 E72.65558
G1 X-16.928 Y6.343 E72.71438
G1 X-17.622 Y6.301 E72.76063
G1 X-18.504 Y6.243 E72.81942
G1 X-19.198 Y6.201 E72.86567
G1 X-23.845 Y5.904 E73.17542
G1 X-24.575 Y5.825 E73.22427
G1 X-24.77 Y5.726 E73.23882
G1 X-24.899 Y5.604 E73.25063
G1 X-24.995 Y5.435 E73.26356
G1 X-25.063 Y5.155 E73.28272
G1 X-25.072 Y4.907 E73.29923
G1 X-25.073 Y-5.006 E73.95865
G1 X-25.037 Y-5.311 E73.97908
G1 X-24.943 Y-5.537 E73.99536
G1 X-24.71 Y-5.763 E74.01695
G1 X-24.306 Y-5.875 E74.04484
G1 X-5.294 Y-7.084 E75.31208
G1 X-.759 Y-7.375 E75.61437
G1 X-.152 Y-7.397 E75.65477
G1 X0.395 Y-7.393 E75.69116
G1 X1.099 Y-7.358 E75.73805
G1 X1.825 Y-7.287 E75.78657
G1 X2.628 Y-7.165 E75.8406
G1 X3.153 Y-7.058 E75.87624
G1 X3.616 Y-6.947 E75.90791
G1 X4.317 Y-6.75 E75.95635
G1 X4.944 Y-6.542 E76.00029
G1 X5.621 Y-6.28 E76.04858
G1 X6.228 Y-6.009 E76.0928
G1 X6.763 Y-5.743 E76.13254
G1 X7.221 Y-5.493 E76.16725
G1 X7.669 Y-5.226 E76.20195
G1 X8.149 Y-4.916 E76.23996
G1 X8.56 Y-4.628 E76.27334
G1 X9.117 Y-4.203 E76.31995
G1 X9.695 Y-3.713 E76.37035
G1 X10.239 Y-3.199 E76.42014
G1 X10.568 Y-2.862 E76.45146
G1 X11.063 Y-2.312 E76.50069
G1 X11.451 Y-1.837 E76.54149
G1 X11.746 Y-1.446 E76.57407
G1 X12.102 Y-.933 E76.6156
G1 X12.452 Y-.378 E76.65925
G0 F5400 X11.38 Y1.629
G1 F1800 X8.767 Y4.243 E76.90511
G1 X8.697 Y4.313
G0 F5400 X7.105 Y5.339
G1 F1800 X12.421 Y0.023 E77.40521
G0 F5400 X12.245 Y-.366
G1 F1800 X5.935 Y5.943 E77.99877
G1 X5.865 Y6.013
G0 F5400 X4.978 Y6.334
G1 F1800 X12.026 Y-.712 E78.66171
G0 F5400 X11.799 Y-1.051
G1 F1800 X4.129 Y6.618 E79.38321
G0 F5400 X3.359 Y6.822
G1 F1800 X11.565 Y-1.383 E80.15513
G0 F5400 X11.322 Y-1.706
G1 F1800 X2.641 Y6.974 E80.97174
G0 F5400 X1.967 Y7.083
G1 F1800 X11.068 Y-2.017 E81.82786
G0 F5400 X10.808 Y-2.323
G1 F1800 X1.331 Y7.153 E82.71935
G0 F5400 X0.721 Y7.197
G1 F1800 X10.54 Y-2.621 E83.64301
G0 F5400 X10.266 Y-2.912
G1 F1800 X0.141 Y7.212 E84.59546
G0 F5400 X-.418 Y7.206
G1 F1800 X9.982 Y-3.194 E85.57383
G0 F5400 X9.691 Y-3.469
G1 F1800 X-.958 Y7.181 E86.57567
G0 F5400 X-1.489 Y7.146
G1 F1800 X9.391 Y-3.734 E87.59919
G0 F5400 X9.085 Y-3.994
G1 F1800 X-2.021 Y7.112 E88.64398
G0 F5400 X-2.553 Y7.078
G1 F1800 X8.768 Y-4.242 E89.70894
G0 F5400 X8.446 Y-4.486
G1 F1800 X-3.085 Y7.044 E90.79366
G0 F5400 X-3.616 Y7.01
G1 F1800 X8.114 Y-4.719 E91.8971
G0 F5400 X7.772 Y-4.944
G1 F1800 X-4.147 Y6.976 E93.01841
G0 F5400 X-4.679 Y6.942
G1 F1800 X7.424 Y-5.161 E94.15699
G0 F5400 X7.068 Y-5.371
G1 F1800 X-5.211 Y6.908 E95.31212
G0 F5400 X-5.742 Y6.873
G1 F1800 X6.701 Y-5.57 E96.48268
G0 F5400 X6.324 Y-5.758
G1 F1800 X-6.274 Y6.84 E97.66783
G0 F5400 X-6.808 Y6.808
G1 F1800 X5.939 Y-5.939 E98.86699
G0 F5400 X5.548 Y-6.114
G1 F1800 X-7.339 Y6.773 E100.07932
G0 F5400 X-7.87 Y6.739
G1 F1800 X5.14 Y-6.272 E101.30326
G0 F5400 X4.727 Y-6.424
G1 F1800 X-8.402 Y6.705 E102.53836
G0 F5400 X-8.933 Y6.67
G1 F1800 X4.302 Y-6.564 E103.78338
G0 F5400 X3.861 Y-6.689
G1 F1800 X-9.465 Y6.636 E105.03696
G0 F5400 X-9.997 Y6.603
G1 F1800 X3.416 Y-6.81 E106.29877
G0 F5400 X2.954 Y-6.914
G1 F1800 X-10.528 Y6.569 E107.56713
G0 F5400 X-11.06 Y6.535
G1 F1800 X2.479 Y-7.005 E108.84084
G0 F5400 X1.988 Y-7.079
G1 F1800 X-11.593 Y6.502 E110.11846
G0 F5400 X-12.125 Y6.468
G1 F1800 X1.482 Y-7.139 E111.39852
G0 F5400 X0.961 Y-7.184
G1 F1800 X-12.657 Y6.434 E112.67962
G0 F5400 X-13.188 Y6.4
G1 F1800 X0.422 Y-7.211 E113.96001
G0 F5400 X-.137 Y-7.216
G1 F1800 X-13.72 Y6.366 E115.23777
G0 F5400 X-14.252 Y6.332
G1 F1800 X-.724 Y-7.195 E116.51035
G0 F5400 X-1.327 Y-7.157
G1 F1800 X-14.784 Y6.298 E117.77621
G0 F5400 X-15.315 Y6.264
G1 F1800 X-1.932 Y-7.118 E119.03515
G0 F5400 X-2.537 Y-7.079
G1 F1800 X-15.849 Y6.232 E120.28742
G0 F5400 X-16.38 Y6.198
G1 F1800 X-3.141 Y-7.04 E121.53281
G0 F5400 X-3.746 Y-7.001
G1 F1800 X-16.911 Y6.163 E122.77125
G0 F5400 X-17.445 Y6.132
G1 F1800 X-4.35 Y-6.962 E124.0031
G0 F5400 X-4.955 Y-6.923
G1 F1800 X-17.976 Y6.097 E125.22799
G0 F5400 X-18.507 Y6.062
G1 F1800 X-5.559 Y-6.885 E126.44601
G0 F5400 X-6.163 Y-6.846
G1 F1800 X-19.04 Y6.03 E127.65735
G0 F5400 X-19.573 Y5.996
G1 F1800 X-6.767 Y-6.808 E128.86197
G0 F5400 X-7.371 Y-6.77
G1 F1800 X-20.105 Y5.963 E130.05986
G0 F5400 X-20.636 Y5.928
G1 F1800 X-7.975 Y-6.732 E131.25088
G0 F5400 X-8.58 Y-6.693
G1 F1800 X-21.167 Y5.894 E132.43499
G0 F5400 X-21.699 Y5.86
G1 F1800 X-9.183 Y-6.655 E133.61237
G0 F5400 X-9.787 Y-6.617
G1 F1800 X-22.231 Y5.826 E134.78298
G0 F5400 X-22.763 Y5.792
G1 F1800 X-10.391 Y-6.578 E135.94677
G0 F5400 X-10.996 Y-6.54
G1 F1800 X-23.294 Y5.758 E137.10369
G0 F5400 X-23.826 Y5.724
G1 F1800 X-11.6 Y-6.501 E138.25379
G0 F5400 X-12.203 Y-6.463
G1 F1800 X-24.337 Y5.67 E139.39523
G0 F5400 X-24.74 Y5.506
G1 F1800 X-12.807 Y-6.425 E140.51772
G0 F5400 X-13.412 Y-6.386
G1 F1800 X-24.885 Y5.086 E141.59698
G0 F5400 X-24.89 Y4.526
G1 F1800 X-14.016 Y-6.348 E142.61994
G0 F5400 X-14.62 Y-6.31
G1 F1800 X-24.89 Y3.96 E143.58608
G0 F5400 X-24.89 Y3.394
G1 F1800 X-15.224 Y-6.271 E144.49535
G0 F5400 X-15.828 Y-6.233
G1 F1800 X-24.89 Y2.829 E145.34785
G0 F5400 X-24.89 Y2.263
G1 F1800 X-16.432 Y-6.194 E146.14348
G0 F5400 X-17.036 Y-6.156
G1 F1800 X-24.89 Y1.697 E146.88229
G0 F5400 X-24.89 Y1.132
G1 F1800 X-17.64 Y-6.117 E147.56428
G0 F5400 X-18.244 Y-6.079
G1 F1800 X-24.89 Y0.566 E148.18945
G0 F5400 X-24.89 Y0.00
G1 F1800 X-18.848 Y-6.041 E148.75779
G0 F5400 X-19.452 Y-6.003
G1 F1800 X-24.891 Y-.564 E149.26946
G0 F5400 X-24.891 Y-1.129
G1 F1800 X-20.057 Y-5.964 E149.72426
G0 F5400 X-20.66 Y-5.926
G1 F1800 X-24.891 Y-1.695 E150.12229
G0 F5400 X-24.891 Y-2.261
G1 F1800 X-21.264 Y-5.888 E150.46349
G0 F5400 X-21.868 Y-5.849
G1 F1800 X-24.891 Y-2.827 E150.74783
G0 F5400 X-24.891 Y-3.392
G1 F1800 X-22.473 Y-5.811 E150.97535
G0 F5400 X-23.077 Y-5.772
G1 F1800 X-24.891 Y-3.958 E151.146
G0 F5400 X-24.891 Y-4.524
G1 F1800 X-23.681 Y-5.734 E151.25983
G0 F5400 X-24.287 Y-5.693
G1 F1800 X-24.878 Y-5.102 E151.31543
G1 X-24.948 Y-5.032
;MESH:NONMESH
G0 F600 X-24.948 Y-5.032 Z1.1
G0 F5400 X-20.225 Y-1.312
;TIME_ELAPSED:95.539113
;LAYER:2
;TYPE:WALL-INNER
;MESH:benchy.stl
G1 F3600 X-25.652 Y-1.313 E151.67643
G1 X-25.653 Y-5.232 E151.93712
G1 X-25.601 Y-5.636 E151.96422
G1 X-25.487 Y-5.921 E151.98464
G1 X-25.293 Y-6.168 E152.00553
G1 X-25.049 Y-6.34 E152.02539
G1 X-24.719 Y-6.45 E152.04853
G1 X-24.429 Y-6.48 E152.06792
G1 X-8.479 Y-7.539 E153.13126
G1 X-.892 Y-8.05 E153.63709
G1 X-.258 Y-8.075 E153.6793
G1 X0.228 Y-8.075 E153.71162
G1 X1.106 Y-8.038 E153.77008
G1 X1.975 Y-7.952 E153.82817
G1 X2.7 Y-7.843 E153.87694
G1 X3.534 Y-7.672 E153.93357
G1 X4.084 Y-7.533 E153.97131
G1 X4.614 Y-7.379 E154.00802
G1 X5.192 Y-7.187 E154.04854
G1 X5.779 Y-6.966 E154.09026
G1 X6.289 Y-6.752 E154.12705
G1 X6.774 Y-6.528 E154.16259
G1 X7.437 Y-6.186 E154.21221
G1 X7.895 Y-5.927 E154.24721
G1 X8.358 Y-5.642 E154.28338
G1 X8.567 Y-5.508 E154.29989
G1 X9.004 Y-5.208 E154.33515
G1 X9.486 Y-4.849 E154.37513
G1 X9.962 Y-4.468 E154.41569
G1 X10.371 Y-4.112 E154.45176
G1 X10.938 Y-3.576 E154.50366
G1 X11.3 Y-3.203 E154.53824
G1 X11.824 Y-2.615 E154.59063
G1 X11.9 Y-2.525 E154.59847
G1 X12.236 Y-2.107 E154.63414
G1 X12.55 Y-1.687 E154.66902
G1 X12.856 Y-1.249 E154.70457
G1 X13.173 Y-.758 E154.74344
G1 X13.409 Y-.36 E154.77422
G1 X13.494 Y-.1 E154.79242
G1 X13.487 Y0.135 E154.80806
G1 X13.375 Y0.418 E154.8283
G1 X13.085 Y0.895 E154.86544
G1 X12.728 Y1.437 E154.90861
G1 X12.25 Y2.092 E154.96255
G1 X11.92 Y2.5 E154.99746
G1 X11.578 Y2.9 E155.03246
G1 X11.025 Y3.486 E155.08606
G1 X10.662 Y3.842 E155.11988
G1 X10.082 Y4.364 E155.17179
G1 X9.579 Y4.777 E155.21508
G1 X9.159 Y5.096 E155.25017
G1 X8.74 Y5.391 E155.28425
G1 X8.295 Y5.683 E155.31966
G1 X7.832 Y5.964 E155.35569
G1 X7.034 Y6.398 E155.41611
G1 X6.542 Y6.637 E155.4525
G1 X6.047 Y6.856 E155.4885
G1 X5.412 Y7.108 E155.53395
G1 X4.901 Y7.288 E155.56999
G1 X4.366 Y7.455 E155.60727
G1 X3.839 Y7.598 E155.64359
G1 X3.263 Y7.732 E155.68293
G1 X2.577 Y7.863 E155.72939
G1 X1.988 Y7.951 E155.769
G1 X1.12 Y8.037 E155.82703
G1 X0.194 Y8.076 E155.88868
G1 X-.288 Y8.072 E155.92074
G1 X-.989 Y8.043 E155.96741
G1 X-1.725 Y7.992 E156.01649
G1 X-10.598 Y7.397 E156.60805
G1 X-12.445 Y7.276 E156.73118
G1 X-13.387 Y7.212 E156.79398
G1 X-14.002 Y7.173 E156.83497
G1 X-14.95 Y7.108 E156.89818
G1 X-15.57 Y7.069 E156.93951
G1 X-16.52 Y7.004 E157.00285
G1 X-17.141 Y6.965 E157.04424
G1 X-18.094 Y6.9 E157.10778
G1 X-19.335 Y6.82 E157.1905
G1 X-20.286 Y6.755 E157.25391
G1 X-20.902 Y6.716 E157.29497
G1 X-21.849 Y6.652 E157.35811
G1 X-22.461 Y6.613 E157.3989
G1 X-24.59 Y6.469 E157.54085
G1 X-24.898 Y6.405 E157.56177
G1 X-25.176 Y6.264 E157.58251
G1 X-25.402 Y6.049 E157.60326
G1 X-25.561 Y5.76 E157.6252
G1 X-25.642 Y5.442 E157.64703
G1 X-25.652 Y5.203 E157.66294
G1 X-25.654 Y1.315 E157.92157
G1 X-20.225 Y1.313 E158.28271
G1 X-20.225 Y-1.312 E158.45733
G0 F7200 X-20.625 Y-.912
;TYPE:WALL-OUTER
G1 F1800 X-26.052 Y-.913 E158.81833
G1 X-26.053 Y-5.259 E159.10743
G1 X-25.992 Y-5.736 E159.13942
G1 X-25.836 Y-6.124 E159.16724
G1 X-25.572 Y-6.461 E159.19571
G1 X-25.232 Y-6.701 E159.2234
G1 X-24.805 Y-6.843 E159.25333
G1 X-24.471 Y-6.878 E159.27567
G1 X-8.505 Y-7.938 E160.34007
G1 X-.908 Y-8.45 E160.84657
G1 X-.274 Y-8.475 E160.88878
G1 X0.245 Y-8.475 E160.9233
G1 X1.128 Y-8.438 E160.98209
G1 X2.032 Y-8.348 E161.04252
G1 X2.764 Y-8.238 E161.09176
G1 X3.625 Y-8.062 E161.15022
G1 X4.182 Y-7.921 E161.18844
G1 X4.74 Y-7.759 E161.22709
G1 X5.318 Y-7.567 E161.26761
G1 X5.934 Y-7.335 E161.31139
G1 X6.444 Y-7.121 E161.34818
G1 X6.942 Y-6.891 E161.38467
G1 X7.634 Y-6.534 E161.43647
G1 X8.105 Y-6.268 E161.47245
G1 X8.568 Y-5.983 E161.50862
G1 X8.793 Y-5.838 E161.52642
G1 X9.243 Y-5.529 E161.56274
G1 X9.737 Y-5.161 E161.60371
G1 X10.139 Y-4.838 E161.63802
G1 X10.225 Y-4.77 E161.64531
G1 X10.634 Y-4.414 E161.68138
G1 X11.213 Y-3.867 E161.73436
G1 X11.587 Y-3.481 E161.77012
G1 X12.129 Y-2.874 E161.82425
G1 X12.212 Y-2.776 E161.83279
G1 X12.548 Y-2.358 E161.86847
G1 X12.878 Y-1.916 E161.90516
G1 X13.192 Y-1.466 E161.94166
G1 X13.517 Y-.962 E161.98155
G1 X13.775 Y-.527 E162.01519
G1 X13.896 Y-.156 E162.04115
G1 X13.885 Y0.216 E162.06591
G1 X13.734 Y0.598 E162.09323
G1 X13.427 Y1.103 E162.13255
G1 X13.051 Y1.673 E162.17797
G1 X12.572 Y2.329 E162.232
G1 X12.224 Y2.76 E162.26885
G1 X11.88 Y3.162 E162.30405
G1 X11.305 Y3.772 E162.35981
G1 X10.94 Y4.13 E162.39382
G1 X10.344 Y4.667 E162.44718
G1 X9.821 Y5.096 E162.49218
G1 X9.401 Y5.415 E162.52726
G1 X8.96 Y5.725 E162.56312
G1 X8.503 Y6.025 E162.59949
G1 X8.04 Y6.306 E162.63551
G1 X7.209 Y6.758 E162.69844
G1 X6.711 Y7 E162.73527
G1 X6.208 Y7.223 E162.77187
G1 X5.551 Y7.483 E162.81887
G1 X5.02 Y7.67 E162.85632
G1 X4.48 Y7.838 E162.89394
G1 X3.93 Y7.988 E162.93186
G1 X3.355 Y8.122 E162.97114
G1 X2.636 Y8.259 E163.01983
G1 X2.045 Y8.347 E163.05957
G1 X1.142 Y8.437 E163.11994
G1 X0.208 Y8.476 E163.18212
G1 X-.305 Y8.472 E163.21625
G1 X-1.006 Y8.443 E163.26292
G1 X-1.752 Y8.391 E163.31266
G1 X-10.625 Y7.796 E163.90422
G1 X-12.472 Y7.675 E164.02735
G1 X-13.413 Y7.611 E164.09009
G1 X-14.029 Y7.572 E164.13115
G1 X-14.976 Y7.507 E164.19429
G1 X-15.597 Y7.468 E164.23568
G1 X-16.546 Y7.403 E164.29896
G1 X-17.168 Y7.364 E164.34042
G1 X-18.12 Y7.299 E164.40389
G1 X-19.362 Y7.219 E164.48668
G1 X-20.312 Y7.154 E164.55002
G1 X-20.929 Y7.115 E164.59115
G1 X-21.875 Y7.051 E164.65422
G1 X-22.488 Y7.012 E164.69508
G1 X-24.649 Y6.866 E164.83916
G1 X-25.031 Y6.786 E164.86512
G1 X-25.41 Y6.594 E164.89338
G1 X-25.721 Y6.298 E164.92194
G1 X-25.937 Y5.906 E164.95171
G1 X-26.04 Y5.5 E164.97958
G1 X-26.052 Y5.22 E164.99822
G1 X-26.054 Y0.915 E165.28459
G1 X-20.625 Y0.913 E165.64573
G1 X-20.625 Y-.912 E165.76713
G0 F7200 X-20.825 Y-.912
G0 X-20.824 Y-1.412
G0 X-19.835 Y-1.702
;TYPE:SKIN
G1 F1800 X-25.262 Y-1.703 E166.12813
G1 X-25.263 Y-5.212 E166.36155
G1 X-25.221 Y-5.532 E166.38302
G1 X-25.145 Y-5.725 E166.39682
G1 X-25.019 Y-5.886 E166.41042
G1 X-24.875 Y-5.987 E166.42212
G1 X-24.637 Y-6.066 E166.4388
G1 X-24.403 Y-6.09 E166.45445
G1 X-8.453 Y-7.149 E167.51778
G1 X-.866 Y-7.66 E168.02361
G1 X-.242 Y-7.685 E168.06516
G1 X0.212 Y-7.685 E168.09536
G1 X1.085 Y-7.648 E168.15348
G1 X1.919 Y-7.566 E168.20923
G1 X2.642 Y-7.457 E168.25786
G1 X3.45 Y-7.291 E168.31273
G1 X3.989 Y-7.155 E168.34971
G1 X4.491 Y-7.009 E168.38449
G1 X5.062 Y-6.819 E168.42452
G1 X5.642 Y-6.601 E168.46574
G1 X6.086 Y-6.415 E168.49776
G1 X6.603 Y-6.177 E168.53562
G1 X7.258 Y-5.839 E168.58465
G1 X7.69 Y-5.595 E168.61765
G1 X8.147 Y-5.314 E168.65334
G1 X8.346 Y-5.186 E168.66908
G1 X8.784 Y-4.887 E168.70436
G1 X9.242 Y-4.545 E168.74238
G1 X9.706 Y-4.174 E168.7819
G1 X10.109 Y-3.823 E168.81745
G1 X10.663 Y-3.299 E168.86817
G1 X11.014 Y-2.938 E168.90167
G1 X11.526 Y-2.363 E168.95288
G1 X11.596 Y-2.281 E168.96005
G1 X11.924 Y-1.873 E168.99488
G1 X12.23 Y-1.463 E169.02891
G1 X12.532 Y-1.031 E169.06397
G1 X12.841 Y-.553 E169.10183
G1 X13.051 Y-.201 E169.1291
G1 X13.099 Y0.054 E169.14636
G1 X13.023 Y0.247 E169.16016
G1 X12.759 Y0.68 E169.19389
G1 X12.407 Y1.214 E169.23644
G1 X11.946 Y1.847 E169.28853
G1 X11.619 Y2.251 E169.3231
G1 X11.281 Y2.647 E169.35773
G1 X10.752 Y3.207 E169.40898
G1 X10.395 Y3.557 E169.44223
G1 X9.834 Y4.062 E169.49245
G1 X9.331 Y4.475 E169.53574
G1 X8.929 Y4.781 E169.56935
G1 X8.521 Y5.068 E169.60253
G1 X8.092 Y5.35 E169.63668
G1 X7.645 Y5.621 E169.67145
G1 X6.849 Y6.054 E169.73173
G1 X6.384 Y6.28 E169.76612
G1 X5.903 Y6.493 E169.80111
G1 X5.276 Y6.742 E169.84599
G1 X4.784 Y6.916 E169.8807
G1 X4.251 Y7.082 E169.91784
G1 X3.751 Y7.218 E169.95231
G1 X3.182 Y7.35 E169.99116
G1 X2.511 Y7.478 E170.0366
G1 X1.932 Y7.565 E170.07555
G1 X1.099 Y7.647 E170.13123
G1 X0.182 Y7.686 E170.19228
G1 X-.272 Y7.682 E170.22248
G1 X-.962 Y7.653 E170.26842
G1 X-1.698 Y7.602 E170.3175
G1 X-10.571 Y7.007 E170.90906
G1 X-12.418 Y6.886 E171.03219
G1 X-13.361 Y6.822 E171.09506
G1 X-13.976 Y6.783 E171.13605
G1 X-14.925 Y6.718 E171.19933
G1 X-15.544 Y6.679 E171.24059
G1 X-16.495 Y6.614 E171.30399
G1 X-17.115 Y6.575 E171.34532
G1 X-18.068 Y6.51 E171.40886
G1 X-19.309 Y6.43 E171.49158
G1 X-20.26 Y6.365 E171.55499
G1 X-20.876 Y6.326 E171.59605
G1 X-21.823 Y6.262 E171.65919
G1 X-22.435 Y6.223 E171.69998
G1 X-24.541 Y6.081 E171.84039
G1 X-24.772 Y6.033 E171.85608
G1 X-24.944 Y5.945 E171.86894
G1 X-25.092 Y5.805 E171.88249
G1 X-25.195 Y5.618 E171.89669
G1 X-25.262 Y5.203 E171.92465
G1 X-25.264 Y1.705 E172.15734
G1 X-19.835 Y1.703 E172.51848
G1 X-19.835 Y-1.702 E172.74498
G0 F7200 X-20.197 Y1.341
G0 X-25.028 Y5.518
G1 F1800 X-24.679 Y5.867 E172.77781
G0 F7200 X-24.048 Y5.932
G1 F1800 X-25.081 Y4.899 E172.87499
G0 F7200 X-25.081 Y4.333
G1 F1800 X-23.442 Y5.973 E173.02923
G0 F7200 X-22.835 Y6.014
G1 F1800 X-25.082 Y3.767 E173.24061
G0 F7200 X-25.082 Y3.201
G1 F1800 X-22.229 Y6.054 E173.509
G0 F7200 X-21.624 Y6.093
G1 F1800 X-25.083 Y2.635 E173.83436
G0 F7200 X-25.083 Y2.069
G1 F1800 X-21.017 Y6.135 E174.21686
G0 F7200 X-20.412 Y6.174
G1 F1800 X-24.702 Y1.884 E174.62044
G0 F7200 X-24.137 Y1.884
G1 F1800 X-19.806 Y6.214 E175.02782
G0 F7200 X-19.2 Y6.255
G1 F1800 X-23.571 Y1.884 E175.43902
G0 F7200 X-23.005 Y1.884
G1 F1800 X-18.595 Y6.294 E175.85389
G0 F7200 X-17.99 Y6.334
G1 F1800 X-22.44 Y1.884 E176.27252
G0 F7200 X-21.875 Y1.883
G1 F1800 X-17.383 Y6.375 E176.6951
G0 F7200 X-16.778 Y6.414
G1 F1800 X-21.309 Y1.883 E177.12134
G0 F7200 X-20.743 Y1.883
G1 F1800 X-16.172 Y6.454 E177.55136
G0 F7200 X-15.565 Y6.496
G1 F1800 X-20.177 Y1.883 E177.98527
G0 F7200 X-19.654 Y1.842
G1 F1800 X-14.961 Y6.534 E178.42671
G0 F7200 X-14.354 Y6.576
G1 F1800 X-19.654 Y1.276 E178.92531
G0 F7200 X-19.654 Y0.71
G1 F1800 X-13.748 Y6.616 E179.48091
G0 F7200 X-13.143 Y6.655
G1 F1800 X-19.654 Y0.144 E180.09342
G0 F7200 X-19.654 Y-.42
G1 F1800 X-12.536 Y6.697 E180.76299
G0 F7200 X-11.931 Y6.736
G1 F1800 X-19.654 Y-.986 E181.48948
G0 F7200 X-19.654 Y-1.552
G1 F1800 X-11.325 Y6.776 E182.27297
G0 F7200 X-10.719 Y6.816
G1 F1800 X-23.504 Y-5.968 E183.47566
G0 F7200 X-22.974 Y-6.004
G1 F1800 X-10.113 Y6.856 E184.6855
G0 F7200 X-9.507 Y6.897
G1 F1800 X-22.443 Y-6.038 E185.90239
G0 F7200 X-21.913 Y-6.074
G1 F1800 X-8.901 Y6.937 E187.12643
G0 F7200 X-8.295 Y6.978
G1 F1800 X-21.382 Y-6.109 E188.35757
G0 F7200 X-20.852 Y-6.144
G1 F1800 X-7.689 Y7.018 E189.59582
G0 F7200 X-7.082 Y7.059
G1 F1800 X-20.322 Y-6.18 E190.84131
G0 F7200 X-19.791 Y-6.214
G1 F1800 X-6.476 Y7.1 E192.09386
G0 F7200 X-5.87 Y7.14
G1 F1800 X-19.26 Y-6.25 E193.35351
G0 F7200 X-18.73 Y-6.285
G1 F1800 X-5.263 Y7.181 E194.62035
G0 F7200 X-4.657 Y7.221
G1 F1800 X-18.2 Y-6.32 E195.8943
G0 F7200 X-17.669 Y-6.356
G1 F1800 X-4.051 Y7.262 E197.1754
G0 F7200 X-3.445 Y7.302
G1 F1800 X-17.139 Y-6.391 E198.4636
G0 F7200 X-16.608 Y-6.426
G1 F1800 X-2.839 Y7.343 E199.7589
G0 F7200 X-2.232 Y7.384
G1 F1800 X-16.078 Y-6.461 E201.0614
G0 F7200 X-15.547 Y-6.496
G1 F1800 X-1.626 Y7.424 E202.37096
G0 F7200 X-1.017 Y7.467
G1 F1800 X-15.017 Y-6.532 E203.68795
G0 F7200 X-14.487 Y-6.567
G1 F1800 X-.424 Y7.494 E205.01081
G0 F7200 X0.15 Y7.504
G1 F1800 X-13.956 Y-6.602 E206.33782
G0 F7200 X-13.425 Y-6.637
G1 F1800 X0.694 Y7.482 E207.66605
G0 F7200 X1.229 Y7.452
G1 F1800 X-12.895 Y-6.672 E208.99475
G0 F7200 X-12.365 Y-6.708
G1 F1800 X1.744 Y7.401 E210.32204
G0 F7200 X2.243 Y7.334
G1 F1800 X-11.834 Y-6.743 E211.64631
G0 F7200 X-11.304 Y-6.779
G1 F1800 X2.728 Y7.253 E212.96636
G0 F7200 X3.199 Y7.159
G1 F1800 X-10.773 Y-6.813 E214.28076
G0 F7200 X-10.243 Y-6.849
G1 F1800 X3.658 Y7.052 E215.58848
G0 F7200 X4.105 Y6.933
G1 F1800 X-9.712 Y-6.884 E216.8883
G0 F7200 X-9.182 Y-6.919
G1 F1800 X4.539 Y6.802 E218.17908
G0 F7200 X4.963 Y6.66
G1 F1800 X-8.652 Y-6.955 E219.4599
G0 F7200 X-8.121 Y-6.99
G1 F1800 X5.376 Y6.507 E220.72962
G0 F7200 X5.78 Y6.346
G1 F1800 X-7.591 Y-7.025 E221.98748
G0 F7200 X-7.061 Y-7.061
G1 F1800 X6.175 Y6.175 E223.23264
G0 F7200 X6.559 Y5.994
G1 F1800 X-6.531 Y-7.097 E224.46411
G0 F7200 X-6.001 Y-7.133
G1 F1800 X6.933 Y5.802 E225.68091
G0 F7200 X7.299 Y5.602
G1 F1800 X-5.471 Y-7.168 E226.88223
G0 F7200 X-4.941 Y-7.204
G1 F1800 X7.662 Y5.399 E228.06785
G0 F7200 X8.013 Y5.185
G1 F1800 X-4.411 Y-7.24 E229.23667
G0 F7200 X-3.881 Y-7.275
G1 F1800 X8.354 Y4.96 E230.38766
G0 F7200 X8.688 Y4.728
G1 F1800 X-3.351 Y-7.311 E231.52022
G0 F7200 X-2.821 Y-7.346
G1 F1800 X9.013 Y4.488 E232.63349
G0 F7200 X9.33 Y4.239
G1 F1800 X-2.291 Y-7.382 E233.72672
G0 F7200 X-1.761 Y-7.418
G1 F1800 X9.642 Y3.985 E234.79944
G0 F7200 X9.942 Y3.72
G1 F1800 X-1.231 Y-7.454 E235.85058
G0 F7200 X-.697 Y-7.485
G1 F1800 X10.24 Y3.452 E236.87946
G0 F7200 X10.527 Y3.173
G1 F1800 X-.15 Y-7.504 E237.88389
G0 F7200 X0.424 Y-7.494
G1 F1800 X10.806 Y2.887 E238.86052
G0 F7200 X11.081 Y2.595
G1 F1800 X1.016 Y-7.469 E239.80733
G0 F7200 X1.639 Y-7.411
G1 F1800 X11.345 Y2.294 E240.72036
G0 F7200 X11.602 Y1.985
G1 F1800 X2.289 Y-7.327 E241.59642
G0 F7200 X2.979 Y-7.203
G1 F1800 X11.851 Y1.669 E242.43105
G0 F7200 X12.09 Y1.342
G1 F1800 X3.708 Y-7.039 E243.21953
G1 X3.638 Y-7.109
G0 F7200 X4.497 Y-6.815
G1 F1800 X12.324 Y1.011 E243.95579
G0 F7200 X12.549 Y0.67
G1 F1800 X5.369 Y-6.51 E244.63125
G1 X5.299 Y-6.58
G0 F7200 X6.351 Y-6.093
G1 F1800 X12.766 Y0.321 E245.23468
G0 F7200 X12.879 Y-.13
G1 F1800 X7.536 Y-5.474 E245.73737
G1 X7.466 Y-5.544
G0 F7200 X9.343 Y-4.232
G1 F1800 X11.649 Y-1.926 E245.9543
G1 X11.719 Y-1.856
G0 F7200 X-19.984 Y-1.882
G1 F1800 X-24.035 Y-5.933 E246.33539
G0 F7200 X-24.559 Y-5.892
G1 F1800 X-20.549 Y-1.882 E246.71263
G0 F7200 X-21.115 Y-1.882
G1 F1800 X-24.934 Y-5.701 E247.0719
G0 F7200 X-25.073 Y-5.274
G1 F1800 X-21.681 Y-1.882 E247.391
G0 F7200 X-22.246 Y-1.882
G1 F1800 X-25.081 Y-4.717 E247.6577
G0 F7200 X-25.081 Y-4.151
G1 F1800 X-22.813 Y-1.883 E247.87106
G0 F7200 X-23.379 Y-1.883
G1 F1800 X-25.081 Y-3.585 E248.03117
G0 F7200 X-25.081 Y-3.02
G1 F1800 X-23.944 Y-1.883 E248.13813
G0 F7200 X-24.51 Y-1.883
G1 F1800 X-25.081 Y-2.454 E248.19185
G1 X-25.151 Y-2.524
;MESH:NONMESH
G0 F600 X-25.151 Y-2.524 Z1.5
G0 F7200 X-20.225 Y-1.553
;TIME_ELAPSED:144.876275
;LAYER:3
;TYPE:WALL-INNER
;MESH:benchy.stl
G1 F3600 X-23.463 Y-1.555 E248.40724
G1 X-25.842 Y-1.554 E248.56549
G1 X-25.842 Y-5.45 E248.82465
G1 X-25.795 Y-5.837 E248.85059
G1 X-25.671 Y-6.138 E248.87224
G1 X-25.481 Y-6.377 E248.89255
G1 X-25.249 Y-6.543 E248.91153
G1 X-24.751 Y-6.68 E248.94589
G1 X-23.584 Y-6.762 E249.02371
G1 X-23.045 Y-6.797 E249.05964
G1 X-8.067 Y-7.834 E250.05836
G1 X-2.791 Y-8.205 E250.41019
G1 X-.999 Y-8.333 E250.5297
G1 X-.349 Y-8.361 E250.57298
G1 X0.431 Y-8.36 E250.62486
G1 X1.189 Y-8.322 E250.67535
G1 X1.792 Y-8.265 E250.71564
G1 X2.298 Y-8.198 E250.74959
G1 X2.844 Y-8.112 E250.78636
G1 X3.406 Y-8 E250.82448
G1 X4.272 Y-7.788 E250.88379
G1 X4.814 Y-7.63 E250.92134
G1 X5.488 Y-7.402 E250.96867
G1 X6.012 Y-7.203 E251.00596
G1 X6.674 Y-6.919 E251.05387
G1 X7.347 Y-6.592 E251.10365
G1 X7.824 Y-6.338 E251.1396
G1 X8.261 Y-6.087 E251.17312
G1 X8.968 Y-5.639 E251.2288
G1 X9.404 Y-5.334 E251.26419
G1 X10.077 Y-4.824 E251.32036
G1 X10.585 Y-4.398 E251.36446
G1 X11.092 Y-3.936 E251.41009
G1 X11.575 Y-3.457 E251.45534
G1 X11.958 Y-3.045 E251.49276
G1 X12.484 Y-2.427 E251.54674
G1 X12.829 Y-1.985 E251.58404
G1 X13.07 Y-1.655 E251.61122
G1 X13.368 Y-1.222 E251.64619
G1 X13.683 Y-.727 E251.68522
G1 X13.942 Y-.266 E251.72039
G1 X13.993 Y-0.013 E251.73756
G1 X13.962 Y0.204 E251.75214
G1 X13.841 Y0.467 E251.7714
G1 X13.459 Y1.085 E251.81973
G1 X13.177 Y1.504 E251.85333
G1 X12.765 Y2.068 E251.89979
G1 X12.324 Y2.62 E251.94679
G1 X11.97 Y3.029 E251.98277
G1 X11.585 Y3.445 E252.02047
G1 X11.132 Y3.895 E252.06295
G1 X10.746 Y4.254 E252.09801
G1 X10.121 Y4.79 E252.15278
G1 X9.721 Y5.104 E252.18661
G1 X9.292 Y5.417 E252.22194
G1 X8.599 Y5.879 E252.27734
G1 X8.13 Y6.165 E252.31388
G1 X7.844 Y6.328 E252.33578
G1 X7.348 Y6.593 E252.37319
G1 X6.893 Y6.816 E252.40689
G1 X6.3 Y7.084 E252.45018
G1 X5.514 Y7.393 E252.50636
G1 X4.842 Y7.621 E252.55357
G1 X4.275 Y7.788 E252.59288
G1 X3.565 Y7.965 E252.64156
G1 X3.1 Y8.063 E252.67317
G1 X2.257 Y8.206 E252.73005
G1 X1.521 Y8.293 E252.77935
G1 X0.901 Y8.339 E252.8207
G1 X0.274 Y8.363 E252.86244
G1 X-.337 Y8.361 E252.90309
G1 X-.875 Y8.34 E252.9389
G1 X-1.308 Y8.313 E252.96776
G1 X-2.542 Y8.222 E253.05007
G1 X-3.703 Y8.143 E253.12748
G1 X-5.123 Y8.04 E253.22219
G1 X-5.627 Y8.008 E253.25578
G1 X-6.575 Y7.938 E253.31901
G1 X-7.091 Y7.904 E253.35341
G1 X-9.565 Y7.73 E253.51839
G1 X-10.095 Y7.696 E253.55372
G1 X-11.09 Y7.625 E253.62007
G1 X-16.78 Y7.23 E253.99948
G1 X-17.331 Y7.194 E254.03622
G1 X-24.772 Y6.68 E254.53237
G1 X-25.108 Y6.606 E254.55526
G1 X-25.372 Y6.464 E254.5752
G1 X-25.589 Y6.259 E254.59506
G1 X-25.746 Y5.983 E254.61618
G1 X-25.843 Y5.464 E254.6513
G1 X-25.842 Y1.554 E254.91139
G1 X-20.225 Y1.554 E255.28504
G1 X-20.225 Y-1.553 E255.49172
G0 F7200 X-20.625 Y-1.153
;TYPE:WALL-OUTER
G1 F1800 X-23.463 Y-1.155 E255.6805
G1 X-26.242 Y-1.154 E255.86536
G1 X-26.242 Y-5.473 E256.15266
G1 X-26.185 Y-5.94 E256.18396
G1 X-26.019 Y-6.343 E256.21295
G1 X-25.759 Y-6.67 E256.24074
G1 X-25.436 Y-6.901 E256.26716
G1 X-25.015 Y-7.05 E256.29686
G1 X-24.793 Y-7.078 E256.31175
G1 X-23.612 Y-7.161 E256.3905
G1 X-23.072 Y-7.196 E256.4265
G1 X-8.095 Y-8.233 E257.42516
G1 X-2.819 Y-8.604 E257.77699
G1 X-1.016 Y-8.733 E257.89723
G1 X-.365 Y-8.761 E257.94057
G1 X0.432 Y-8.76 E257.99359
G1 X1.223 Y-8.72 E258.04627
G1 X1.845 Y-8.662 E258.08783
G1 X2.351 Y-8.595 E258.12178
G1 X2.907 Y-8.507 E258.15923
G1 X3.501 Y-8.389 E258.19951
G1 X4.367 Y-8.177 E258.25882
G1 X4.935 Y-8.011 E258.29819
G1 X5.624 Y-7.778 E258.34657
G1 X6.17 Y-7.571 E258.38541
G1 X6.837 Y-7.285 E258.43369
G1 X7.522 Y-6.952 E258.48435
G1 X8.023 Y-6.685 E258.52212
G1 X8.469 Y-6.429 E258.55632
G1 X9.189 Y-5.972 E258.61305
G1 X9.646 Y-5.653 E258.65012
G1 X10.319 Y-5.143 E258.70629
G1 X10.854 Y-4.694 E258.75276
G1 X11.374 Y-4.22 E258.79956
G1 X11.869 Y-3.729 E258.84594
G1 X12.251 Y-3.316 E258.88336
G1 X12.799 Y-2.673 E258.93956
G1 X13.152 Y-2.221 E258.97771
G1 X13.4 Y-1.882 E259.00565
G1 X13.698 Y-1.449 E259.04062
G1 X14.032 Y-.923 E259.08206
G1 X14.321 Y-.408 E259.12135
G1 X14.399 Y-0.026 E259.14728
G1 X14.35 Y0.319 E259.17046
G1 X14.195 Y0.654 E259.19502
G1 X13.791 Y1.308 E259.24615
G1 X13.5 Y1.74 E259.2808
G1 X13.078 Y2.318 E259.32841
G1 X12.637 Y2.87 E259.37541
G1 X12.264 Y3.301 E259.41332
G1 X11.878 Y3.718 E259.45112
G1 X11.414 Y4.179 E259.49463
G1 X11.006 Y4.558 E259.53167
G1 X10.368 Y5.105 E259.58758
G1 X9.968 Y5.419 E259.6214
G1 X9.514 Y5.75 E259.65878
G1 X8.807 Y6.221 E259.71529
G1 X8.328 Y6.513 E259.7526
G1 X8.042 Y6.676 E259.7745
G1 X7.533 Y6.947 E259.81286
G1 X7.068 Y7.175 E259.84731
G1 X6.456 Y7.452 E259.892
G1 X5.642 Y7.772 E259.95018
G1 X4.955 Y8.005 E259.99843
G1 X4.388 Y8.172 E260.03775
G1 X3.662 Y8.353 E260.08753
G1 X3.171 Y8.456 E260.1209
G1 X2.312 Y8.602 E260.17886
G1 X1.551 Y8.692 E260.22983
G1 X0.919 Y8.739 E260.27199
G1 X0.288 Y8.763 E260.31399
G1 X-.353 Y8.761 E260.35663
G1 X-.891 Y8.739 E260.39245
G1 X-1.337 Y8.712 E260.42217
G1 X-2.57 Y8.621 E260.50442
G1 X-3.732 Y8.542 E260.58189
G1 X-5.15 Y8.439 E260.67647
G1 X-5.656 Y8.407 E260.71019
G1 X-6.603 Y8.337 E260.77336
G1 X-7.119 Y8.303 E260.80776
G1 X-9.592 Y8.129 E260.97267
G1 X-10.123 Y8.095 E261.00806
G1 X-11.118 Y8.024 E261.07442
G1 X-16.807 Y7.629 E261.45376
G1 X-17.358 Y7.593 E261.4905
G1 X-22.6 Y7.232 E261.84002
G1 X-24.832 Y7.077 E261.98885
G1 X-25.248 Y6.985 E262.01719
G1 X-25.609 Y6.792 E262.04442
G1 X-25.906 Y6.509 E262.07171
G1 X-26.121 Y6.134 E262.10047
G1 X-26.229 Y5.701 E262.13015
G1 X-26.243 Y5.473 E262.14535
G1 X-26.242 Y1.154 E262.43265
G1 X-20.625 Y1.154 E262.80629
G1 X-20.625 Y-1.153 E262.95976
G0 F7200 X-20.825 Y-1.153
G0 X-20.824 Y-1.653
G0 X-19.835 Y-1.943
;TYPE:SKIN
G1 F1800 X-25.452 Y-1.944 E263.3334
G1 X-25.452 Y-5.419 E263.56456
G1 X-25.413 Y-5.739 E263.586
G1 X-25.331 Y-5.938 E263.60032
G1 X-25.21 Y-6.092 E263.61335
G1 X-25.078 Y-6.185 E263.62409
G1 X-24.69 Y-6.292 E263.65086
G1 X-23.557 Y-6.372 E263.72642
G1 X-23.02 Y-6.407 E263.76221
G1 X-8.042 Y-7.444 E264.76094
G1 X-2.764 Y-7.815 E265.1129
G1 X-.971 Y-7.943 E265.23247
G1 X-.332 Y-7.971 E265.27502
G1 X0.411 Y-7.97 E265.32445
G1 X1.169 Y-7.932 E265.37493
G1 X1.755 Y-7.877 E265.41408
G1 X2.199 Y-7.819 E265.44387
G1 X2.783 Y-7.727 E265.4832
G1 X3.318 Y-7.62 E265.51949
G1 X4.171 Y-7.412 E265.57789
G1 X4.697 Y-7.258 E265.61435
G1 X5.35 Y-7.037 E265.66021
G1 X5.858 Y-6.844 E265.69636
G1 X6.52 Y-6.56 E265.74428
G1 X7.164 Y-6.247 E265.79191
G1 X7.641 Y-5.993 E265.82786
G1 X8.06 Y-5.753 E265.85998
G1 X8.744 Y-5.319 E265.91386
G1 X9.18 Y-5.014 E265.94926
G1 X9.826 Y-4.525 E266.00315
G1 X10.328 Y-4.104 E266.04673
G1 X10.823 Y-3.653 E266.09128
G1 X11.3 Y-3.18 E266.13597
G1 X11.661 Y-2.792 E266.17122
G1 X12.176 Y-2.187 E266.22407
G1 X12.517 Y-1.75 E266.26094
G1 X12.752 Y-1.429 E266.28741
G1 X13.039 Y-1.013 E266.32102
G1 X13.348 Y-.527 E266.35933
G1 X13.572 Y-.128 E266.38977
G1 X13.584 Y0.09 E266.4043
G1 X13.495 Y0.286 E266.41862
G1 X13.135 Y0.867 E266.46408
G1 X12.853 Y1.286 E266.49768
G1 X12.461 Y1.824 E266.54196
G1 X12.029 Y2.365 E266.58801
G1 X11.683 Y2.764 E266.62314
G1 X11.31 Y3.168 E266.65972
G1 X10.857 Y3.618 E266.70219
G1 X10.492 Y3.958 E266.73538
G1 X9.867 Y4.494 E266.79015
G1 X9.516 Y4.77 E266.81985
G1 X9.069 Y5.097 E266.85669
G1 X8.396 Y5.546 E266.91051
G1 X7.937 Y5.826 E266.94627
G1 X7.655 Y5.987 E266.96787
G1 X7.182 Y6.24 E267.00356
G1 X6.702 Y6.475 E267.03911
G1 X6.158 Y6.721 E267.07882
G1 X5.379 Y7.027 E267.1345
G1 X4.747 Y7.242 E267.1789
G1 X4.164 Y7.414 E267.21934
G1 X3.485 Y7.583 E267.26588
G1 X3.02 Y7.681 E267.29749
G1 X2.212 Y7.818 E267.35201
G1 X1.444 Y7.909 E267.40345
G1 X0.886 Y7.949 E267.44067
G1 X0.261 Y7.973 E267.48227
G1 X-.322 Y7.971 E267.52105
G1 X-.851 Y7.95 E267.55627
G1 X-1.387 Y7.917 E267.59199
G1 X-2.514 Y7.832 E267.66717
G1 X-3.676 Y7.753 E267.74465
G1 X-5.096 Y7.65 E267.83936
G1 X-5.764 Y7.607 E267.88388
G1 X-6.548 Y7.548 E267.93618
G1 X-7.066 Y7.514 E267.97071
G1 X-9.54 Y7.34 E268.13569
G1 X-10.193 Y7.298 E268.17922
G1 X-16.753 Y6.84 E268.61666
G1 X-17.306 Y6.804 E268.65352
G1 X-24.72 Y6.292 E269.14787
G1 X-24.973 Y6.236 E269.16511
G1 X-25.277 Y6.018 E269.19
G1 X-25.374 Y5.849 E269.20296
G1 X-25.453 Y5.424 E269.23171
G1 X-25.452 Y1.944 E269.4632
G1 X-19.835 Y1.944 E269.83685
G1 X-19.835 Y-1.943 E270.09541
G0 F7200 X-24.416 Y-6.13
G1 F1800 X-25.271 Y-5.275 E270.17585
G0 F7200 X-25.271 Y-4.71
G1 F1800 X-23.807 Y-6.173 E270.31352
G0 F7200 X-23.2 Y-6.214
G1 F1800 X-25.271 Y-4.144 E270.5083
G0 F7200 X-25.271 Y-3.578
G1 F1800 X-22.593 Y-6.256 E270.76023
G0 F7200 X-21.986 Y-6.298
G1 F1800 X-25.271 Y-3.012 E271.06931
G0 F7200 X-25.271 Y-2.447
G1 F1800 X-21.377 Y-6.34 E271.43559
G0 F7200 X-20.77 Y-6.382
G1 F1800 X-25.029 Y-2.123 E271.83625
G0 F7200 X-24.463 Y-2.123
G1 F1800 X-20.162 Y-6.424 E272.24086
G0 F7200 X-19.555 Y-6.466
G1 F1800 X-23.898 Y-2.123 E272.64942
G0 F7200 X-23.332 Y-2.123
G1 F1800 X-18.946 Y-6.508 E273.06199
G0 F7200 X-18.339 Y-6.55
G1 F1800 X-22.766 Y-2.123 E273.47845
G0 F7200 X-22.201 Y-2.123
G1 F1800 X-17.731 Y-6.593 E273.89896
G0 F7200 X-17.124 Y-6.634
G1 F1800 X-21.635 Y-2.123 E274.32333
G0 F7200 X-21.069 Y-2.123
G1 F1800 X-16.515 Y-6.677 E274.75174
G0 F7200 X-15.908 Y-6.718
G1 F1800 X-20.503 Y-2.123 E275.18401
G0 F7200 X-19.938 Y-2.123
G1 F1800 X-15.3 Y-6.761 E275.62032
G0 F7200 X-14.692 Y-6.803
G1 F1800 X-19.654 Y-1.842 E276.08707
G0 F7200 X-19.654 Y-1.276
G1 F1800 X-14.084 Y-6.845 E276.61102
G0 F7200 X-13.477 Y-6.887
G1 F1800 X-19.654 Y-.71 E277.19211
G0 F7200 X-19.654 Y-.144
G1 F1800 X-12.869 Y-6.929 E277.8304
G0 F7200 X-12.261 Y-6.971
G1 F1800 X-19.654 Y0.42 E278.5258
G0 F7200 X-19.654 Y0.986
G1 F1800 X-11.653 Y-7.013 E279.27839
G0 F7200 X-11.046 Y-7.055
G1 F1800 X-19.654 Y1.552 E280.08813
G0 F7200 X-19.654 Y2.117
G1 F1800 X-10.438 Y-7.097 E280.95502
G0 F7200 X-9.83 Y-7.139
G1 F1800 X-23.188 Y6.217 E282.21156
G0 F7200 X-23.717 Y6.18
G1 F1800 X-19.659 Y2.123 E282.59327
G0 F7200 X-20.225 Y2.123
G1 F1800 X-24.246 Y6.144 E282.97154
G0 F7200 X-24.765 Y6.098
G1 F1800 X-20.791 Y2.123 E283.34543
G0 F7200 X-21.356 Y2.123
G1 F1800 X-25.132 Y5.899 E283.70066
G0 F7200 X-25.261 Y5.462
G1 F1800 X-21.922 Y2.123 E284.01477
G0 F7200 X-22.488 Y2.123
G1 F1800 X-25.271 Y4.906 E284.27658
G0 F7200 X-25.271 Y4.34
G1 F1800 X-23.053 Y2.123 E284.48519
G0 F7200 X-23.619 Y2.123
G1 F1800 X-25.271 Y3.775 E284.6406
G0 F7200 X-25.271 Y3.209
G1 F1800 X-24.185 Y2.123 E284.74276
G0 F7200 X-24.75 Y2.123
G1 F1800 X-25.271 Y2.643 E284.79173
G0 F7200 X-22.659 Y6.254
G1 F1800 X-9.223 Y-7.181 E286.05566
G0 F7200 X-8.615 Y-7.223
G1 F1800 X-22.129 Y6.29 E287.32692
G0 F7200 X-21.6 Y6.327
G1 F1800 X-8.007 Y-7.265 E288.60562
G0 F7200 X-7.399 Y-7.308
G1 F1800 X-21.071 Y6.363 E289.89175
G0 F7200 X-20.542 Y6.4
G1 F1800 X-6.791 Y-7.351 E291.18536
G0 F7200 X-6.182 Y-7.394
G1 F1800 X-20.013 Y6.436 E292.48645
G0 F7200 X-19.484 Y6.473
G1 F1800 X-5.574 Y-7.436 E293.79497
G0 F7200 X-4.965 Y-7.479
G1 F1800 X-18.954 Y6.509 E295.11092
G0 F7200 X-18.425 Y6.546
G1 F1800 X-4.357 Y-7.522 E296.43436
G0 F7200 X-3.749 Y-7.564
G1 F1800 X-17.896 Y6.583 E297.76522
G0 F7200 X-17.367 Y6.619
G1 F1800 X-3.14 Y-7.607 E299.10356
G0 F7200 X-2.531 Y-7.65
G1 F1800 X-16.836 Y6.653 E300.44919
G0 F7200 X-16.306 Y6.689
G1 F1800 X-1.922 Y-7.694 E301.8023
G0 F7200 X-1.313 Y-7.737
G1 F1800 X-15.778 Y6.727 E303.16304
G0 F7200 X-15.249 Y6.764
G1 F1800 X-.712 Y-7.773 E304.53059
G0 F7200 X-.129 Y-7.79
G1 F1800 X-14.72 Y6.8 E305.90317
G0 F7200 X-14.191 Y6.837
G1 F1800 X0.433 Y-7.787 E307.27891
G0 F7200 X0.972 Y-7.761
G1 F1800 X-13.663 Y6.875 E308.65573
G0 F7200 X-13.134 Y6.911
G1 F1800 X1.497 Y-7.72 E310.03212
G0 F7200 X2.006 Y-7.663
G1 F1800 X-12.605 Y6.948 E311.40663
G0 F7200 X-12.076 Y6.985
G1 F1800 X2.498 Y-7.589 E312.77767
G0 F7200 X2.979 Y-7.504
G1 F1800 X-11.547 Y7.022 E314.14418
G0 F7200 X-11.019 Y7.059
G1 F1800 X3.445 Y-7.404 E315.50482
G0 F7200 X3.898 Y-7.293
G1 F1800 X-10.49 Y7.096 E316.8584
G0 F7200 X-9.96 Y7.131
G1 F1800 X4.344 Y-7.172 E318.20399
G0 F7200 X4.777 Y-7.039
G1 F1800 X-9.429 Y7.166 E319.54036
G0 F7200 X-8.901 Y7.204
G1 F1800 X5.2 Y-6.897 E320.86689
G0 F7200 X5.613 Y-6.744
G1 F1800 X-8.372 Y7.24 E322.18247
G0 F7200 X-7.843 Y7.278
G1 F1800 X6.015 Y-6.581 E323.48619
G0 F7200 X6.41 Y-6.41
G1 F1800 X-7.315 Y7.315 E324.77735
G0 F7200 X-6.785 Y7.351
G1 F1800 X6.793 Y-6.227 E326.05469
G0 F7200 X7.17 Y-6.039
G1 F1800 X-6.257 Y7.389 E327.31787
G0 F7200 X-5.73 Y7.427
G1 F1800 X7.539 Y-5.842 E328.56613
G0 F7200 X7.899 Y-5.637
G1 F1800 X-5.2 Y7.462 E329.79841
G0 F7200 X-4.671 Y7.5
G1 F1800 X8.248 Y-5.419 E331.01375
G0 F7200 X8.594 Y-5.2
G1 F1800 X-4.143 Y7.537 E332.21196
G0 F7200 X-3.616 Y7.575
G1 F1800 X8.929 Y-4.969 E333.39207
G0 F7200 X9.256 Y-4.73
G1 F1800 X-3.087 Y7.612 E334.55318
G0 F7200 X-2.557 Y7.648
G1 F1800 X9.578 Y-4.487 E335.69477
G0 F7200 X9.891 Y-4.234
G1 F1800 X-2.031 Y7.688 E336.81632
G0 F7200 X-1.505 Y7.727
G1 F1800 X10.199 Y-3.976 E337.91731
G0 F7200 X10.495 Y-3.707
G1 F1800 X-.973 Y7.761 E338.99615
G0 F7200 X-.432 Y7.786
G1 F1800 X10.787 Y-3.433 E340.05156
G0 F7200 X11.071 Y-3.152
G1 F1800 X0.127 Y7.792 E341.08111
G0 F7200 X0.709 Y7.775
G1 F1800 X11.347 Y-2.862 E342.08182
G0 F7200 X11.616 Y-2.565
G1 F1800 X1.312 Y7.738 E343.05111
G0 F7200 X1.949 Y7.667
G1 F1800 X11.876 Y-2.259 E343.98493
G0 F7200 X12.131 Y-1.949
G1 F1800 X2.615 Y7.566 E344.88009
G0 F7200 X3.313 Y7.434
G1 F1800 X12.379 Y-1.631 E345.73292
G0 F7200 X12.616 Y-1.303
G1 F1800 X4.06 Y7.253 E346.53782
G1 X3.99 Y7.323
G0 F7200 X4.867 Y7.011
G1 F1800 X12.848 Y-.968 E347.28852
G0 F7200 X13.07 Y-.625
G1 F1800 X5.762 Y6.682 E347.97597
G1 X5.692 Y6.752
G0 F7200 X6.769 Y6.241
G1 F1800 X13.283 Y-.272 E348.58872
G0 F7200 X13.27 Y0.306
G1 F1800 X8.001 Y5.574 E349.08435
G1 X7.931 Y5.644
G0 F7200 X10.001 Y4.14
G1 F1800 X11.874 Y2.267 E349.26055
G1 X11.944 Y2.197
;MESH:NONMESH
G0 F600 X11.944 Y2.197 Z1.9
G0 F7200 X-20.155 Y-1.623
G0 X-20.225 Y-1.593
;TIME_ELAPSED:196.272018
;LAYER:4
;TYPE:WALL-INNER
;MESH:benchy.stl
G1 F3600 X-26.031 Y-1.595 E349.64677
G1 X-26.03 Y-5.691 E349.91923
G1 X-25.959 Y-6.12 E349.94816
G1 X-25.826 Y-6.399 E349.96872
G1 X-25.616 Y-6.632 E349.98958
G1 X-25.358 Y-6.789 E350.00967
G1 X-24.946 Y-6.888 E350.03786
G1 X-8.246 Y-8.089 E351.15162
G1 X-1.107 Y-8.615 E351.62779
G1 X-.44 Y-8.646 E351.67221
G1 X0.34 Y-8.648 E351.7241
G1 X1.149 Y-8.612 E351.77796
G1 X2.063 Y-8.522 E351.83906
G1 X2.836 Y-8.407 E351.89104
G1 X3.626 Y-8.25 E351.94462
G1 X4.171 Y-8.12 E351.98189
G1 X5.037 Y-7.871 E352.04183
G1 X5.577 Y-7.69 E352.07972
G1 X6.142 Y-7.478 E352.11986
G1 X6.956 Y-7.131 E352.17872
G1 X7.593 Y-6.822 E352.22582
G1 X8.116 Y-6.542 E352.26528
G1 X8.696 Y-6.205 E352.3099
G1 X9.169 Y-5.904 E352.3472
G1 X9.451 Y-5.715 E352.36978
G1 X9.907 Y-5.389 E352.40707
G1 X10.365 Y-5.039 E352.44541
G1 X10.872 Y-4.618 E352.48925
G1 X11.518 Y-4.029 E352.5474
G1 X11.912 Y-3.64 E352.58423
G1 X12.305 Y-3.222 E352.6224
G1 X12.88 Y-2.557 E352.68088
G1 X13.225 Y-2.119 E352.71796
G1 X13.516 Y-1.724 E352.7506
G1 X13.843 Y-1.25 E352.78891
G1 X14.158 Y-.758 E352.82777
G1 X14.414 Y-.308 E352.86221
G1 X14.482 Y-0.057 E352.8795
G1 X14.46 Y0.178 E352.89521
G1 X14.313 Y0.495 E352.91845
G1 X14.015 Y0.985 E352.9566
G1 X13.703 Y1.456 E352.99418
G1 X13.183 Y2.173 E353.0531
G1 X12.949 Y2.468 E353.07815
G1 X12.45 Y3.06 E353.12965
G1 X12.064 Y3.483 E353.16774
G1 X11.674 Y3.88 E353.20476
G1 X11.251 Y4.281 E353.24353
G1 X10.827 Y4.657 E353.28123
G1 X10.161 Y5.198 E353.33831
G1 X9.71 Y5.534 E353.37572
G1 X9.241 Y5.857 E353.4136
G1 X8.739 Y6.177 E353.4532
G1 X8.299 Y6.44 E353.4873
G1 X7.499 Y6.871 E353.54775
G1 X6.817 Y7.193 E353.59792
G1 X6.287 Y7.419 E353.63624
G1 X5.591 Y7.684 E353.68578
G1 X4.903 Y7.914 E353.73404
G1 X4.18 Y8.118 E353.78401
G1 X3.297 Y8.32 E353.84427
G1 X2.395 Y8.478 E353.90518
G1 X1.878 Y8.542 E353.93984
G1 X1.306 Y8.6 E353.97808
G1 X0.687 Y8.637 E354.01933
G1 X-.267 Y8.65 E354.0828
G1 X-.821 Y8.631 E354.11967
G1 X-1.419 Y8.594 E354.15952
G1 X-3.849 Y8.411 E354.32163
G1 X-4.284 Y8.381 E354.35063
G1 X-5.281 Y8.305 E354.41714
G1 X-13.904 Y7.679 E354.99226
G1 X-14.381 Y7.647 E355.02406
G1 X-15.465 Y7.567 E355.09636
G1 X-24.934 Y6.889 E355.72786
G1 X-25.277 Y6.82 E355.75113
G1 X-25.562 Y6.674 E355.77243
G1 X-25.771 Y6.474 E355.79167
G1 X-25.943 Y6.163 E355.81532
G1 X-26.031 Y5.679 E355.84804
G1 X-26.031 Y1.595 E356.11971
G1 X-20.225 Y1.593 E356.50592
G1 X-20.225 Y-1.593 E356.71786
G0 F7200 X-20.625 Y-1.193
;TYPE:WALL-OUTER
G1 F1800 X-26.43 Y-1.195 E357.10401
G1 X-26.432 Y-2.622 E357.19893
G1 X-26.43 Y-5.726 E357.40541
G1 X-26.345 Y-6.24 E357.44007
G1 X-26.162 Y-6.624 E357.46836
G1 X-25.875 Y-6.942 E357.49686
G1 X-25.516 Y-7.161 E357.52483
G1 X-25.099 Y-7.275 E357.55359
G1 X-24.979 Y-7.287 E357.56161
G1 X-8.275 Y-8.488 E358.67563
G1 X-1.126 Y-9.015 E359.15248
G1 X-.459 Y-9.046 E359.19689
G1 X0.357 Y-9.048 E359.25118
G1 X1.168 Y-9.012 E359.30518
G1 X2.122 Y-8.918 E359.36894
G1 X2.895 Y-8.803 E359.42093
G1 X3.719 Y-8.639 E359.47682
G1 X4.268 Y-8.508 E359.51436
G1 X5.148 Y-8.255 E359.57527
G1 X5.718 Y-8.065 E359.61524
G1 X6.283 Y-7.853 E359.65538
G1 X7.113 Y-7.499 E359.71541
G1 X7.782 Y-7.175 E359.76485
G1 X8.305 Y-6.895 E359.80431
G1 X8.897 Y-6.551 E359.84986
G1 X9.392 Y-6.236 E359.88889
G1 X9.674 Y-6.047 E359.91147
G1 X10.15 Y-5.707 E359.95038
G1 X10.621 Y-5.347 E359.98982
G1 X11.142 Y-4.914 E360.03488
G1 X11.788 Y-4.325 E360.09303
G1 X12.204 Y-3.914 E360.13193
G1 X12.608 Y-3.484 E360.17118
G1 X13.183 Y-2.819 E360.22966
G1 X13.547 Y-2.356 E360.26884
G1 X13.845 Y-1.951 E360.30229
G1 X14.18 Y-1.466 E360.3415
G1 X14.502 Y-.963 E360.38123
G1 X14.786 Y-.464 E360.41942
G1 X14.886 Y-0.092 E360.44504
G1 X14.852 Y0.286 E360.47029
G1 X14.667 Y0.683 E360.49942
G1 X14.357 Y1.193 E360.53913
G1 X14.027 Y1.691 E360.57887
G1 X13.507 Y2.408 E360.63778
G1 X13.255 Y2.726 E360.66477
G1 X12.756 Y3.318 E360.71628
G1 X12.359 Y3.753 E360.75545
G1 X11.949 Y4.17 E360.79435
G1 X11.524 Y4.573 E360.83331
G1 X11.086 Y4.961 E360.87224
G1 X10.4 Y5.519 E360.93106
G1 X9.937 Y5.864 E360.96947
G1 X9.456 Y6.195 E361.00831
G1 X8.954 Y6.514 E361.04787
G1 X8.489 Y6.792 E361.08391
G1 X7.67 Y7.233 E361.14579
G1 X6.988 Y7.555 E361.19596
G1 X6.438 Y7.79 E361.23574
G1 X5.733 Y8.058 E361.28591
G1 X5.018 Y8.297 E361.33606
G1 X4.276 Y8.506 E361.38734
G1 X3.377 Y8.712 E361.44869
G1 X2.454 Y8.874 E361.51103
G1 X1.923 Y8.94 E361.54662
G1 X1.345 Y8.998 E361.58527
G1 X0.695 Y9.037 E361.62858
G1 X-.276 Y9.05 E361.69318
G1 X-.835 Y9.031 E361.73039
G1 X-1.449 Y8.993 E361.77131
G1 X-3.878 Y8.81 E361.93334
G1 X-4.314 Y8.78 E361.96241
G1 X-5.311 Y8.704 E362.02893
G1 X-13.932 Y8.078 E362.60391
G1 X-14.41 Y8.046 E362.63578
G1 X-15.494 Y7.966 E362.70808
G1 X-19.113 Y7.708 E362.94943
G1 X-24.985 Y7.286 E363.34104
G1 X-25.412 Y7.201 E363.37
G1 X-25.795 Y7.004 E363.39865
G1 X-26.093 Y6.719 E363.42608
G1 X-26.318 Y6.312 E363.45702
G1 X-26.417 Y5.913 E363.48437
G1 X-26.431 Y5.679 E363.49996
G1 X-26.431 Y1.195 E363.79824
G1 X-20.625 Y1.193 E364.18445
G1 X-20.625 Y-1.193 E364.34317
G0 F7200 X-20.825 Y-1.193
G0 X-20.824 Y-1.693
G0 X-19.835 Y-1.983
;TYPE:SKIN
G1 F1800 X-25.641 Y-1.985 E364.72939
G1 X-25.64 Y-5.663 E364.97405
G1 X-25.585 Y-5.996 E364.9965
G1 X-25.497 Y-6.182 E365.01019
G1 X-25.364 Y-6.329 E365.02337
G1 X-25.207 Y-6.425 E365.03562
G1 X-24.888 Y-6.501 E365.05743
G1 X-8.218 Y-7.7 E366.16919
G1 X-1.105 Y-8.224 E366.64363
G1 X-.422 Y-8.256 E366.68911
G1 X0.324 Y-8.258 E366.73874
G1 X1.129 Y-8.222 E366.79234
G1 X2.01 Y-8.136 E366.85122
G1 X2.779 Y-8.021 E366.90294
G1 X3.536 Y-7.87 E366.95429
G1 X4.073 Y-7.742 E366.99101
G1 X4.896 Y-7.506 E367.04797
G1 X5.469 Y-7.314 E367.08816
G1 X5.997 Y-7.116 E367.12568
G1 X6.786 Y-6.78 E367.18272
G1 X7.416 Y-6.474 E367.22931
G1 X7.926 Y-6.202 E367.26776
G1 X8.487 Y-5.876 E367.31092
G1 X8.956 Y-5.577 E367.34792
G1 X9.225 Y-5.397 E367.36945
G1 X9.681 Y-5.071 E367.40674
G1 X10.122 Y-4.734 E367.44366
G1 X10.609 Y-4.33 E367.48575
G1 X11.25 Y-3.746 E367.54343
G1 X11.628 Y-3.373 E367.57876
G1 X12.015 Y-2.961 E367.61636
G1 X12.574 Y-2.315 E367.67319
G1 X12.911 Y-1.887 E367.70942
G1 X13.198 Y-1.497 E367.74163
G1 X13.54 Y-1.001 E367.78171
G1 X13.819 Y-.565 E367.81614
G1 X14.052 Y-.156 E367.84745
G1 X14.078 Y0.076 E367.86298
G1 X13.972 Y0.305 E367.87977
G1 X13.69 Y0.77 E367.91595
G1 X13.387 Y1.227 E367.95242
G1 X12.872 Y1.937 E368.01077
G1 X12.647 Y2.221 E368.03487
G1 X12.162 Y2.797 E368.08496
G1 X11.785 Y3.21 E368.12215
G1 X11.405 Y3.597 E368.15823
G1 X10.987 Y3.993 E368.19654
G1 X10.574 Y4.36 E368.23329
G1 X9.915 Y4.896 E368.28979
G1 X9.489 Y5.212 E368.32508
G1 X9.025 Y5.532 E368.36257
G1 X8.539 Y5.842 E368.40092
G1 X8.106 Y6.101 E368.43448
G1 X7.327 Y6.521 E368.49335
G1 X6.657 Y6.837 E368.54263
G1 X6.148 Y7.054 E368.57943
G1 X5.46 Y7.317 E368.62843
G1 X4.788 Y7.541 E368.67555
G1 X4.083 Y7.74 E368.72428
G1 X3.224 Y7.937 E368.7829
G1 X2.337 Y8.092 E368.8428
G1 X1.835 Y8.154 E368.87645
G1 X1.283 Y8.21 E368.91336
G1 X0.664 Y8.247 E368.95461
G1 X-.259 Y8.26 E369.01601
G1 X-.797 Y8.241 E369.05182
G1 X-1.5 Y8.198 E369.09867
G1 X-4.46 Y7.976 E369.29612
G1 X-13.876 Y7.29 E369.92414
G1 X-14.558 Y7.244 E369.96961
G1 X-15.436 Y7.179 E370.02817
G1 X-24.879 Y6.503 E370.65793
G1 X-25.145 Y6.45 E370.67597
G1 X-25.336 Y6.352 E370.69025
G1 X-25.457 Y6.236 E370.7014
G1 X-25.57 Y6.031 E370.71698
G1 X-25.641 Y5.643 E370.74321
G1 X-25.641 Y1.985 E370.98655
G1 X-19.835 Y1.983 E371.37276
G1 X-19.835 Y-1.983 E371.63658
G0 F7200 X-20.197 Y1.621
G0 X-25.455 Y5.657
G1 F1800 X-24.782 Y6.33 E371.69989
G0 F7200 X-24.173 Y6.373
G1 F1800 X-25.46 Y5.086 E371.82097
G0 F7200 X-25.46 Y4.52
G1 F1800 X-23.564 Y6.416 E371.99933
G0 F7200 X-22.955 Y6.46
G1 F1800 X-25.46 Y3.954 E372.23503
G0 F7200 X-25.46 Y3.389
G1 F1800 X-22.345 Y6.503 E372.52803
G0 F7200 X-21.736 Y6.547
G1 F1800 X-25.46 Y2.823 E372.87836
G0 F7200 X-25.46 Y2.257
G1 F1800 X-21.127 Y6.59 E373.28598
G0 F7200 X-20.518 Y6.634
G1 F1800 X-24.987 Y2.165 E373.70639
G0 F7200 X-24.422 Y2.165
G1 F1800 X-19.908 Y6.678 E374.131
G0 F7200 X-19.299 Y6.721
G1 F1800 X-23.856 Y2.165 E374.55964
G0 F7200 X-23.291 Y2.164
G1 F1800 X-18.69 Y6.765 E374.99248
G0 F7200 X-18.081 Y6.808
G1 F1800 X-22.725 Y2.164 E375.42936
G0 F7200 X-22.16 Y2.164
G1 F1800 X-17.471 Y6.852 E375.87042
G0 F7200 X-16.862 Y6.896
G1 F1800 X-21.594 Y2.164 E376.31558
G0 F7200 X-21.029 Y2.163
G1 F1800 X-16.253 Y6.939 E376.76488
G0 F7200 X-15.644 Y6.983
G1 F1800 X-20.463 Y2.163 E377.21827
G0 F7200 X-19.897 Y2.163
G1 F1800 X-15.033 Y7.028 E377.67589
G0 F7200 X-14.424 Y7.071
G1 F1800 X-19.654 Y1.842 E378.16785
G0 F7200 X-19.654 Y1.276
G1 F1800 X-13.816 Y7.113 E378.717
G0 F7200 X-13.206 Y7.158
G1 F1800 X-19.654 Y0.71 E379.32359
G0 F7200 X-19.654 Y0.144
G1 F1800 X-12.596 Y7.202 E379.98757
G0 F7200 X-11.986 Y7.247
G1 F1800 X-19.654 Y-.42 E380.70888
G0 F7200 X-19.654 Y-.986
G1 F1800 X-11.375 Y7.291 E381.48762
G0 F7200 X-10.766 Y7.335
G1 F1800 X-19.654 Y-1.552 E382.3237
G0 F7200 X-19.654 Y-2.117
G1 F1800 X-10.156 Y7.38 E383.21717
G0 F7200 X-9.545 Y7.424
G1 F1800 X-23.398 Y-6.427 E384.52028
G0 F7200 X-23.926 Y-6.39
G1 F1800 X-19.699 Y-2.163 E384.91793
G0 F7200 X-20.265 Y-2.163
G1 F1800 X-24.453 Y-6.351 E385.31191
G0 F7200 X-24.964 Y-6.296
G1 F1800 X-20.831 Y-2.163 E385.70072
G0 F7200 X-21.397 Y-2.163
G1 F1800 X-25.33 Y-6.097 E386.07076
G0 F7200 X-25.458 Y-5.659
G1 F1800 X-21.963 Y-2.164 E386.39955
G0 F7200 X-22.529 Y-2.164
G1 F1800 X-25.46 Y-5.095 E386.67528
G0 F7200 X-25.46 Y-4.529
G1 F1800 X-23.094 Y-2.164 E386.89781
G0 F7200 X-23.661 Y-2.165
G1 F1800 X-25.46 Y-3.964 E387.06705
G0 F7200 X-25.46 Y-3.398
G1 F1800 X-24.226 Y-2.165 E387.18309
G0 F7200 X-24.792 Y-2.165
G1 F1800 X-25.46 Y-2.832 E387.24588
G0 F7200 X-25.46 Y-2.266
G1 F1800 X-25.358 Y-2.165 E387.25543
G0 F7200 X-22.87 Y-6.465
G1 F1800 X-8.935 Y7.469 E388.5663
G0 F7200 X-8.325 Y7.513
G1 F1800 X-22.343 Y-6.503 E389.88494
G0 F7200 X-21.814 Y-6.541
G1 F1800 X-7.715 Y7.558 E391.21128
G0 F7200 X-7.105 Y7.602
G1 F1800 X-21.287 Y-6.579 E392.54539
G0 F7200 X-20.759 Y-6.617
G1 F1800 X-6.495 Y7.646 E393.88722
G0 F7200 X-5.885 Y7.691
G1 F1800 X-20.231 Y-6.655 E395.2368
G0 F7200 X-19.704 Y-6.693
G1 F1800 X-5.275 Y7.735 E396.59414
G0 F7200 X-4.664 Y7.78
G1 F1800 X-19.176 Y-6.731 E397.9593
G0 F7200 X-18.648 Y-6.769
G1 F1800 X-4.053 Y7.825 E399.33226
G0 F7200 X-3.442 Y7.871
G1 F1800 X-18.121 Y-6.807 E400.71312
G0 F7200 X-17.593 Y-6.845
G1 F1800 X-2.83 Y7.917 E402.10189
G0 F7200 X-2.218 Y7.963
G1 F1800 X-17.065 Y-6.882 E403.49851
G0 F7200 X-16.537 Y-6.921
G1 F1800 X-1.607 Y8.009 E404.90303
G0 F7200 X-1.004 Y8.046
G1 F1800 X-16.01 Y-6.959 E406.31466
G0 F7200 X-15.482 Y-6.996
G1 F1800 X-.411 Y8.073 E407.73235
G0 F7200 X0.153 Y8.073
G1 F1800 X-14.954 Y-7.035 E409.15357
G0 F7200 X-14.427 Y-7.073
G1 F1800 X0.708 Y8.062 E410.57738
G0 F7200 X1.242 Y8.03
G1 F1800 X-13.898 Y-7.11 E412.00166
G0 F7200 X-13.371 Y-7.148
G1 F1800 X1.757 Y7.979 E413.42476
G0 F7200 X2.262 Y7.919
G1 F1800 X-12.843 Y-7.187 E414.84579
G0 F7200 X-12.315 Y-7.224
G1 F1800 X2.746 Y7.837 E416.26264
G0 F7200 X3.225 Y7.751
G1 F1800 X-11.788 Y-7.262 E417.67497
G0 F7200 X-11.26 Y-7.3
G1 F1800 X3.685 Y7.645 E419.0809
G0 F7200 X4.14 Y7.534
G1 F1800 X-10.732 Y-7.338 E420.47997
G0 F7200 X-10.204 Y-7.376
G1 F1800 X4.582 Y7.41 E421.87095
G0 F7200 X5.012 Y7.275
G1 F1800 X-9.677 Y-7.414 E423.2528
G0 F7200 X-9.149 Y-7.452
G1 F1800 X5.435 Y7.132 E424.62477
G0 F7200 X5.844 Y6.976
G1 F1800 X-8.621 Y-7.49 E425.9856
G0 F7200 X-8.094 Y-7.528
G1 F1800 X6.248 Y6.814 E427.3348
G0 F7200 X6.643 Y6.643
G1 F1800 X-7.567 Y-7.567 E428.67159
G0 F7200 X-7.04 Y-7.606
G1 F1800 X7.027 Y6.462 E429.99498
G0 F7200 X7.404 Y6.273
G1 F1800 X-6.513 Y-7.644 E431.3042
G0 F7200 X-5.986 Y-7.683
G1 F1800 X7.771 Y6.074 E432.59838
G0 F7200 X8.135 Y5.872
G1 F1800 X-5.459 Y-7.722 E433.87722
G0 F7200 X-4.932 Y-7.761
G1 F1800 X8.488 Y5.659 E435.13969
G0 F7200 X8.833 Y5.439
G1 F1800 X-4.405 Y-7.8 E436.38509
G0 F7200 X-3.879 Y-7.838
G1 F1800 X9.17 Y5.21 E437.61261
G0 F7200 X9.502 Y4.976
G1 F1800 X-3.352 Y-7.877 E438.82179
G0 F7200 X-2.824 Y-7.916
G1 F1800 X9.826 Y4.735 E440.01187
G0 F7200 X10.138 Y4.481
G1 F1800 X-2.298 Y-7.954 E441.18172
G0 F7200 X-1.771 Y-7.993
G1 F1800 X10.449 Y4.227 E442.33131
G0 F7200 X10.749 Y3.961
G1 F1800 X-1.244 Y-8.032 E443.45953
G0 F7200 X-.707 Y-8.061
G1 F1800 X11.043 Y3.689 E444.5649
G0 F7200 X11.332 Y3.413
G1 F1800 X-.156 Y-8.075 E445.64562
G0 F7200 X0.412 Y-8.072
G1 F1800 X11.612 Y3.127 E446.6992
G0 F7200 X11.884 Y2.833
G1 F1800 X1.004 Y-8.046 E447.72268
G0 F7200 X1.624 Y-7.991
G1 F1800 X12.148 Y2.532 E448.71267
G0 F7200 X12.407 Y2.225
G1 F1800 X2.268 Y-7.913 E449.66643
G0 F7200 X2.945 Y-7.802
G1 F1800 X12.66 Y1.912 E450.58031
G0 F7200 X12.901 Y1.588
G1 F1800 X3.659 Y-7.654 E451.44975
G0 F7200 X4.425 Y-7.453
G1 F1800 X13.14 Y1.26 E452.2695
G0 F7200 X13.369 Y0.924
G1 F1800 X5.248 Y-7.196 E453.03343
G1 X5.178 Y-7.266
G0 F7200 X6.16 Y-6.85
G1 F1800 X13.592 Y0.581 E453.73254
G0 F7200 X13.806 Y0.23
G1 F1800 X7.195 Y-6.38 E454.35442
G1 X7.125 Y-6.45
G0 F7200 X8.471 Y-5.67
G1 F1800 X13.654 Y-.487 E454.842
G1 X13.724 Y-.417
G0 F7200 X11.974 Y-2.733
G1 F1800 X10.76 Y-3.947 E454.95621
G1 X10.69 Y-4.017
;MESH:NONMESH
G0 F600 X10.69 Y-4.017 Z2.3
G0 F7200 X-20.125 Y-1.464
G0 X-20.225 Y-1.464
;TIME_ELAPSED:250.070050
;LAYER:5
;TYPE:WALL-INNER
;MESH:benchy.stl
G1 F3600 X-26.217 Y-1.465 E455.3548
G1 X-26.218 Y-4.732 E455.57212
G1 X-26.216 Y-5.919 E455.65108
G1 X-26.144 Y-6.334 E455.6791
G1 X-26.011 Y-6.607 E455.6993
G1 X-25.789 Y-6.847 E455.72104
G1 X-25.547 Y-6.993 E455.73985
G1 X-25.136 Y-7.095 E455.76801
G1 X-8.421 Y-8.342 E456.88299
G1 X-5.45 Y-8.568 E457.08119
G1 X-1.2 Y-8.897 E457.36475
G1 X-.709 Y-8.924 E457.39746
G1 X-0.052 Y-8.938 E457.44118
G1 X0.596 Y-8.926 E457.48429
G1 X1.096 Y-8.902 E457.51759
G1 X2.046 Y-8.813 E457.58106
G1 X2.666 Y-8.727 E457.62269
G1 X3.453 Y-8.585 E457.67589
G1 X4.206 Y-8.413 E457.72727
G1 X5.11 Y-8.159 E457.78973
G1 X5.82 Y-7.922 E457.83953
G1 X6.302 Y-7.739 E457.87382
G1 X6.822 Y-7.528 E457.91115
G1 X7.359 Y-7.285 E457.95036
G1 X7.911 Y-7.012 E457.99132
G1 X8.566 Y-6.656 E458.04091
G1 X9.251 Y-6.243 E458.09412
G1 X9.993 Y-5.742 E458.15368
G1 X10.425 Y-5.423 E458.1894
G1 X10.893 Y-5.056 E458.22896
G1 X11.358 Y-4.663 E458.26946
G1 X11.868 Y-4.195 E458.31551
G1 X12.513 Y-3.546 E458.37637
G1 X13.027 Y-2.977 E458.42738
G1 X13.417 Y-2.508 E458.46795
G1 X13.774 Y-2.045 E458.50685
G1 X14.135 Y-1.543 E458.54798
G1 X14.462 Y-1.053 E458.58716
G1 X14.776 Y-.543 E458.627
G1 X14.948 Y-.177 E458.6539
G1 X14.969 Y0.065 E458.67006
G1 X14.901 Y0.315 E458.6873
G1 X14.638 Y0.772 E458.72237
G1 X14.254 Y1.367 E458.76948
G1 X13.786 Y2.029 E458.82341
G1 X13.426 Y2.498 E458.86274
G1 X13.052 Y2.948 E458.90166
G1 X12.646 Y3.405 E458.94232
G1 X12.242 Y3.828 E458.98123
G1 X11.804 Y4.256 E459.02197
G1 X11.375 Y4.648 E459.06063
