;FLAVOR:Marlin
;TIME:2336
;Filament used: 6.69147m
;Layer height: 0.6
;MINX:-29.8
;MINY:-15.302
;MINZ:0.3
;MAXX:29.764
;MAXY:16.158
;MAXZ:48.3
;Generated with Cura_SteamEngine 4.13.1
M104 S200
M105
M109 S200
M82 ;absolute extrusion mode

G92 E0
G92 E0
;LAYER_COUNT:81
;LAYER:0
M107
;MESH:benchy.stl
G0 F3600 X-6.083 Y-.83 Z0.3
;TYPE:WALL-INNER
G1 F1800 X-5.995 Y-.392 E0.02229
G1 X-5.984 Y0.076 E0.04564
G1 X-6.04 Y0.552 E0.06956
G1 X-6.171 Y0.924 E0.08923
G1 X-6.324 Y1.118 E0.10156
G1 X-6.499 Y1.216 E0.11156
G1 X-7.278 Y1.287 E0.15059
G1 X-7.275 Y0.869 E0.17144
G1 X-7.273 Y-.889 E0.25915
G1 X-7.275 Y-1.339 E0.2816
G1 X-6.499 Y-1.291 E0.32039
G1 X-6.347 Y-1.238 E0.32842
G1 X-6.234 Y-1.138 E0.33595
G1 X-6.083 Y-.83 E0.35306
G0 F3600 X-5.701 Y-.959
;TYPE:WALL-OUTER
G1 F1800 X-5.596 Y-.435 E0.37973
G1 X-5.583 Y0.092 E0.40603
G1 X-5.648 Y0.643 E0.43371
G1 X-5.816 Y1.119 E0.45889
G1 X-6.06 Y1.429 E0.47857
G1 X-6.347 Y1.589 E0.49497
G1 X-6.42 Y1.609 E0.49874
G1 X-6.928 Y1.676 E0.52431
G1 X-7.456 Y1.693 E0.55066
G1 X-7.631 Y1.667 E0.55949
G1 X-7.684 Y1.561 E0.5654
G1 X-7.672 Y0.97 E0.59489
G1 X-7.675 Y0.869 E0.59993
G1 X-7.673 Y-.888 E0.68759
G1 X-7.677 Y-1.661 E0.72616
G1 X-7.642 Y-1.733 E0.73015
G1 X-6.936 Y-1.744 E0.76538
G1 X-6.408 Y-1.683 E0.79189
G1 X-6.14 Y-1.59 E0.80605
G1 X-5.91 Y-1.385 E0.82142
G1 X-5.701 Y-.959 E0.84509
G0 F3600 X-5.662 Y-.763
G0 X-6.454 Y-.698
;TYPE:SKIN
G1 F1800 X-6.385 Y-.352 E0.86269
G1 X-6.374 Y0.055 E0.883
G1 X-6.423 Y0.466 E0.90365
G1 X-6.581 Y0.814 E0.92272
G1 X-6.885 Y0.86 E0.93806
G1 X-6.883 Y-.924 E1.02707
G1 X-6.55 Y-.896 E1.04374
G1 X-6.454 Y-.698 E1.05472
G0 F3600 X-6.702 Y-.48
G1 F1800 X-6.565 Y-.342 E1.06442
G0 F3600 X-6.704 Y0.084
G1 F1800 X-6.573 Y0.214 E1.07362
G0 F3600 X-7.253 Y-.889
G0 X-9.276 Y-.879
G0 X-10.194 Y-1.08
G0 X-10.143 Y-2.295
G0 X-10.631 Y-3.072
G0 X-11.567 Y-3.509
G0 X-12.771 Y-3.529
G0 X-13.759 Y-3.145
G0 X-14.235 Y-2.421
G0 X-13.689 Y-1.427
G0 X-12.318 Y-1.544
;TYPE:WALL-INNER
G1 F1800 X-12.638 Y-1.446 E1.09032
G1 X-12.292 Y-1.611 E1.09316
G1 X-12.318 Y-1.544
G0 F3600 X-16.329 Y0.451
G0 X-16.317 Y2.389
G0 X-16.684 Y3.165
G0 X-17.477 Y3.334
G0 X-18.182 Y2.563
G0 X-21.465 Y0.959
G1 F1800 X-21.874 Y1.156 E1.11581
G1 X-22.134 Y1.407 E1.13383
G1 X-22.306 Y1.452 E1.1427
G1 X-22.587 Y1.446 E1.15673
G1 X-22.833 Y1.363 E1.16968
G1 X-23.038 Y1.206 E1.18256
G1 X-23.184 Y0.969 E1.19645
G1 X-23.294 Y0.568 E1.21719
G1 X-23.336 Y-0.005 E1.24586
G1 X-23.317 Y-.466 E1.26888
G1 X-23.214 Y-.958 E1.29396
G1 X-23.085 Y-1.217 E1.30839
G1 X-22.921 Y-1.381 E1.31996
G1 X-22.596 Y-1.513 E1.33746
G1 X-22.379 Y-1.514 E1.34829
G1 X-22.198 Y-1.437 E1.3581
G1 X-21.727 Y-1.154 E1.38552
G1 X-21.229 Y-.998 E1.41155
G1 X-20.824 Y-1.034 E1.43184
G1 X-20.413 Y-1.277 E1.45566
G1 X-20.125 Y-1.708 E1.48152
G1 X-20.084 Y-1.959 E1.49421
G1 X-20.049 Y-1.845
G1 X-19.728 Y-1.506 E1.5175
G1 X-19.323 Y-1.363 E1.53893
G1 X-18.9 Y-1.37 E1.56003
G1 X-18.384 Y-1.43 E1.58595
G1 X-18.292 Y-1.414 E1.59061
G1 X-18.283 Y-1.377 E1.59251
G1 X-18.317 Y-.793 E1.62169
G1 X-18.308 Y0.093 E1.6659
G1 X-18.313 Y1.333 E1.72776
G1 X-18.301 Y1.964 E1.75925
G1 X-18.345 Y2.581 E1.79011
G1 X-18.224 Y3.023 E1.81297
G1 X-17.964 Y3.311 E1.83233
G1 X-17.51 Y3.494 E1.85675
G1 X-17.036 Y3.499 E1.8804
G1 X-16.581 Y3.296 E1.90526
G1 X-16.29 Y2.928 E1.92866
G1 X-16.156 Y2.406 E1.95555
G1 X-16.172 Y1.669 E1.99233
G1 X-16.173 Y1.422 E2.00465
G1 X-16.169 Y0.806 E2.03539
G1 X-16.17 Y-.6 E2.10553
G1 X-16.167 Y-1.215 E2.13621
G1 X-16.162 Y-1.4 E2.14545
G1 X-15.729 Y-1.39 E2.16706
G1 X-15.15 Y-1.426 E2.196
G1 X-14.683 Y-1.596 E2.22079
G1 X-14.396 Y-1.889 E2.24125
G1 X-14.353 Y-2.004 E2.24738
G1 X-14.135 Y-1.596 E2.26344
G1 X-13.77 Y-1.283 E2.28743
G1 X-13.404 Y-1.167 E2.30658
G1 X-13.302 Y-1.186 E2.31176
G1 X-13.389 Y-1.13 E2.31208
G1 X-13.648 Y-.691 E2.33751
G1 X-13.725 Y-.234 E2.36063
G1 X-13.647 Y0.156 E2.38047
G1 X-13.426 Y0.474 E2.39979
G1 X-12.992 Y0.689 E2.42395
G1 X-12.433 Y0.799 E2.45238
G1 X-12.237 Y0.898 E2.46333
G1 X-12.05 Y1.099 E2.47703
G1 X-11.984 Y1.267 E2.48603
G1 X-12.044 Y1.479 E2.49703
G1 X-12.179 Y1.551 E2.50466
G1 X-12.335 Y1.46 E2.51367
G1 X-12.771 Y1.175 E2.53966
G1 X-13.188 Y1.082 E2.56097
G1 X-13.682 Y1.138 E2.58577
G1 X-14.11 Y1.394 E2.61066
G1 X-14.355 Y1.8 E2.63431
G1 X-14.396 Y2.313 E2.65999
G1 X-14.263 Y2.757 E2.68311
G1 X-13.964 Y3.147 E2.70763
G1 X-13.573 Y3.404 E2.73097
G1 X-13.005 Y3.591 E2.76081
G1 X-12.437 Y3.656 E2.78933
G1 X-11.833 Y3.634 E2.81948
G1 X-11.208 Y3.48 E2.8516
G1 X-10.693 Y3.199 E2.88087
G1 X-10.261 Y2.796 E2.91034
G1 X-9.907 Y2.223 E2.94394
G1 X-9.715 Y1.596 E2.97666
G1 X-9.694 Y1.038 E3.00452
G1 X-9.845 Y0.354 E3.03946
G1 X-10.075 Y-.242 E3.07134
G1 X-10.314 Y-.527 E3.08989
G1 X-10.134 Y-.737 E3.10369
G1 X-9.972 Y-1.255 E3.13077
G1 X-9.929 Y-1.877 E3.16187
G1 X-9.986 Y-2.337 E3.185
G1 X-10.166 Y-2.774 E3.20858
G1 X-10.521 Y-3.192 E3.23594
G1 X-10.932 Y-3.47 E3.26069
G1 X-11.534 Y-3.667 E3.2923
G1 X-12.212 Y-3.73 E3.32627
G1 X-12.801 Y-3.688 E3.35573
G1 X-13.363 Y-3.539 E3.38473
G1 X-13.854 Y-3.277 E3.4125
G1 X-14.211 Y-2.931 E3.4373
G1 X-14.27 Y-2.79 E3.44493
G1 X-14.473 Y-3.229 E3.46153
G1 X-14.849 Y-3.492 E3.48442
G1 X-15.302 Y-3.559 E3.50726
G1 X-16.024 Y-3.55 E3.54329
G1 X-16.202 Y-3.553 E3.55217
G1 X-16.766 Y-3.554 E3.58031
G1 X-17.208 Y-3.552 E3.60236
G1 X-18.011 Y-3.554 E3.64242
G1 X-18.559 Y-3.546 E3.66976
G1 X-19.201 Y-3.59 E3.70187
G1 X-19.654 Y-3.469 E3.72526
G1 X-19.953 Y-3.219 E3.74471
G1 X-20.16 Y-2.823 E3.767
G1 X-20.181 Y-2.62 E3.77718
G1 X-20.456 Y-2.996 E3.79138
G1 X-20.971 Y-3.39 E3.82373
G1 X-21.565 Y-3.632 E3.85573
G1 X-22.151 Y-3.722 E3.88531
G1 X-22.844 Y-3.703 E3.9199
G1 X-23.459 Y-3.564 E3.95135
G1 X-24.085 Y-3.263 E3.98601
G1 X-24.58 Y-2.862 E4.01779
G1 X-25.012 Y-2.304 E4.05299
G1 X-25.271 Y-1.761 E4.08301
G1 X-25.296 Y-1.667 E4.08786
G1 X-25.296 Y-2.304 E4.10115
G1 X-25.296 Y-4.868 E4.22907
G1 X-25.239 Y-5.264 E4.24903
G1 X-25.119 Y-5.551 E4.26455
G1 X-24.933 Y-5.781 E4.2793
G1 X-24.694 Y-5.949 E4.29388
G1 X-24.198 Y-6.08 E4.31947
G1 X-.692 Y-7.516 E5.49438
G1 X0.003 Y-7.536 E5.52907
G1 X0.673 Y-7.521 E5.5625
G1 X1.337 Y-7.479 E5.59569
G1 X2.152 Y-7.381 E5.63665
G1 X2.843 Y-7.262 E5.67163
G1 X3.628 Y-7.083 E5.7118
G1 X4.264 Y-6.903 E5.74477
G1 X4.878 Y-6.7 E5.77704
G1 X5.342 Y-6.526 E5.80176
G1 X5.922 Y-6.281 E5.83317
G1 X6.542 Y-5.986 E5.86743
G1 X7.019 Y-5.732 E5.89439
G1 X7.491 Y-5.457 E5.92164
G1 X7.957 Y-5.164 E5.9491
G1 X8.459 Y-4.817 E5.97955
G1 X8.948 Y-4.446 E6.01017
G1 X9.568 Y-3.93 E6.05042
G1 X10.117 Y-3.416 E6.08794
G1 X10.483 Y-3.044 E6.11397
G1 X10.838 Y-2.654 E6.14028
G1 X11.205 Y-2.219 E6.16868
G1 X11.5 Y-1.84 E6.19264
G1 X11.919 Y-1.256 E6.2285
G1 X12.198 Y-.83 E6.2539
G1 X12.456 Y-.404 E6.27875
G1 X12.562 Y-.132 E6.29331
G1 X12.567 Y0.103 E6.30504
G1 X12.488 Y0.347 E6.31784
G1 X12.186 Y0.848 E6.34702
G1 X11.888 Y1.307 E6.37432
G1 X11.525 Y1.814 E6.40543
G1 X11.108 Y2.337 E6.4388
G1 X11.096 Y2.241 E6.44363
G1 X10.846 Y1.817 E6.46819
G1 X10.382 Y1.565 E6.49453
G1 X9.752 Y1.482 E6.52623
G1 X9.686 Y1.467 E6.52961
G1 X10.246 Y0.666 E6.57837
G1 X10.599 Y0.174 E6.60858
G1 X10.951 Y-.413 E6.64273
G1 X11.063 Y-.902 E6.66776
G1 X10.991 Y-1.448 E6.69523
G1 X10.741 Y-1.841 E6.71847
G1 X10.396 Y-2.055 E6.73872
G1 X9.881 Y-2.12 E6.76462
G1 X9.469 Y-2.114 E6.78518
G1 X7.874 Y-2.119 E6.86475
G1 X7.281 Y-2.025 E6.89471
G1 X6.872 Y-1.743 E6.91949
G1 X6.769 Y-1.534 E6.93112
G1 X6.561 Y-1.826 E6.94136
G1 X6.225 Y-2.055 E6.96165
G1 X5.823 Y-2.131 E6.98206
G1 X5.404 Y-1.988 E7.00415
G1 X5.11 Y-1.722 E7.02393
G1 X4.818 Y-1.235 E7.05226
G1 X4.569 Y-.516 E7.09022
G1 X4.537 Y-.429 E7.09484
G1 X4.481 Y-.569 E7.09738
G1 X4.316 Y-1.123 E7.11437
G1 X4.127 Y-1.595 E7.13973
G1 X3.762 Y-1.944 E7.16493
G1 X3.357 Y-2.098 E7.18654
G1 X2.868 Y-2.104 E7.21094
G1 X2.487 Y-1.94 E7.23164
G1 X2.2 Y-1.574 E7.25484
G1 X2.172 Y-1.44 E7.26167
G1 X1.915 Y-1.834 E7.27769
G1 X1.534 Y-2.076 E7.30021
G1 X1.122 Y-2.126 E7.32092
G1 X0.668 Y-1.95 E7.34521
G1 X0.267 Y-1.569 E7.3728
G1 X0.174 Y-1.412 E7.38191
G1 X-.116 Y-1.802 E7.40616
G1 X-.517 Y-2.067 E7.43014
G1 X-.913 Y-2.129 E7.45013
G1 X-1.401 Y-1.992 E7.47542
G1 X-1.752 Y-1.698 E7.49826
G1 X-1.934 Y-1.273 E7.52133
G1 X-1.895 Y-.796 E7.54521
G1 X-1.663 Y-.266 E7.57407
G1 X-1.274 Y0.417 E7.61328
G1 X-1.06 Y0.75 E7.63303
G1 X-1.255 Y1.034 E7.65022
G1 X-1.544 Y1.538 E7.6792
G1 X-1.73 Y1.857 E7.69763
G1 X-1.881 Y1.491 E7.70753
G1 X-2.272 Y1.076 E7.73598
G1 X-2.77 Y0.828 E7.76373
G1 X-3.204 Y0.76 E7.78565
G1 X-3.754 Y0.845 E7.81342
G1 X-3.877 Y0.914 E7.82045
G1 X-3.833 Y0.729 E7.8237
G1 X-3.784 Y0.171 E7.85164
G1 X-3.787 Y-.386 E7.87943
G1 X-3.856 Y-.983 E7.90942
G1 X-4.011 Y-1.584 E7.94038
G1 X-4.247 Y-2.116 E7.96942
G1 X-4.562 Y-2.58 E7.9974
G1 X-5.048 Y-3.034 E8.03058
G1 X-5.605 Y-3.326 E8.06195
G1 X-6.366 Y-3.5 E8.1009
G1 X-7.02 Y-3.55 E8.13362
G1 X-7.684 Y-3.549 E8.16675
G1 X-8.177 Y-3.567 E8.19136
G1 X-8.71 Y-3.518 E8.21807
G1 X-9.177 Y-3.289 E8.24401
G1 X-9.447 Y-2.927 E8.26654
G1 X-9.509 Y-2.46 E8.29005
G1 X-9.466 Y-1.93 E8.31658
G1 X-9.477 Y-1.076 E8.35919
G1 X-9.475 Y-.686 E8.37864
G1 X-9.475 Y0.354 E8.43053
G1 X-9.475 Y1.258 E8.46966
G1 X-9.473 Y1.833 E8.49511
G1 X-9.486 Y2.393 E8.52305
G1 X-9.39 Y2.868 E8.54723
G1 X-9.19 Y3.213 E8.56713
G1 X-8.828 Y3.466 E8.58916
G1 X-8.375 Y3.518 E8.61191
G1 X-7.748 Y3.473 E8.64327
G1 X-7.046 Y3.482 E8.6783
G1 X-6.429 Y3.438 E8.70916
G1 X-5.802 Y3.307 E8.74111
G1 X-5.206 Y3.032 E8.77386
G1 X-4.796 Y2.699 E8.80021
G1 X-4.618 Y3.178 E8.82571
G1 X-4.248 Y3.607 E8.85397
G1 X-3.756 Y3.883 E8.88211
G1 X-3.196 Y3.97 E8.91039
G1 X-2.642 Y3.859 E8.93858
G1 X-2.155 Y3.556 E8.96719
G1 X-1.85 Y3.163 E8.99201
G1 X-1.747 Y3.343 E9.00236
G1 X-1.362 Y3.609 E9.0257
G1 X-.887 Y3.693 E9.04977
G1 X-.505 Y3.576 E9.0697
G1 X-.135 Y3.237 E9.09474
G1 X0.116 Y2.855 E9.11754
G1 X0.412 Y3.33 E9.14546
G1 X0.75 Y3.604 E9.16717
G1 X1.241 Y3.712 E9.19225
G1 X1.699 Y3.608 E9.21568
G1 X2.091 Y3.311 E9.24022
G1 X2.285 Y2.858 E9.26481
G1 X2.265 Y2.334 E9.29097
G1 X2.077 Y1.892 E9.31493
G1 X1.616 Y1.115 E9.36
G1 X1.4 Y0.743 E9.38146
G1 X1.496 Y0.473 E9.39576
G1 X1.706 Y0.14 E9.4154
G1 X2.096 Y-.531 E9.45412
G1 X2.154 Y-.687 E9.46243
G1 X2.362 Y-0.069 E9.49496
G1 X2.565 Y0.422 E9.52146
G1 X2.708 Y0.811 E9.54214
G1 X2.986 Y1.545 E9.5813
G1 X3.184 Y2.09 E9.61023
G1 X3.396 Y2.556 E9.63577
G1 X3.435 Y2.715 E9.64394
G1 X3.372 Y2.906 E9.65397
G1 X3.069 Y3.627 E9.69299
G1 X2.862 Y3.963 E9.71268
G1 X2.731 Y4.03 E9.72002
G1 X2.179 Y4.198 E9.74881
G1 X1.877 Y4.432 E9.76787
G1 X1.706 Y4.767 E9.78663
G1 X1.691 Y5.202 E9.80835
G1 X1.833 Y5.633 E9.83099
G1 X2.106 Y5.982 E9.85309
G1 X2.528 Y6.193 E9.87663
G1 X3.008 Y6.217 E9.90061
G1 X3.558 Y6.085 E9.92883
G1 X4.106 Y5.814 E9.95933
G1 X4.507 Y5.418 E9.98744
G1 X4.778 Y4.962 E10.01391
G1 X5.087 Y4.232 E10.05346
G1 X5.385 Y3.46 E10.09474
G1 X5.523 Y3.084 E10.11472
G1 X6.342 Y0.79 E10.23625
G1 X6.577 Y0.082 E10.27346
G1 X6.805 Y-.427 E10.30129
G1 X6.835 Y-.355 E10.30518
G1 X7.182 Y-0.078 E10.32733
G1 X7.595 Y0.041 E10.34878
G1 X8.004 Y0.069 E10.36923
G1 X7.824 Y0.324 E10.37622
G1 X7.222 Y1.162 E10.4277
G1 X6.831 Y1.72 E10.46169
G1 X6.623 Y2.226 E10.48898
G1 X6.599 Y2.696 E10.51246
G1 X6.768 Y3.206 E10.53927
G1 X7.021 Y3.497 E10.5585
G1 X7.328 Y3.66 E10.57585
G1 X7.818 Y3.701 E10.60038
G1 X8.295 Y3.674 E10.62421
G1 X9.061 Y3.683 E10.66243
G1 X9.837 Y3.682 E10.70115
G1 X9.744 Y3.768 E10.70747
G1 X9.303 Y4.157 E10.7368
G1 X8.76 Y4.594 E10.77158
G1 X8.308 Y4.924 E10.7995
G1 X7.771 Y5.283 E10.83173
G1 X7.37 Y5.531 E10.85525
G1 X6.835 Y5.833 E10.8859
G1 X6.101 Y6.2 E10.92684
G1 X5.662 Y6.392 E10.95074
G1 X5.085 Y6.626 E10.98181
G1 X4.611 Y6.791 E11.00685
G1 X4.052 Y6.969 E11.03612
G1 X3.525 Y7.109 E11.06332
G1 X2.794 Y7.272 E11.10069
G1 X2.508 Y7.324 E11.11519
G1 X2.006 Y7.402 E11.14053
G1 X1.411 Y7.472 E11.17042
G1 X0.89 Y7.51 E11.19649
G1 X0.287 Y7.534 E11.22659
G1 X-.32 Y7.53 E11.25688
G1 X-.836 Y7.508 E11.28264
G1 X-8.561 Y7.033 E11.66877
G1 X-10.541 Y6.914 E11.76773
G1 X-21.862 Y6.224 E12.33359
G1 X-24.221 Y6.076 E12.45151
G1 X-24.573 Y6 E12.46948
G1 X-24.828 Y5.866 E12.48385
G1 X-25.048 Y5.655 E12.49906
G1 X-25.193 Y5.403 E12.51356
G1 X-25.297 Y4.864 E12.54095
G1 X-25.297 Y1.583 E12.70464
G1 X-25.176 Y1.922 E12.7226
G1 X-24.89 Y2.423 E12.75138
G1 X-24.422 Y2.939 E12.78613
G1 X-23.849 Y3.328 E12.82068
G1 X-23.315 Y3.538 E12.84931
G1 X-22.688 Y3.648 E12.88107
G1 X-21.995 Y3.637 E12.91565
G1 X-21.348 Y3.494 E12.94871
G1 X-20.833 Y3.238 E12.9774
G1 X-20.382 Y2.824 E13.00794
G1 X-20.086 Y2.299 E13.03801
G1 X-20.022 Y1.896 E13.05837
G1 X-20.194 Y1.439 E13.08273
G1 X-20.571 Y1.099 E13.10806
G1 X-21.015 Y0.946 E13.13149
G1 X-21.465 Y0.959 E13.15395
G0 F3600 X-21.368 Y1.356
;TYPE:WALL-OUTER
G1 F1800 X-21.642 Y1.488 E13.16912
G1 X-21.931 Y1.767 E13.18916
G1 X-22.258 Y1.853 E13.20603
G1 X-22.656 Y1.845 E13.22589
G1 X-23.024 Y1.721 E13.24527
G1 X-23.34 Y1.479 E13.26512
G1 X-23.555 Y1.129 E13.28562
G1 X-23.69 Y0.637 E13.31107
G1 X-23.737 Y-0.001 E13.34299
G1 X-23.716 Y-.511 E13.36845
G1 X-23.594 Y-1.092 E13.39807
G1 X-23.413 Y-1.455 E13.41831
G1 X-23.148 Y-1.72 E13.437
G1 X-22.674 Y-1.913 E13.46254
G1 X-22.297 Y-1.914 E13.48134
G1 X-22.016 Y-1.794 E13.49659
G1 X-21.562 Y-1.521 E13.52302
G1 X-21.185 Y-1.403 E13.54273
G1 X-20.95 Y-1.424 E13.5545
G1 X-20.695 Y-1.575 E13.56928
G1 X-20.506 Y-1.858 E13.58626
G1 X-20.457 Y-2.157 E13.60138
G1 X-20.53 Y-2.419 E13.61495
G1 X-20.745 Y-2.713 E13.63312
G1 X-21.172 Y-3.04 E13.65995
G1 X-21.672 Y-3.244 E13.68689
G1 X-22.176 Y-3.321 E13.71233
G1 X-22.794 Y-3.304 E13.74317
G1 X-23.327 Y-3.184 E13.77043
G1 X-23.869 Y-2.923 E13.80044
G1 X-24.292 Y-2.58 E13.82761
G1 X-24.669 Y-2.093 E13.85834
G1 X-24.894 Y-1.621 E13.88442
G1 X-25.05 Y-1.047 E13.9141
G1 X-25.122 Y-.463 E13.94346
G1 X-25.138 Y0.082 E13.97066
G1 X-25.095 Y0.685 E14.00082
G1 X-24.985 Y1.266 E14.03032
G1 X-24.811 Y1.754 E14.05617
G1 X-24.564 Y2.187 E14.08104
G1 X-24.158 Y2.635 E14.1112
G1 X-23.661 Y2.972 E14.14116
G1 X-23.206 Y3.151 E14.16555
G1 X-22.656 Y3.247 E14.19341
G1 X-22.042 Y3.238 E14.22404
G1 X-21.482 Y3.114 E14.25266
G1 X-21.062 Y2.905 E14.27606
G1 X-20.699 Y2.572 E14.30064
G1 X-20.47 Y2.165 E14.32394
G1 X-20.434 Y1.938 E14.3354
G1 X-20.534 Y1.671 E14.34963
G1 X-20.778 Y1.451 E14.36602
G1 X-21.077 Y1.348 E14.3818
G1 X-21.368 Y1.356 E14.39632
G0 F3600 X-21.548 Y1.442
G0 X-21.677 Y1.172
G0 X-18.167 Y2.347
G0 X-17.869 Y3.174
G0 X-17.069 Y3.337
G0 X-16.656 Y2.746
G1 F1800 X-16.557 Y2.36 E14.4162
G1 X-16.572 Y1.678 E14.45023
G1 X-16.573 Y1.419 E14.46316
G1 X-16.569 Y0.805 E14.49379
G1 X-16.57 Y-.602 E14.56398
G1 X-16.567 Y-1.226 E14.59512
G1 X-16.553 Y-1.751 E14.62132
G1 X-16.464 Y-1.808 E14.62659
G1 X-15.737 Y-1.79 E14.66287
G1 X-15.233 Y-1.822 E14.68807
G1 X-14.905 Y-1.941 E14.70548
G1 X-14.741 Y-2.108 E14.71715
G1 X-14.656 Y-2.338 E14.72939
G1 X-14.663 Y-2.687 E14.7468
G1 X-14.791 Y-2.963 E14.76198
G1 X-15.001 Y-3.11 E14.77477
G1 X-15.329 Y-3.159 E14.79131
G1 X-16.026 Y-3.15 E14.82609
G1 X-16.206 Y-3.153 E14.83507
G1 X-16.765 Y-3.154 E14.86296
G1 X-17.207 Y-3.152 E14.88501
G1 X-18.009 Y-3.154 E14.92502
G1 X-18.568 Y-3.146 E14.95292
G1 X-19.162 Y-3.186 E14.98262
G1 X-19.465 Y-3.105 E14.99826
G1 X-19.635 Y-2.963 E15.00932
G1 X-19.77 Y-2.705 E15.02384
G1 X-19.802 Y-2.402 E15.03904
G1 X-19.694 Y-2.052 E15.05732
G1 X-19.504 Y-1.851 E15.07112
G1 X-19.258 Y-1.764 E15.08413
G1 X-18.927 Y-1.77 E15.10065
G1 X-18.371 Y-1.834 E15.12857
G1 X-18.098 Y-1.786 E15.1424
G1 X-17.94 Y-1.662 E15.15242
G1 X-17.881 Y-1.413 E15.16519
G1 X-17.917 Y-.784 E15.19662
G1 X-17.908 Y0.095 E15.24048
G1 X-17.913 Y1.33 E15.30209
G1 X-17.901 Y1.977 E15.33438
G1 X-17.941 Y2.541 E15.36259
G1 X-17.863 Y2.826 E15.37733
G1 X-17.729 Y2.975 E15.38732
G1 X-17.431 Y3.095 E15.40335
G1 X-17.119 Y3.098 E15.41892
G1 X-16.834 Y2.971 E15.43449
G1 X-16.656 Y2.746 E15.4488
G0 F3600 X-16.607 Y2.553
G0 X-16.317 Y2.628
G0 X-13.351 Y-.997
G0 X-13.093 Y-.845
G1 F1800 X-13.266 Y-.552 E15.46577
G1 X-13.318 Y-.24 E15.48155
G1 X-13.271 Y-0.004 E15.49356
G1 X-13.156 Y0.161 E15.50359
G1 X-12.862 Y0.307 E15.51997
G1 X-12.302 Y0.418 E15.54845
G1 X-11.994 Y0.573 E15.56566
G1 X-11.704 Y0.883 E15.58683
G1 X-11.578 Y1.208 E15.60422
G1 X-11.602 Y1.508 E15.61924
G1 X-11.742 Y1.758 E15.63353
G1 X-12.001 Y1.932 E15.6491
G1 X-12.265 Y1.964 E15.66237
G1 X-12.536 Y1.806 E15.67802
G1 X-12.929 Y1.55 E15.70142
G1 X-13.21 Y1.487 E15.71579
G1 X-13.551 Y1.526 E15.73291
G1 X-13.819 Y1.686 E15.74848
G1 X-13.964 Y1.926 E15.76247
G1 X-13.991 Y2.27 E15.77968
G1 X-13.901 Y2.572 E15.79541
G1 X-13.688 Y2.85 E15.81288
G1 X-13.398 Y3.041 E15.8302
G1 X-12.919 Y3.198 E15.85535
G1 X-12.421 Y3.255 E15.88036
G1 X-11.889 Y3.236 E15.90692
G1 X-11.354 Y3.104 E15.93441
G1 X-10.929 Y2.872 E15.95857
G1 X-10.573 Y2.54 E15.98285
G1 X-10.274 Y2.057 E16.01119
G1 X-10.113 Y1.529 E16.03873
G1 X-10.096 Y1.074 E16.06145
G1 X-10.229 Y0.47 E16.0923
G1 X-10.424 Y-0.036 E16.11936
G1 X-10.642 Y-.295 E16.13625
G1 X-10.926 Y-.453 E16.15246
G1 X-11.034 Y-.489 E16.15814
G1 X-10.723 Y-.666 E16.169
G1 X-10.491 Y-.935 E16.18673
G1 X-10.368 Y-1.329 E16.20732
G1 X-10.331 Y-1.866 E16.23417
G1 X-10.376 Y-2.234 E16.25267
G1 X-10.512 Y-2.563 E16.27043
G1 X-10.79 Y-2.891 E16.29188
G1 X-11.11 Y-3.107 E16.31114
G1 X-11.616 Y-3.273 E16.33771
G1 X-12.216 Y-3.329 E16.36777
G1 X-12.735 Y-3.292 E16.39373
G1 X-13.215 Y-3.164 E16.41852
G1 X-13.616 Y-2.95 E16.44119
G1 X-13.874 Y-2.701 E16.45908
G1 X-13.995 Y-2.411 E16.47476
G1 X-13.966 Y-2.128 E16.48895
G1 X-13.818 Y-1.851 E16.50462
G1 X-13.572 Y-1.64 E16.52079
G1 X-13.379 Y-1.579 E16.53089
G1 X-13.093 Y-1.632 E16.5454
G1 X-12.648 Y-1.913 E16.57166
G1 X-12.327 Y-2.021 E16.58855
G1 X-12.074 Y-1.981 E16.60133
G1 X-11.916 Y-1.814 E16.6128
G1 X-11.866 Y-1.593 E16.62411
G1 X-11.931 Y-1.379 E16.63526
G1 X-12.064 Y-1.227 E16.64534
G1 X-12.279 Y-1.11 E16.65755
G1 X-12.862 Y-.994 E16.68721
G1 X-13.093 Y-.845 E16.70092
G0 F3600 X-13.194 Y-.673
G0 X-13.452 Y-.825
G0 X-14.197 Y1.849
G0 X-14.117 Y2.684
G0 X-13.503 Y3.259
G0 X-12.667 Y3.467
G0 X-8.854 Y3.324
G0 X-8.682 Y3.08
G1 F1800 X-8.366 Y3.116 E16.71679
G1 X-7.759 Y3.073 E16.74715
G1 X-7.058 Y3.082 E16.78213
G1 X-6.484 Y3.041 E16.81084
G1 X-5.928 Y2.925 E16.83917
G1 X-5.419 Y2.69 E16.86714
G1 X-4.997 Y2.348 E16.89424
G1 X-4.629 Y1.864 E16.92458
G1 X-4.386 Y1.321 E16.95425
G1 X-4.229 Y0.665 E16.98791
G1 X-4.184 Y0.155 E17.01345
G1 X-4.187 Y-.362 E17.03924
G1 X-4.25 Y-.91 E17.06676
G1 X-4.39 Y-1.452 E17.09469
G1 X-4.598 Y-1.921 E17.12029
G1 X-4.868 Y-2.318 E17.14424
G1 X-5.282 Y-2.705 E17.17251
G1 X-5.745 Y-2.948 E17.1986
G1 X-6.426 Y-3.103 E17.23345
G1 X-7.035 Y-3.15 E17.26392
G1 X-7.697 Y-3.149 E17.29695
G1 X-8.166 Y-3.166 E17.32036
G1 X-8.6 Y-3.126 E17.3421
G1 X-8.914 Y-2.972 E17.35955
G1 X-9.064 Y-2.771 E17.37207
G1 X-9.107 Y-2.45 E17.38822
G1 X-9.066 Y-1.946 E17.41345
G1 X-9.077 Y-1.075 E17.45691
G1 X-9.075 Y-.686 E17.47632
G1 X-9.075 Y1.257 E17.57325
G1 X-9.073 Y1.842 E17.60244
G1 X-9.085 Y2.358 E17.62819
G1 X-9.011 Y2.724 E17.64682
G1 X-8.888 Y2.936 E17.65905
G1 X-8.682 Y3.08 E17.67159
G0 F3600 X-8.484 Y3.102
G0 X-8.518 Y3.4
G0 X-3.769 Y3.759
G0 X-3.623 Y3.499
G1 F1800 X-3.205 Y3.564 E17.69269
G1 X-2.792 Y3.481 E17.71371
G1 X-2.427 Y3.254 E17.73515
G1 X-2.171 Y2.924 E17.75599
G1 X-2.042 Y2.524 E17.77696
G1 X-2.062 Y2.1 E17.79813
G1 X-2.223 Y1.712 E17.81909
G1 X-2.514 Y1.402 E17.8403
G1 X-2.893 Y1.214 E17.86141
G1 X-3.205 Y1.165 E17.87717
G1 X-3.622 Y1.229 E17.89821
G1 X-3.992 Y1.436 E17.91937
G1 X-4.268 Y1.758 E17.93786
G1 X-4.414 Y2.151 E17.95878
G1 X-4.414 Y2.578 E17.98008
G1 X-4.268 Y2.971 E18.001
G1 X-3.991 Y3.293 E18.02219
G1 X-3.623 Y3.499 E18.04323
G0 F3600 X-3.426 Y3.529
G0 X-3.472 Y3.825
G0 X1.241 Y3.547
G0 X2.157 Y2.902
G0 X1.882 Y2.783
G1 F1800 X1.868 Y2.423 E18.0612
G1 X1.719 Y2.073 E18.08018
G1 X1.272 Y1.319 E18.12391
G1 X1.001 Y0.853 E18.1508
G1 X0.998 Y0.597 E18.16358
G1 X1.144 Y0.281 E18.18094
G1 X1.364 Y-0.067 E18.20148
G1 X1.728 Y-.694 E18.23765
G1 X1.836 Y-1.031 E18.25531
G1 X1.802 Y-1.274 E18.26755
G1 X1.627 Y-1.543 E18.28356
G1 X1.396 Y-1.69 E18.29722
G1 X1.173 Y-1.717 E18.30843
G1 X0.886 Y-1.606 E18.32378
G1 X0.583 Y-1.317 E18.34467
G1 X0.373 Y-.964 E18.36516
G1 X0.192 Y-.546 E18.38789
G1 X-0.087 Y-1.092 E18.41848
G1 X-.395 Y-1.507 E18.44426
G1 X-.665 Y-1.685 E18.4604
G1 X-.889 Y-1.72 E18.47171
G1 X-1.21 Y-1.63 E18.48834
G1 X-1.422 Y-1.453 E18.50212
G1 X-1.527 Y-1.207 E18.51546
G1 X-1.502 Y-.895 E18.53108
G1 X-1.305 Y-.446 E18.55554
G1 X-.932 Y0.21 E18.59319
G1 X-.64 Y0.663 E18.62008
G1 X-.607 Y0.797 E18.62696
G1 X-.916 Y1.247 E18.6542
G1 X-1.198 Y1.739 E18.68249
G1 X-1.476 Y2.217 E18.71008
G1 X-1.595 Y2.565 E18.72842
G1 X-1.582 Y2.827 E18.74151
G1 X-1.445 Y3.065 E18.75521
G1 X-1.206 Y3.23 E18.7697
G1 X-.912 Y3.282 E18.7846
G1 X-.708 Y3.22 E18.79523
G1 X-.442 Y2.976 E18.81324
G1 X-.127 Y2.498 E18.8418
G1 X0.104 Y2.001 E18.86915
G1 X0.419 Y2.585 E18.90225
G1 X0.716 Y3.062 E18.93028
G1 X0.928 Y3.234 E18.9439
G1 X1.239 Y3.302 E18.95979
G1 X1.526 Y3.237 E18.97447
G1 X1.765 Y3.056 E18.98942
G1 X1.882 Y2.783 E19.00424
G0 F3600 X1.875 Y2.583
G0 X2.175 Y2.571
G0 X1.853 Y5.179
G0 X2.618 Y6.097
G0 X2.632 Y5.798
G1 F1800 X2.971 Y5.815 E19.02118
G1 X3.421 Y5.707 E19.04426
G1 X3.871 Y5.484 E19.06932
G1 X4.189 Y5.17 E19.09162
G1 X4.42 Y4.781 E19.11419
G1 X4.716 Y4.082 E19.15206
G1 X5.011 Y3.319 E19.19287
G1 X5.147 Y2.948 E19.21258
G1 X5.909 Y0.808 E19.32592
G1 X5.964 Y0.658 E19.33389
G1 X6.201 Y-0.056 E19.37142
G1 X6.459 Y-.633 E19.40295
G1 X6.533 Y-1.001 E19.42168
G1 X6.465 Y-1.271 E19.43557
G1 X6.277 Y-1.536 E19.45178
G1 X6.069 Y-1.677 E19.46432
G1 X5.852 Y-1.718 E19.47534
G1 X5.611 Y-1.636 E19.48804
G1 X5.422 Y-1.465 E19.50075
G1 X5.182 Y-1.065 E19.52402
G1 X4.947 Y-.385 E19.55992
G1 X4.765 Y0.109 E19.58618
G1 X4.588 Y0.711 E19.61749
G1 X4.575 Y0.752 E19.61963
G1 X4.305 Y0.064 E19.64143
G1 X4.105 Y-.431 E19.66806
G1 X3.938 Y-.991 E19.69722
G1 X3.788 Y-1.366 E19.71737
G1 X3.544 Y-1.599 E19.7342
G1 X3.281 Y-1.699 E19.74824
G1 X2.948 Y-1.703 E19.76485
G1 X2.739 Y-1.613 E19.7762
G1 X2.573 Y-1.401 E19.78964
G1 X2.516 Y-1.127 E19.8036
G1 X2.548 Y-.77 E19.82148
G1 X2.737 Y-.21 E19.85097
G1 X2.935 Y0.269 E19.87683
G1 X3.083 Y0.671 E19.8982
G1 X3.362 Y1.408 E19.93751
G1 X3.555 Y1.939 E19.9657
G1 X3.775 Y2.425 E19.99232
G1 X3.85 Y2.73 E20.00799
G1 X3.745 Y3.052 E20.02488
G1 X3.434 Y3.792 E20.06493
G1 X3.252 Y4.144 E20.0847
G1 X3.095 Y4.293 E20.0955
G1 X2.879 Y4.403 E20.10759
G1 X2.366 Y4.559 E20.13434
G1 X2.193 Y4.693 E20.14526
G1 X2.103 Y4.87 E20.15517
G1 X2.093 Y5.145 E20.1689
G1 X2.191 Y5.441 E20.18445
G1 X2.366 Y5.665 E20.19863
G1 X2.632 Y5.798 E20.21347
G0 F3600 X2.832 Y5.808
G0 X2.818 Y6.106
G0 X9.902 Y3.509
G0 X10.974 Y2.733
G0 X10.701 Y1.853
G0 X10.558 Y2.116
G1 F1800 X10.256 Y1.952 E20.23062
G1 X9.738 Y1.884 E20.25668
G1 X9.025 Y1.927 E20.29232
G1 X8.889 Y1.931 E20.2991
G1 X9.358 Y1.237 E20.34089
G1 X9.919 Y0.437 E20.38964
G1 X10.264 Y-0.046 E20.41925
G1 X10.575 Y-.564 E20.4494
G1 X10.657 Y-.921 E20.46767
G1 X10.606 Y-1.308 E20.48715
G1 X10.453 Y-1.549 E20.50139
G1 X10.259 Y-1.669 E20.51277
G1 X9.859 Y-1.72 E20.53289
G1 X9.474 Y-1.714 E20.5521
G1 X8.415 Y-1.717 E20.60493
G1 X7.905 Y-1.719 E20.63037
G1 X7.433 Y-1.644 E20.65422
G1 X7.185 Y-1.473 E20.66925
G1 X7.057 Y-1.212 E20.68375
G1 X7.049 Y-.876 E20.70052
G1 X7.164 Y-.604 E20.71525
G1 X7.369 Y-.44 E20.72835
G1 X7.665 Y-.355 E20.74371
G1 X8.187 Y-.319 E20.76982
G1 X8.812 Y-.371 E20.80111
G1 X8.513 Y0.043 E20.81325
G1 X8.151 Y0.555 E20.84453
G1 X7.548 Y1.394 E20.89608
G1 X7.184 Y1.913 E20.92771
G1 X7.019 Y2.315 E20.94939
G1 X7.002 Y2.642 E20.96572
G1 X7.122 Y3.004 E20.98475
G1 X7.274 Y3.178 E20.99628
G1 X7.443 Y3.268 E21.00583
G1 X7.824 Y3.3 E21.0249
G1 X8.292 Y3.274 E21.04829
G1 X9.063 Y3.283 E21.08676
G1 X9.802 Y3.283 E21.12363
G1 X10.223 Y3.25 E21.14469
G1 X10.477 Y3.149 E21.15833
G1 X10.652 Y2.955 E21.17137
G1 X10.74 Y2.628 E21.18826
G1 X10.709 Y2.372 E21.20113
G1 X10.558 Y2.116 E21.21595
G0 F3600 X10.382 Y2.021
G0 X10.525 Y1.758
G0 X12.549 Y-.446
G0 X12.817 Y-.579
G1 F1800 X12.96 Y-.211 E21.23565
G1 X12.968 Y0.162 E21.25426
G1 X12.855 Y0.513 E21.27266
G1 X12.526 Y1.059 E21.30446
G1 X12.213 Y1.54 E21.33309
G1 X11.848 Y2.049 E21.36434
G1 X11.536 Y2.449 E21.38965
G1 X11.201 Y2.845 E21.41553
G1 X10.859 Y3.225 E21.44104
G1 X10.388 Y3.713 E21.47487
G1 X10.009 Y4.068 E21.50078
G1 X9.569 Y4.457 E21.53008
G1 X8.996 Y4.917 E21.56674
G1 X8.53 Y5.257 E21.59552
G1 X7.993 Y5.616 E21.62775
G1 X7.567 Y5.879 E21.65272
G1 X7.014 Y6.191 E21.6844
G1 X6.28 Y6.558 E21.72534
G1 X5.812 Y6.763 E21.75083
G1 X5.228 Y7 E21.78228
G1 X4.742 Y7.169 E21.80795
G1 X4.169 Y7.351 E21.83794
G1 X3.612 Y7.5 E21.86671
G1 X2.881 Y7.662 E21.90406
G1 X2.57 Y7.719 E21.91984
G1 X2.065 Y7.798 E21.94534
G1 X1.44 Y7.871 E21.97673
G1 X0.906 Y7.91 E22.00344
G1 X0.3 Y7.934 E22.0337
G1 X-.338 Y7.93 E22.06553
G1 X-.854 Y7.907 E22.0913
G1 X-8.586 Y7.432 E22.47778
G1 X-10.566 Y7.313 E22.57674
G1 X-21.887 Y6.623 E23.14259
G1 X-24.277 Y6.473 E23.26207
G1 X-24.711 Y6.38 E23.28421
G1 X-25.066 Y6.193 E23.30423
G1 X-25.367 Y5.903 E23.32508
G1 X-25.567 Y5.556 E23.34506
G1 X-25.682 Y5.105 E23.36828
G1 X-25.697 Y4.875 E23.37978
G1 X-25.696 Y-4.897 E23.86731
G1 X-25.628 Y-5.37 E23.89115
G1 X-25.466 Y-5.757 E23.91208
G1 X-25.208 Y-6.077 E23.93259
G1 X-24.878 Y-6.308 E23.95268
G1 X-24.461 Y-6.451 E23.97468
G1 X-24.237 Y-6.478 E23.98593
G1 X-.703 Y-7.916 E25.16224
G1 X0.001 Y-7.936 E25.19738
G1 X0.684 Y-7.921 E25.23146
G1 X1.372 Y-7.877 E25.26585
G1 X2.211 Y-7.777 E25.30801
G1 X2.925 Y-7.653 E25.34416
G1 X3.729 Y-7.47 E25.3853
G1 X4.379 Y-7.286 E25.419
G1 X5.003 Y-7.08 E25.45179
G1 X5.49 Y-6.897 E25.47774
G1 X6.089 Y-6.644 E25.51018
G1 X6.723 Y-6.343 E25.5452
G1 X7.22 Y-6.078 E25.5733
G1 X7.692 Y-5.803 E25.60055
G1 X8.184 Y-5.493 E25.62956
G1 X8.701 Y-5.136 E25.66091
G1 X9.19 Y-4.765 E25.69153
G1 X9.833 Y-4.23 E25.73326
G1 X10.402 Y-3.697 E25.77216
G1 X10.768 Y-3.325 E25.7982
G1 X11.144 Y-2.912 E25.82606
G1 X11.511 Y-2.477 E25.85445
G1 X11.825 Y-2.073 E25.87998
G1 X12.254 Y-1.475 E25.9167
G1 X12.533 Y-1.049 E25.94211
G1 X12.817 Y-.579 E25.9695
G0 F3600 X12.889 Y-.393
G0 X12.174 Y-0.056
;TYPE:SKIN
G1 F1800 X12.131 Y0.185 E25.98172
G1 X11.856 Y0.641 E26.00828
G1 X11.57 Y1.081 E26.03446
G1 X11.211 Y1.584 E26.06529
G1 X11.182 Y1.619 E26.06756
G1 X11.127 Y1.526 E26.07295
G1 X10.505 Y1.188 E26.10827
G1 X10.37 Y1.17 E26.11506
G1 X10.564 Y0.894 E26.1319
G1 X10.925 Y0.388 E26.16291
G1 X11.317 Y-.265 E26.2009
G1 X11.459 Y-.883 E26.23254
G1 X11.403 Y-1.305 E26.25378
G1 X11.865 Y-.627 E26.29471
G1 X12.174 Y-0.056 E26.3271
G0 F3600 X10.512 Y-2.433
G1 F1800 X9.903 Y-2.51 E26.35773
G1 X9.465 Y-2.504 E26.37958
G1 X7.844 Y-2.509 E26.46045
G1 X7.133 Y-2.396 E26.49637
G1 X6.777 Y-2.151 E26.51793
G1 X6.377 Y-2.423 E26.54206
G1 X5.794 Y-2.533 E26.57166
G1 X5.201 Y-2.331 E26.60292
G1 X4.806 Y-1.972 E26.62955
G1 X4.56 Y-1.563 E26.65336
G1 X4.458 Y-1.819 E26.66711
G1 X3.974 Y-2.281 E26.70049
G1 X3.431 Y-2.488 E26.72948
G1 X2.79 Y-2.495 E26.76146
G1 X2.241 Y-2.259 E26.79127
G1 X2.152 Y-2.146 E26.79845
G1 X1.669 Y-2.452 E26.82698
G1 X1.072 Y-2.525 E26.85698
G1 X0.455 Y-2.286 E26.88999
G1 X0.195 Y-2.039 E26.90789
G1 X0.157 Y-2.09 E26.91106
G1 X-.373 Y-2.439 E26.94272
G1 X-.937 Y-2.527 E26.9712
G1 X-1.587 Y-2.345 E27.00487
G1 X-2.074 Y-1.938 E27.03654
G1 X-2.33 Y-1.338 E27.06908
G1 X-2.279 Y-.699 E27.10106
G1 X-2.012 Y-0.091 E27.13419
G1 X-1.608 Y0.62 E27.17499
G1 X-1.528 Y0.743 E27.18231
G1 X-1.731 Y1.081 E27.20198
G1 X-2.036 Y0.758 E27.22414
G1 X-2.651 Y0.452 E27.25842
G1 X-3.204 Y0.366 E27.28634
G1 X-3.413 Y0.398 E27.29688
G1 X-3.394 Y0.187 E27.30745
G1 X-3.397 Y-.409 E27.33719
G1 X-3.472 Y-1.055 E27.36963
G1 X-3.641 Y-1.713 E27.40353
G1 X-3.904 Y-2.306 E27.43589
G1 X-4.264 Y-2.835 E27.46782
G1 X-4.82 Y-3.355 E27.5058
G1 X-5.469 Y-3.695 E27.54235
G1 X-6.307 Y-3.886 E27.58523
G1 X-7.006 Y-3.94 E27.62021
G1 X-7.67 Y-3.939 E27.65333
G1 X-8.188 Y-3.957 E27.67919
G1 X-8.817 Y-3.9 E27.7107
G1 X-9.433 Y-3.597 E27.74495
G1 X-9.82 Y-3.079 E27.77721
G1 X-9.833 Y-2.983 E27.78204
G1 X-10.258 Y-3.485 E27.81486
G1 X-10.759 Y-3.823 E27.84501
G1 X-11.454 Y-4.051 E27.8815
G1 X-12.208 Y-4.122 E27.91928
G1 X-12.865 Y-4.074 E27.95215
G1 X-13.507 Y-3.904 E27.98528
G1 X-14.086 Y-3.595 E28.01803
G1 X-14.182 Y-3.501 E28.02473
G1 X-14.701 Y-3.864 E28.05633
G1 X-15.276 Y-3.949 E28.08533
G1 X-16.022 Y-3.94 E28.12255
G1 X-16.198 Y-3.943 E28.13133
G1 X-16.766 Y-3.944 E28.15967
G1 X-17.21 Y-3.942 E28.18182
G1 X-18.013 Y-3.944 E28.22188
G1 X-18.538 Y-3.936 E28.24807
G1 X-19.239 Y-3.984 E28.28313
G1 X-19.838 Y-3.824 E28.31406
G1 X-20.263 Y-3.468 E28.34172
G1 X-20.311 Y-3.375 E28.34694
G1 X-20.776 Y-3.731 E28.37616
G1 X-21.46 Y-4.01 E28.41301
G1 X-22.126 Y-4.112 E28.44663
G1 X-22.893 Y-4.091 E28.48491
G1 X-23.588 Y-3.935 E28.52044
G1 X-24.295 Y-3.595 E28.55958
G1 X-24.861 Y-3.137 E28.59591
G1 X-24.906 Y-3.079 E28.59957
G1 X-24.906 Y-4.841 E28.68748
G1 X-24.861 Y-5.158 E28.70345
G1 X-24.78 Y-5.349 E28.7138
G1 X-24.526 Y-5.591 E28.7313
G1 X-24.141 Y-5.692 E28.75116
G1 X-.668 Y-7.126 E29.92442
G1 X0.007 Y-7.146 E29.95811
G1 X0.648 Y-7.131 E29.9901
G1 X1.3 Y-7.089 E30.02269
G1 X2.105 Y-6.993 E30.06314
G1 X2.767 Y-6.88 E30.09664
G1 X3.532 Y-6.705 E30.1358
G1 X4.136 Y-6.535 E30.1671
G1 X4.748 Y-6.332 E30.19927
G1 X5.197 Y-6.164 E30.22319
G1 X5.754 Y-5.928 E30.25337
G1 X6.366 Y-5.637 E30.28718
G1 X6.836 Y-5.387 E30.31373
G1 X7.325 Y-5.102 E30.34197
G1 X7.719 Y-4.854 E30.3652
G1 X8.23 Y-4.501 E30.39618
G1 X8.698 Y-4.146 E30.42549
G1 X9.31 Y-3.637 E30.4652
G1 X9.844 Y-3.137 E30.5017
G1 X10.512 Y-2.433 E30.55012
G0 F3600 X9.756 Y-2.688
G1 F1800 X8.02 Y-4.424 E30.6726
G1 X7.95 Y-4.494
G0 F3600 X8.058 Y-2.689
G1 F1800 X4.537 Y-6.21 E30.92103
G1 X4.467 Y-6.28
G0 F3600 X3.719 Y-6.462
G1 F1800 X7.539 Y-2.643 E31.19051
G0 F3600 X7.054 Y-2.561
G1 F1800 X2.968 Y-6.648 E31.47884
G0 F3600 X2.269 Y-6.781
G1 F1800 X6.482 Y-2.568 E31.77609
G0 F3600 X5.77 Y-2.714
G1 F1800 X1.617 Y-6.868 E32.06914
G0 F3600 X0.992 Y-6.926
G1 F1800 X5.347 Y-2.571 E32.37641
G0 F3600 X4.979 Y-2.374
G1 F1800 X0.398 Y-6.955 E32.69962
G0 F3600 X-.171 Y-6.96
G1 F1800 X4.683 Y-2.105 E33.04213
G1 X4.753 Y-2.035
G0 F3600 X3.609 Y-2.612
G1 F1800 X-.718 Y-6.94 E33.34746
G0 F3600 X-1.251 Y-6.908
G1 F1800 X2.983 Y-2.672 E33.64626
G0 F3600 X2.517 Y-2.573
G1 F1800 X-1.784 Y-6.875 E33.94976
G0 F3600 X-2.317 Y-6.843
G1 F1800 X2.124 Y-2.401 E34.26313
G1 X2.194 Y-2.331
G0 F3600 X1.279 Y-2.68
G1 F1800 X-2.851 Y-6.81 E34.55452
G0 F3600 X-3.384 Y-6.778
G1 F1800 X0.787 Y-2.607 E34.84881
G0 F3600 X0.379 Y-2.448
G1 F1800 X-3.917 Y-6.745 E35.15195
G0 F3600 X-4.45 Y-6.713
G1 F1800 X-.354 Y-2.617 E35.44095
G0 F3600 X-.999 Y-2.696
G1 F1800 X-4.983 Y-6.68 E35.72204
G0 F3600 X-5.516 Y-6.648
G1 F1800 X-1.441 Y-2.572 E36.00959
G0 F3600 X-1.819 Y-2.385
G1 F1800 X-6.05 Y-6.615 E36.30807
G0 F3600 X-6.583 Y-6.583
G1 F1800 X-2.127 Y-2.127 E36.62247
G0 F3600 X-2.339 Y-1.773
G1 F1800 X-7.116 Y-6.55 E36.95951
G0 F3600 X-7.649 Y-6.518
G1 F1800 X-2.508 Y-1.376 E37.32227
G0 F3600 X-2.463 Y-.766
G1 F1800 X-3.469 Y-1.772 E37.39325
G0 F3600 X-3.287 Y-1.024
G1 F1800 X-2.04 Y0.222 E37.4812
G0 F3600 X-2.505 Y0.323
G1 F1800 X-3.216 Y-.388 E37.53136
G1 X-3.286 Y-.458
G0 F3600 X-5.608 Y-3.911
G1 F1800 X-8.182 Y-6.485 E37.71297
G0 F3600 X-8.715 Y-6.453
G1 F1800 X-6.331 Y-4.068 E37.88121
G0 F3600 X-6.944 Y-4.116
G1 F1800 X-9.248 Y-6.419 E38.04374
G0 F3600 X-9.781 Y-6.387
G1 F1800 X-7.514 Y-4.12 E38.20369
G0 F3600 X-8.093 Y-4.133
G1 F1800 X-10.314 Y-6.354 E38.36039
G0 F3600 X-10.847 Y-6.322
G1 F1800 X-8.623 Y-4.097 E38.51734
G0 F3600 X-9.067 Y-3.976
G1 F1800 X-11.38 Y-6.289 E38.68053
G0 F3600 X-11.914 Y-6.257
G1 F1800 X-9.446 Y-3.79 E38.85463
G0 F3600 X-9.726 Y-3.503
G1 F1800 X-12.447 Y-6.224 E39.04661
G0 F3600 X-12.98 Y-6.192
G1 F1800 X-10.82 Y-4.032 E39.19901
G1 X-10.75 Y-3.962
G0 F3600 X-11.599 Y-4.245
G1 F1800 X-13.513 Y-6.159 E39.33405
G0 F3600 X-14.046 Y-6.127
G1 F1800 X-12.222 Y-4.302 E39.46278
G0 F3600 X-12.749 Y-4.263
G1 F1800 X-14.579 Y-6.094 E39.59193
G0 F3600 X-15.112 Y-6.062
G1 F1800 X-13.217 Y-4.166 E39.72567
G0 F3600 X-13.648 Y-4.031
G1 F1800 X-15.646 Y-6.029 E39.86664
G0 F3600 X-16.179 Y-5.996
G1 F1800 X-14.016 Y-3.834 E40.01922
G1 X-13.946 Y-3.764
G0 F3600 X-14.809 Y-4.061
G1 F1800 X-16.712 Y-5.964 E40.15348
G0 F3600 X-17.245 Y-5.931
G1 F1800 X-15.44 Y-4.126 E40.28084
G0 F3600 X-15.999 Y-4.12
G1 F1800 X-17.778 Y-5.899 E40.40635
G0 F3600 X-18.311 Y-5.866
G1 F1800 X-16.568 Y-4.123 E40.52933
G0 F3600 X-17.133 Y-4.122
G1 F1800 X-18.845 Y-5.834 E40.65012
G0 F3600 X-19.378 Y-5.801
G1 F1800 X-17.699 Y-4.123 E40.76855
G0 F3600 X-18.262 Y-4.12
G1 F1800 X-19.911 Y-5.769 E40.8849
G0 F3600 X-20.444 Y-5.736
G1 F1800 X-18.846 Y-4.138 E40.99764
G0 F3600 X-19.4 Y-4.127
G1 F1800 X-20.977 Y-5.703 E41.10887
G0 F3600 X-21.51 Y-5.67
G1 F1800 X-19.847 Y-4.007 E41.22621
G0 F3600 X-20.177 Y-3.773
G1 F1800 X-22.043 Y-5.638 E41.35783
G0 F3600 X-22.576 Y-5.605
G1 F1800 X-20.977 Y-4.007 E41.47061
G1 X-20.907 Y-3.937
G0 F3600 X-21.776 Y-4.24
G1 F1800 X-23.109 Y-5.573 E41.56466
G0 F3600 X-23.642 Y-5.54
G1 F1800 X-22.387 Y-4.285 E41.65321
G0 F3600 X-22.932 Y-4.265
G1 F1800 X-24.166 Y-5.498 E41.74024
G0 F3600 X-24.55 Y-5.317
G1 F1800 X-23.395 Y-4.162 E41.82173
G0 F3600 X-23.821 Y-4.022
G1 F1800 X-24.713 Y-4.914 E41.88467
G0 F3600 X-24.725 Y-4.36
G1 F1800 X-24.203 Y-3.838 E41.9215
G0 F3600 X-24.55 Y-3.62
G1 F1800 X-24.725 Y-3.795 E41.93384
G0 F3600 X5.456 Y-5.857
G1 F1800 X8.626 Y-2.687 E42.1575
G0 F3600 X9.193 Y-2.685
G1 F1800 X6.539 Y-5.34 E42.34479
G1 X6.469 Y-5.41
G0 F3600 X10.625 Y-1.723
G0 X11.522 Y-.357
G1 F1800 X11.965 Y0.086 E42.37605
G0 F3600 X11.761 Y0.447
G1 F1800 X11.347 Y0.033 E42.40526
G0 F3600 X11.134 Y0.386
G1 F1800 X11.542 Y0.794 E42.43405
G0 F3600 X11.313 Y1.13
G1 F1800 X10.906 Y0.724 E42.46273
G0 F3600 X10.899 Y-.91
G0 X10.625 Y-1.723
G0 X9.469 Y-1.954
G0 X-.903 Y-1.963
G0 X-3.991 Y0.7
G0 X-4.798 Y2.475
G0 X-5.851 Y3.152
G0 X-8.373 Y3.356
G0 X-9.205 Y2.865
G0 X-9.654 Y0.244
;TYPE:SKIN
G1 F1800 X-9.718 Y0.181 E42.46497
G0 F3600 X-9.654 Y-0.038
G1 F1800 X-9.895 Y-.278 E42.47345
G0 F3600 X-9.654 Y-.321
G1 F1800 X-9.977 Y-.643 E42.48483
G0 F3600 X-9.907 Y-.857
G1 F1800 X-9.654 Y-.603 E42.49377
G0 F3600 X-9.655 Y-.887
G1 F1800 X-9.84 Y-1.071 E42.50028
G0 F3600 X-9.654 Y-1.169
G1 F1800 X-9.787 Y-1.302 E42.50497
G0 F3600 X-9.651 Y-1.448
G1 F1800 X-9.77 Y-1.567 E42.50917
G0 F3600 X-9.647 Y-1.728
G1 F1800 X-9.751 Y-1.832 E42.51284
G0 F3600 X-9.652 Y-2.015
G1 F1800 X-9.78 Y-2.143 E42.51735
G0 F3600 X-9.677 Y-2.323
G1 F1800 X-9.86 Y-2.506 E42.52381
G0 F3600 X-9.67 Y-2.599
G1 F1800 X-9.845 Y-2.774 E42.52998
G0 F3600 X-11.003 Y-3.323
G0 X-12.213 Y-3.569
G0 X-13.306 Y-3.387
G0 X-14.076 Y-2.839
G0 X-14.007 Y-1.698
G0 X-12.827 Y-1.453
G0 X-13.964 Y-.936
;TYPE:SKIN
G1 F1800 X-14.021 Y-.827 E42.53612
G1 X-14.121 Y-.228 E42.56642
G1 X-14.014 Y0.312 E42.59388
G1 X-13.71 Y0.749 E42.62044
G1 X-13.81 Y0.76 E42.62546
G1 X-14.393 Y1.109 E42.65936
G1 X-14.737 Y1.677 E42.69249
G1 X-14.79 Y2.354 E42.72637
G1 X-14.616 Y2.938 E42.75677
G1 X-14.233 Y3.437 E42.78815
G1 X-13.744 Y3.759 E42.81736
G1 X-13.089 Y3.974 E42.85176
G1 X-12.452 Y4.046 E42.88374
G1 X-11.779 Y4.022 E42.91734
G1 X-11.066 Y3.847 E42.95396
G1 X-10.463 Y3.517 E42.98826
G1 X-9.957 Y3.046 E43.02275
G1 X-9.802 Y2.796 E43.03742
G1 X-9.76 Y3.008 E43.0482
G1 X-9.484 Y3.484 E43.07566
G1 X-8.97 Y3.842 E43.10691
G1 X-8.383 Y3.91 E43.13639
G1 X-7.748 Y3.863 E43.16815
G1 X-7.035 Y3.872 E43.20373
G1 X-6.375 Y3.826 E43.23674
G1 X-5.679 Y3.68 E43.27222
G1 X-4.998 Y3.366 E43.30963
G1 X-4.972 Y3.345 E43.3113
G1 X-4.959 Y3.379 E43.31311
G1 X-4.498 Y3.913 E43.34831
G1 X-3.885 Y4.257 E43.38338
G1 X-3.188 Y4.366 E43.41857
G1 X-2.496 Y4.228 E43.45378
G1 X-1.89 Y3.85 E43.48941
G1 X-1.823 Y3.764 E43.49485
G1 X-1.514 Y3.978 E43.5136
G1 X-.862 Y4.093 E43.54663
G1 X-.306 Y3.923 E43.57564
G1 X0.094 Y3.556 E43.60272
G1 X0.116 Y3.592 E43.60483
G1 X0.576 Y3.965 E43.63437
G1 X1.243 Y4.112 E43.66845
G1 X1.825 Y3.979 E43.69823
G1 X1.569 Y4.177 E43.71438
G1 X1.32 Y4.667 E43.7418
G1 X1.299 Y5.258 E43.7713
G1 X1.484 Y5.82 E43.80082
G1 X1.853 Y6.292 E43.83071
G1 X2.427 Y6.579 E43.86273
G1 X3.045 Y6.609 E43.8936
G1 X3.692 Y6.454 E43.92679
G1 X4.336 Y6.136 E43.96262
G1 X4.817 Y5.66 E43.99638
G1 X5.127 Y5.138 E44.02667
G1 X5.448 Y4.378 E44.06783
G1 X5.75 Y3.597 E44.10961
G1 X5.89 Y3.217 E44.12981
G1 X6.231 Y2.263 E44.18036
G1 X6.205 Y2.749 E44.20464
G1 X6.423 Y3.403 E44.23903
G1 X6.774 Y3.807 E44.26573
G1 X7.215 Y4.042 E44.29066
G1 X7.812 Y4.091 E44.32055
G1 X8.312 Y4.064 E44.34553
G1 X8.789 Y4.07 E44.36933
G1 X8.523 Y4.284 E44.38636
G1 X8.084 Y4.604 E44.41346
G1 X7.566 Y4.951 E44.44457
G1 X7.166 Y5.198 E44.46802
G1 X6.661 Y5.484 E44.49698
G1 X5.929 Y5.85 E44.53781
G1 X5.516 Y6.031 E44.5603
G1 X4.948 Y6.261 E44.59088
G1 X4.492 Y6.419 E44.61495
G1 X3.925 Y6.599 E44.64463
G1 X3.432 Y6.731 E44.67009
G1 X2.724 Y6.888 E44.70627
G1 X2.448 Y6.938 E44.72027
G1 X1.953 Y7.015 E44.74526
G1 X1.358 Y7.085 E44.77515
G1 X0.869 Y7.12 E44.79961
G1 X0.273 Y7.144 E44.82937
G1 X-.303 Y7.14 E44.85811
G1 X-.812 Y7.118 E44.88352
G1 X-8.537 Y6.643 E45.26965
G1 X-10.517 Y6.524 E45.36861
G1 X-21.838 Y5.834 E45.93447
G1 X-24.174 Y5.688 E46.05124
G1 X-24.44 Y5.63 E46.06482
G1 X-24.598 Y5.547 E46.07373
G1 X-24.738 Y5.412 E46.08343
G1 X-24.822 Y5.266 E46.09183
G1 X-24.907 Y4.826 E46.11419
G1 X-24.907 Y2.984 E46.20609
G1 X-24.679 Y3.235 E46.22301
G1 X-24.032 Y3.675 E46.26204
G1 X-23.421 Y3.916 E46.29481
G1 X-22.719 Y4.038 E46.33036
G1 X-21.95 Y4.027 E46.36873
G1 X-21.217 Y3.864 E46.40619
G1 X-20.61 Y3.562 E46.44001
G1 X-20.072 Y3.07 E46.47639
G1 X-19.712 Y2.43 E46.51302
G1 X-19.62 Y1.855 E46.54207
G1 X-19.862 Y1.213 E46.5763
G1 X-20.368 Y0.756 E46.61032
G1 X-20.955 Y0.554 E46.64129
G1 X-21.559 Y0.571 E46.67144
G1 X-22.1 Y0.832 E46.7014
G1 X-22.351 Y1.061 E46.71835
G1 X-22.648 Y1.014 E46.73336
G1 X-22.822 Y0.812 E46.74666
G1 X-22.91 Y0.496 E46.76302
G1 X-22.946 Y-0.005 E46.78808
G1 X-22.929 Y-.418 E46.8087
G1 X-22.842 Y-.83 E46.82971
G1 X-22.703 Y-1.049 E46.84265
G1 X-22.458 Y-1.124 E46.85544
G1 X-22.374 Y-1.088 E46.86
G1 X-21.889 Y-.795 E46.88826
G1 X-21.272 Y-.602 E46.92052
G1 X-20.701 Y-.654 E46.94912
G1 X-20.138 Y-.986 E46.98173
G1 X-19.988 Y-1.212 E46.99526
G1 X-19.947 Y-1.169 E46.99823
G1 X-19.387 Y-.971 E47.02786
G1 X-18.874 Y-.98 E47.05346
G1 X-18.696 Y-1.001 E47.0624
G1 X-18.707 Y-.802 E47.07234
G1 X-18.698 Y0.091 E47.1169
G1 X-18.703 Y1.335 E47.17896
G1 X-18.691 Y1.954 E47.20985
G1 X-18.739 Y2.62 E47.24316
G1 X-18.575 Y3.216 E47.274
G1 X-18.194 Y3.639 E47.30241
G1 X-17.588 Y3.884 E47.33502
G1 X-16.954 Y3.889 E47.36665
G1 X-16.335 Y3.614 E47.40044
G1 X-15.933 Y3.105 E47.4328
G1 X-15.764 Y2.451 E47.4665
G1 X-15.782 Y1.661 E47.50592
G1 X-15.783 Y1.424 E47.51775
G1 X-15.779 Y0.808 E47.54848
G1 X-15.78 Y-.598 E47.61863
G1 X-15.778 Y-1.001 E47.63873
G1 X-15.721 Y-1 E47.64158
G1 X-15.07 Y-1.04 E47.67412
G1 X-14.467 Y-1.26 E47.70614
G1 X-14.41 Y-1.318 E47.7102
G1 X-13.964 Y-.936 E47.73949
G0 F3600 X-14.235 Y-2.421
G0 X-13.759 Y-3.145
G0 X-12.771 Y-3.529
G0 X-6.39 Y-3.34
G0 X1.478 Y-1.92
G0 X2.04 Y-1.324
G0 X1.828 Y0.704
G1 F1800 X2.081 Y0.271 E47.76451
G1 X2.343 Y0.948 E47.80073
G1 X2.619 Y1.678 E47.83967
G1 X2.823 Y2.238 E47.8694
G1 X3.029 Y2.698 E47.89455
G1 X3.002 Y2.781 E47.8989
G1 X2.724 Y3.444 E47.93477
G1 X2.584 Y3.667 E47.9479
G1 X2.054 Y3.828 E47.97554
G1 X2.409 Y3.559 E47.99776
G1 X2.679 Y2.93 E48.03191
G1 X2.651 Y2.248 E48.06596
G1 X2.426 Y1.715 E48.09483
G1 X1.951 Y0.916 E48.1412
G1 X1.828 Y0.704 E48.15343
G0 F3600 X2.791 Y4.179
G0 X2.004 Y4.537
G0 X1.977 Y5.557
G0 X2.994 Y6.054
G0 X4.012 Y5.681
G0 X6.498 Y1.514
G1 F1800 X6.711 Y0.917 E48.18505
G1 X6.94 Y0.228 E48.22128
G1 X7.314 Y0.366 E48.24116
G1 X6.904 Y0.936 E48.27619
G1 X6.498 Y1.514 E48.31143
G0 F3600 X6.912 Y3.125
G0 X7.901 Y4.507
G1 F1800 X7.652 Y4.258 E48.329
G0 F3600 X7.563 Y4.735
G1 F1800 X6.914 Y4.086 E48.37479
G1 X6.844 Y4.016
G0 F3600 X7.216 Y4.953
G1 F1800 X5.919 Y3.656 E48.4663
G0 F3600 X6.233 Y3.404
G1 F1800 X6.07 Y3.242 E48.47777
G0 F3600 X5.761 Y4.064
G1 F1800 X6.859 Y5.162 E48.55524
G0 F3600 X6.495 Y5.364
G1 F1800 X5.602 Y4.471 E48.61824
G0 F3600 X5.434 Y4.869
G1 F1800 X6.118 Y5.552 E48.66647
G0 F3600 X5.736 Y5.736
G1 F1800 X5.261 Y5.261 E48.69998
G0 F3600 X5.05 Y5.616
G1 F1800 X5.34 Y5.906 E48.72044
G0 F3600 X4.938 Y6.069
G1 F1800 X4.799 Y5.93 E48.73025
G0 F3600 X2.259 Y6.784
G1 F1800 X2.082 Y6.607 E48.74274
G0 F3600 X1.763 Y6.854
G1 F1800 X-.822 Y4.268 E48.92516
G0 F3600 X-.388 Y4.136
G1 F1800 X1.295 Y5.82 E49.04394
G0 F3600 X1.125 Y5.085
G1 F1800 X-0.038 Y3.921 E49.12603
G1 X-.108 Y3.851
G0 F3600 X0.803 Y4.198
G1 F1800 X1.17 Y4.565 E49.15193
G0 F3600 X1.255 Y6.911
G1 F1800 X-1.492 Y4.164 E49.34574
G0 F3600 X-2.056 Y4.166
G1 F1800 X0.721 Y6.944 E49.54171
G0 F3600 X0.174 Y6.962
G1 F1800 X-2.404 Y4.383 E49.72364
G0 F3600 X-2.868 Y4.485
G1 F1800 X-.399 Y6.954 E49.89784
G0 F3600 X-.994 Y6.925
G1 F1800 X-3.406 Y4.513 E50.06802
G1 X-3.476 Y4.443
G0 F3600 X-4.197 Y4.287
G1 F1800 X-1.597 Y6.887 E50.25146
G0 F3600 X-2.199 Y6.851
G1 F1800 X-5.331 Y3.719 E50.47244
G0 F3600 X-5.739 Y3.877
G1 F1800 X-2.802 Y6.814 E50.67966
G0 F3600 X-3.405 Y6.776
G1 F1800 X-6.206 Y3.975 E50.87729
G0 F3600 X-6.716 Y4.031
G1 F1800 X-4.007 Y6.74 E51.06842
G0 F3600 X-4.61 Y6.703
G1 F1800 X-7.264 Y4.049 E51.25568
G0 F3600 X-7.829 Y4.049
G1 F1800 X-5.213 Y6.665 E51.44025
G0 F3600 X-5.815 Y6.629
G1 F1800 X-8.356 Y4.088 E51.61953
G0 F3600 X-8.99 Y4.02
G1 F1800 X-6.418 Y6.592 E51.801
G0 F3600 X-7.021 Y6.554
G1 F1800 X-10.126 Y3.449 E52.02007
G0 F3600 X-10.435 Y3.706
G1 F1800 X-7.624 Y6.518 E52.21844
G0 F3600 X-8.227 Y6.48
G1 F1800 X-10.8 Y3.907 E52.39998
G0 F3600 X-11.206 Y4.067
G1 F1800 X-8.828 Y6.444 E52.56772
G0 F3600 X-9.43 Y6.408
G1 F1800 X-11.66 Y4.179 E52.72503
G0 F3600 X-12.187 Y4.217
G1 F1800 X-10.032 Y6.372 E52.87707
G0 F3600 X-10.634 Y6.335
G1 F1800 X-12.78 Y4.19 E53.02845
G0 F3600 X-13.511 Y4.024
G1 F1800 X-11.237 Y6.298 E53.18889
G0 F3600 X-11.839 Y6.262
G1 F1800 X-15.592 Y2.509 E53.45369
G0 F3600 X-15.708 Y2.959
G1 F1800 X-12.441 Y6.226 E53.68419
G0 F3600 X-13.043 Y6.189
G1 F1800 X-15.89 Y3.342 E53.88506
G0 F3600 X-16.141 Y3.657
G1 F1800 X-13.646 Y6.152 E54.0611
G0 F3600 X-14.248 Y6.115
G1 F1800 X-16.485 Y3.879 E54.2189
G0 F3600 X-16.877 Y4.053
G1 F1800 X-14.851 Y6.078 E54.36181
G0 F3600 X-15.453 Y6.042
G1 F1800 X-17.43 Y4.065 E54.50129
G1 X-17.5 Y3.995
G0 F3600 X-18.254 Y3.807
G1 F1800 X-16.056 Y6.005 E54.65638
G0 F3600 X-16.658 Y5.968
G1 F1800 X-19.753 Y2.873 E54.87474
G0 F3600 X-19.97 Y3.222
G1 F1800 X-17.261 Y5.931 E55.06588
G0 F3600 X-17.863 Y5.895
G1 F1800 X-20.265 Y3.493 E55.23535
G0 F3600 X-20.576 Y3.747
G1 F1800 X-18.466 Y5.858 E55.38426
G0 F3600 X-19.068 Y5.821
G1 F1800 X-20.955 Y3.935 E55.51736
G0 F3600 X-21.373 Y4.082
G1 F1800 X-19.671 Y5.784 E55.63745
G0 F3600 X-20.273 Y5.748
G1 F1800 X-21.834 Y4.186 E55.74762
G0 F3600 X-22.373 Y4.213
G1 F1800 X-20.875 Y5.712 E55.85335
G0 F3600 X-21.477 Y5.675
G1 F1800 X-22.977 Y4.175 E55.95918
G0 F3600 X-23.731 Y3.986
G1 F1800 X-22.08 Y5.637 E56.07567
G0 F3600 X-22.683 Y5.6
G1 F1800 X-24.726 Y3.558 E56.21978
G0 F3600 X-24.726 Y4.123
G1 F1800 X-23.287 Y5.562 E56.32131
G0 F3600 X-23.891 Y5.524
G1 F1800 X-24.726 Y4.689 E56.38022
G1 X-24.796 Y4.619
G0 F3600 X-21.4 Y3.34
G0 X-20.507 Y2.72
G0 X-20.189 Y1.912
G0 X-20.655 Y1.24
G0 X-22.364 Y0.828
G1 F1800 X-22.732 Y0.461 E56.40615
G0 F3600 X-22.76 Y-.132
G1 F1800 X-22.029 Y0.598 E56.45769
G0 F3600 X-21.647 Y0.414
G1 F1800 X-22.698 Y-.636 E56.53181
G0 F3600 X-22.375 Y-.879
G1 F1800 X-21.117 Y0.378 E56.62053
G0 F3600 X-20.363 Y0.566
G1 F1800 X-21.375 Y-.444 E56.69186
G0 F3600 X-20.825 Y-.461
G1 F1800 X-18.879 Y1.485 E56.82916
G0 F3600 X-18.879 Y0.919
G1 F1800 X-20.412 Y-.613 E56.93729
G0 F3600 X-20.057 Y-.823
G1 F1800 X-18.878 Y0.354 E57.02041
G0 F3600 X-18.88 Y-.212
G1 F1800 X-19.48 Y-.812 E57.06274
G1 X-19.55 Y-.882
G0 F3600 X-19.64 Y1.289
G1 F1800 X-18.876 Y2.053 E57.11664
G0 F3600 X-18.915 Y2.58
G1 F1800 X-19.465 Y2.03 E57.15545
G0 F3600 X-19.55 Y2.511
G1 F1800 X-18.55 Y3.51 E57.22597
G1 X-18.48 Y3.58
G0 F3600 X-17.069 Y3.337
G0 X-15.595 Y1.941
G1 F1800 X-14.889 Y2.646 E57.27575
G0 F3600 X-14.943 Y2.027
G1 F1800 X-15.602 Y1.368 E57.32224
G0 F3600 X-15.599 Y0.805
G1 F1800 X-14.864 Y1.54 E57.3741
G0 F3600 X-14.65 Y1.188
G1 F1800 X-15.599 Y0.239 E57.44106
G0 F3600 X-15.599 Y-.325
G1 F1800 X-14.381 Y0.891 E57.52692
G0 F3600 X-14.027 Y0.68
G1 F1800 X-15.537 Y-.83 E57.63346
G0 F3600 X-15.011 Y-.869
G1 F1800 X-14.285 Y-.143 E57.68468
G0 F3600 X-14.231 Y-.654
G1 F1800 X-14.596 Y-1.02 E57.71047
G0 F3600 X-16.437 Y2.853
G0 X-17.477 Y3.334
G0 X-21.209 Y-1.161
G0 X-20.279 Y-1.769
G0 X-20.573 Y-2.881
G0 X-21.608 Y-3.476
G0 X-22.825 Y-3.542
G0 X-23.995 Y-3.128
G0 X-24.796 Y-2.32
G0 X-25.256 Y-1.424
G0 X-25.195 Y-1.437
;TYPE:SKIN
G1 F1800 X-25.358 Y-1.317 E57.71658
G1 X-25.404 Y0.333 E57.7664
G1 X-25.351 Y1.234 E57.79363
G0 F3600 X-25.444 Y1.425
G1 F1800 X-25.501 Y1.368 E57.79565
;MESH:NONMESH
G0 F600 X-25.501 Y1.368 Z0.9
G0 F3600 X-25.397 Y1.368
G0 X-24.761 Y2.326
G0 X-23.771 Y3.186
G0 X-22.676 Y3.486
G0 X-11.853 Y3.473
G0 X-6.455 Y3.279
G0 X-5.289 Y2.893
G0 X-4.14 Y1.241
G0 X-1.619 Y-1.598
G0 X-.903 Y-1.963
G0 X9.871 Y-1.959
G0 X12.549 Y-.446
G0 X12.89 Y-.613
;TIME_ELAPSED:47.877904
;LAYER:1
M106 S255
;TYPE:WALL-INNER
;MESH:benchy.stl
G1 F2700 X13.094 Y-.217 E57.84009
G1 X13.13 Y0.026 E57.8646
G1 X13.082 Y0.256 E57.88805
G1 X12.874 Y0.641 E57.93171
G1 X12.606 Y1.066 E57.98185
G1 X12.325 Y1.477 E58.03152
G1 X11.943 Y2.001 E58.09623
G1 X11.635 Y2.387 E58.1455
G1 X11.234 Y2.852 E58.20677
G1 X10.758 Y3.363 E58.27645
G1 X10.415 Y3.703 E58.32464
G1 X10.047 Y4.042 E58.37457
G1 X9.462 Y4.539 E58.45116
G1 X8.967 Y4.918 E58.51336
G1 X8.55 Y5.216 E58.56451
G1 X8.139 Y5.489 E58.61374
G1 X7.712 Y5.75 E58.66367
G1 X7.255 Y6.01 E58.71614
G1 X6.77 Y6.268 E58.77095
G1 X6.207 Y6.534 E58.83308
G1 X5.695 Y6.755 E58.88872
G1 X5.217 Y6.938 E58.9398
G1 X4.708 Y7.115 E58.99357
G1 X4.174 Y7.279 E59.04931
G1 X3.664 Y7.415 E59.10197
G1 X3.168 Y7.527 E59.15271
G1 X2.548 Y7.648 E59.21574
G1 X1.856 Y7.749 E59.28552
G1 X1.292 Y7.808 E59.3421
G1 X0.744 Y7.842 E59.39689
G1 X0.238 Y7.859 E59.44741
G1 X-.353 Y7.855 E59.50638
G1 X-.954 Y7.827 E59.56641
G1 X-3.813 Y7.639 E59.8523
G1 X-4.837 Y7.576 E59.95467
G1 X-5.935 Y7.502 E60.06447
G1 X-7.002 Y7.436 E60.17114
G1 X-10.403 Y7.213 E60.51123
G1 X-21.592 Y6.498 E61.62995
G1 X-21.706 Y6.489 E61.64136
G1 X-24.405 Y6.317 E61.91121
G1 X-24.761 Y6.246 E61.94743
G1 X-25.033 Y6.108 E61.97786
G1 X-25.255 Y5.898 E62.00836
G1 X-25.41 Y5.629 E62.03933
G1 X-25.498 Y5.285 E62.07476
G1 X-25.509 Y4.983 E62.10492
G1 X-25.511 Y1.83 E62.41952
G1 X-25.51 Y-5.078 E63.10881
G1 X-25.459 Y-5.485 E63.14974
G1 X-25.342 Y-5.772 E63.18066
G1 X-25.157 Y-6.007 E63.2105
G1 X-24.88 Y-6.195 E63.24391
G1 X-24.417 Y-6.315 E63.29163
G1 X-6.62 Y-7.459 E65.07109
G1 X-.967 Y-7.827 E65.63634
G1 X-.37 Y-7.854 E65.69597
G1 X0.244 Y-7.859 E65.75724
G1 X1.156 Y-7.818 E65.84833
G1 X1.721 Y-7.764 E65.90496
G1 X2.419 Y-7.669 E65.97525
G1 X3.12 Y-7.54 E66.04637
G1 X3.789 Y-7.383 E66.11494
G1 X4.566 Y-7.16 E66.1956
G1 X5.082 Y-6.987 E66.2499
G1 X5.568 Y-6.804 E66.30172
G1 X6.181 Y-6.546 E66.36808
G1 X6.78 Y-6.262 E66.43423
G1 X7.233 Y-6.025 E66.48524
G1 X7.777 Y-5.714 E66.54776
G1 X8.427 Y-5.3 E66.62466
G1 X9.055 Y-4.854 E66.70152
G1 X9.44 Y-4.557 E66.75003
G1 X10.029 Y-4.058 E66.82706
G1 X10.466 Y-3.651 E66.88665
G1 X11.031 Y-3.077 E66.96701
G1 X11.46 Y-2.596 E67.03132
G1 X11.771 Y-2.221 E67.07993
G1 X12.168 Y-1.701 E67.14521
G1 X12.48 Y-1.257 E67.19936
G1 X12.89 Y-.613 E67.27554
G0 F5400 X13.24 Y-.807
;TYPE:WALL-OUTER
G1 F1800 X13.48 Y-.341 E67.32784
G1 X13.537 Y0.036 E67.36588
G1 X13.461 Y0.396 E67.4026
G1 X13.223 Y0.837 E67.4526
G1 X12.936 Y1.292 E67.50627
G1 X12.648 Y1.713 E67.55717
G1 X12.264 Y2.24 E67.62223
G1 X11.938 Y2.648 E67.67434
G1 X11.527 Y3.125 E67.73717
G1 X11.051 Y3.636 E67.80685
G1 X10.686 Y3.997 E67.85808
G1 X10.306 Y4.347 E67.90962
G1 X9.712 Y4.852 E67.98742
G1 X9.21 Y5.236 E68.05048
G1 X8.782 Y5.542 E68.10298
G1 X8.348 Y5.83 E68.15495
G1 X7.91 Y6.098 E68.20619
G1 X7.453 Y6.358 E68.25865
G1 X6.958 Y6.621 E68.31458
G1 X6.365 Y6.902 E68.38006
G1 X5.853 Y7.122 E68.43566
G1 X5.348 Y7.316 E68.48964
G1 X4.839 Y7.493 E68.54341
G1 X4.284 Y7.663 E68.60133
G1 X3.752 Y7.805 E68.65627
G1 X3.244 Y7.92 E68.70824
G1 X2.617 Y8.042 E68.77198
G1 X1.909 Y8.146 E68.84338
G1 X1.333 Y8.206 E68.90117
G1 X0.757 Y8.242 E68.95875
G1 X0.248 Y8.259 E69.00957
G1 X-.372 Y8.255 E69.07143
G1 X-.973 Y8.227 E69.13147
G1 X-2.477 Y8.127 E69.28187
G1 X-3.467 Y8.064 E69.38085
G1 X-3.839 Y8.038 E69.41806
G1 X-4.864 Y7.975 E69.52053
G1 X-5.961 Y7.901 E69.63024
G1 X-7.028 Y7.835 E69.7369
G1 X-10.429 Y7.612 E70.07699
G1 X-21.624 Y6.897 E71.1963
G1 X-21.735 Y6.888 E71.20742
G1 X-24.456 Y6.714 E71.47947
G1 X-24.895 Y6.627 E71.52413
G1 X-25.266 Y6.439 E71.56563
G1 X-25.572 Y6.15 E71.60763
G1 X-25.783 Y5.783 E71.64987
G1 X-25.897 Y5.338 E71.6957
G1 X-25.909 Y4.983 E71.73114
G1 X-25.911 Y1.83 E72.04575
G1 X-25.91 Y-5.104 E72.73763
G1 X-25.85 Y-5.585 E72.786
G1 X-25.69 Y-5.977 E72.82824
G1 X-25.433 Y-6.303 E72.86966
G1 X-25.057 Y-6.559 E72.91505
G1 X-24.621 Y-6.693 E72.96056
G1 X-24.455 Y-6.713 E72.97725
G1 X-6.646 Y-7.858 E74.75791
G1 X-.985 Y-8.227 E75.32396
G1 X-.388 Y-8.254 E75.38359
G1 X0.259 Y-8.259 E75.44815
G1 X1.174 Y-8.218 E75.53954
G1 X1.763 Y-8.162 E75.59858
G1 X2.484 Y-8.064 E75.67118
G1 X3.197 Y-7.932 E75.74353
G1 X3.889 Y-7.77 E75.81445
G1 X4.693 Y-7.539 E75.89792
G1 X5.215 Y-7.364 E75.95285
G1 X5.723 Y-7.173 E76.007
G1 X6.347 Y-6.91 E76.07457
G1 X6.951 Y-6.624 E76.14125
G1 X7.419 Y-6.379 E76.19396
G1 X7.988 Y-6.054 E76.25935
G1 X8.659 Y-5.626 E76.33876
G1 X9.287 Y-5.18 E76.41562
G1 X9.693 Y-4.867 E76.46677
G1 X10.302 Y-4.351 E76.54641
G1 X10.739 Y-3.944 E76.606
G1 X11.33 Y-3.343 E76.6901
G1 X11.759 Y-2.862 E76.75441
G1 X12.089 Y-2.464 E76.806
G1 X12.486 Y-1.944 E76.87128
G1 X12.807 Y-1.487 E76.92701
G1 X13.24 Y-.807 E77.00744
G0 F5400 X13.331 Y-.63
G0 X12.547 Y-.424
;TYPE:SKIN
G1 F1800 X12.718 Y-0.095 E77.04444
G1 X12.711 Y0.122 E77.06611
G1 X12.284 Y0.846 E77.14997
G1 X12.009 Y1.247 E77.19849
G1 X11.627 Y1.771 E77.2632
G1 X11.34 Y2.132 E77.30921
G1 X10.944 Y2.591 E77.3697
G1 X10.483 Y3.086 E77.43719
G1 X10.15 Y3.416 E77.48397
G1 X9.777 Y3.761 E77.53467
G1 X9.237 Y4.219 E77.60532
G1 X8.729 Y4.608 E77.66916
G1 X7.929 Y5.16 E77.76615
G1 X7.519 Y5.411 E77.81411
G1 X7.072 Y5.665 E77.86541
G1 X6.595 Y5.919 E77.91934
G1 X6.047 Y6.178 E77.97982
G1 X5.555 Y6.391 E78.03331
G1 X5.077 Y6.574 E78.08438
G1 X4.586 Y6.744 E78.13623
G1 X4.073 Y6.902 E78.18979
G1 X3.571 Y7.037 E78.24166
G1 X3.082 Y7.147 E78.29167
G1 X2.492 Y7.262 E78.35165
G1 X1.811 Y7.361 E78.42031
G1 X1.268 Y7.418 E78.47479
G1 X0.72 Y7.452 E78.52958
G1 X0.227 Y7.469 E78.5788
G1 X-.335 Y7.465 E78.63487
G1 X-.929 Y7.437 E78.69421
G1 X-3.788 Y7.249 E78.9801
G1 X-4.812 Y7.186 E79.08247
G1 X-5.91 Y7.112 E79.19227
G1 X-6.977 Y7.046 E79.29894
G1 X-10.378 Y6.823 E79.63902
G1 X-24.363 Y5.928 E81.03731
G1 X-24.633 Y5.874 E81.06478
G1 X-24.807 Y5.786 E81.08424
G1 X-24.944 Y5.657 E81.10301
G1 X-25.045 Y5.481 E81.12326
G1 X-25.11 Y5.229 E81.14923
G1 X-25.119 Y4.983 E81.17379
G1 X-25.121 Y1.83 E81.4884
G1 X-25.12 Y-5.061 E82.17599
G1 X-25.079 Y-5.383 E82.20838
G1 X-25.002 Y-5.575 E82.22902
G1 X-24.887 Y-5.721 E82.24756
G1 X-24.722 Y-5.833 E82.26746
G1 X-24.357 Y-5.927 E82.30507
G1 X-6.595 Y-7.069 E84.08103
G1 X-.942 Y-7.437 E84.64628
G1 X-.352 Y-7.464 E84.70521
G1 X0.23 Y-7.469 E84.76329
G1 X1.138 Y-7.428 E84.85398
G1 X1.68 Y-7.376 E84.90831
G1 X2.349 Y-7.285 E84.97568
G1 X3.043 Y-7.157 E85.04609
G1 X3.691 Y-7.005 E85.1125
G1 X4.425 Y-6.795 E85.18868
G1 X4.973 Y-6.612 E85.24633
G1 X5.423 Y-6.442 E85.29433
G1 X6.014 Y-6.193 E85.35832
G1 X6.613 Y-5.909 E85.42446
G1 X7.04 Y-5.686 E85.47253
G1 X7.584 Y-5.375 E85.53505
G1 X8.201 Y-4.982 E85.60805
G1 X8.829 Y-4.536 E85.6849
G1 X9.188 Y-4.259 E85.73015
G1 X9.777 Y-3.76 E85.80718
G1 X10.188 Y-3.378 E85.86316
G1 X10.746 Y-2.811 E85.94254
G1 X11.16 Y-2.347 E86.00459
G1 X11.466 Y-1.978 E86.05242
G1 X11.853 Y-1.471 E86.11606
G1 X12.156 Y-1.04 E86.16863
G1 X12.547 Y-.424 E86.24143
G0 F5400 X8.384 Y4.625
G1 F1800 X11.839 Y1.171 E86.7289
G1 X11.909 Y1.101
G0 F5400 X12.522 Y-0.077
G1 F1800 X6.886 Y5.558 E87.52413
G1 X6.816 Y5.628
G0 F5400 X5.784 Y6.094
G1 F1800 X12.32 Y-.441 E88.44636
G0 F5400 X12.101 Y-.787
G1 F1800 X4.852 Y6.46 E89.46913
G1 X4.782 Y6.53
G0 F5400 X4.018 Y6.729
G1 F1800 X11.873 Y-1.125 E90.57749
G0 F5400 X11.637 Y-1.455
G1 F1800 X3.261 Y6.921 E91.75943
G0 F5400 X2.549 Y7.067
G1 F1800 X11.392 Y-1.775 E93.0072
G0 F5400 X11.139 Y-2.088
G1 F1800 X1.883 Y7.167 E94.31325
G0 F5400 X1.247 Y7.237
G1 F1800 X10.877 Y-2.392 E95.67208
G0 F5400 X10.61 Y-2.69
G1 F1800 X0.645 Y7.274 E97.07818
G0 F5400 X0.065 Y7.288
G1 F1800 X10.33 Y-2.976 E98.52661
G0 F5400 X10.05 Y-3.261
G1 F1800 X-.488 Y7.276 E100.01357
G0 F5400 X-1.026 Y7.249
G1 F1800 X9.756 Y-3.534 E101.53509
G0 F5400 X9.454 Y-3.797
G1 F1800 X-1.557 Y7.214 E103.08886
G0 F5400 X-2.088 Y7.179
G1 F1800 X9.147 Y-4.056 E104.67424
G0 F5400 X8.831 Y-4.306
G1 F1800 X-2.619 Y7.144 E106.28996
G0 F5400 X-3.15 Y7.109
G1 F1800 X8.505 Y-4.545 E107.93454
G0 F5400 X8.174 Y-4.78
G1 F1800 X-3.68 Y7.074 E109.60727
G0 F5400 X-4.213 Y7.042
G1 F1800 X7.831 Y-5.003 E111.30687
G0 F5400 X7.486 Y-5.223
G1 F1800 X-4.746 Y7.008 E113.03287
G0 F5400 X-5.276 Y6.973
G1 F1800 X7.126 Y-5.429 E114.78293
G0 F5400 X6.759 Y-5.628
G1 F1800 X-5.806 Y6.938 E116.55606
G0 F5400 X-6.339 Y6.904
G1 F1800 X6.383 Y-5.818 E118.35127
G0 F5400 X5.999 Y-5.999
G1 F1800 X-6.871 Y6.871 E120.16736
G0 F5400 X-7.402 Y6.837
G1 F1800 X5.604 Y-6.17 E122.00272
G0 F5400 X5.201 Y-6.332
G1 F1800 X-7.933 Y6.802 E123.85607
G0 F5400 X-8.464 Y6.767
G1 F1800 X4.786 Y-6.483 E125.72579
G0 F5400 X4.362 Y-6.624
G1 F1800 X-8.995 Y6.733 E127.6106
G0 F5400 X-9.526 Y6.698
G1 F1800 X3.922 Y-6.75 E129.50826
G0 F5400 X3.475 Y-6.869
G1 F1800 X-10.057 Y6.663 E131.41777
G0 F5400 X-10.588 Y6.629
G1 F1800 X3.017 Y-6.977 E133.33766
G0 F5400 X2.54 Y-7.066
G1 F1800 X-11.12 Y6.595 E135.2653
G0 F5400 X-11.652 Y6.561
G1 F1800 X2.052 Y-7.143 E137.19908
G0 F5400 X1.55 Y-7.207
G1 F1800 X-12.184 Y6.527 E139.1371
G0 F5400 X-12.715 Y6.493
G1 F1800 X1.03 Y-7.252 E141.07667
G0 F5400 X0.488 Y-7.276
G1 F1800 X-13.247 Y6.459 E143.01482
G0 F5400 X-13.779 Y6.425
G1 F1800 X-0.067 Y-7.286 E144.94967
G0 F5400 X-.649 Y-7.269
G1 F1800 X-14.311 Y6.391 E146.87738
G0 F5400 X-14.842 Y6.357
G1 F1800 X-1.249 Y-7.235 E148.79543
G0 F5400 X-1.854 Y-7.196
G1 F1800 X-15.374 Y6.323 E150.70318
G0 F5400 X-15.905 Y6.289
G1 F1800 X-2.459 Y-7.157 E152.60055
G0 F5400 X-3.064 Y-7.117
G1 F1800 X-16.437 Y6.255 E154.48756
G0 F5400 X-16.969 Y6.221
G1 F1800 X-3.669 Y-7.078 E156.36426
G0 F5400 X-4.274 Y-7.039
G1 F1800 X-17.5 Y6.187 E158.23059
G0 F5400 X-18.032 Y6.153
G1 F1800 X-4.879 Y-6.999 E160.08655
G0 F5400 X-5.484 Y-6.96
G1 F1800 X-18.564 Y6.119 E161.93221
G0 F5400 X-19.096 Y6.085
G1 F1800 X-6.089 Y-6.921 E163.76757
G0 F5400 X-6.694 Y-6.881
G1 F1800 X-19.627 Y6.051 E165.59248
G0 F5400 X-20.159 Y6.017
G1 F1800 X-7.299 Y-6.842 E167.4071
G0 F5400 X-7.904 Y-6.803
G1 F1800 X-20.691 Y5.983 E169.21141
G0 F5400 X-21.223 Y5.949
G1 F1800 X-8.508 Y-6.764 E171.00549
G0 F5400 X-9.112 Y-6.726
G1 F1800 X-21.754 Y5.915 E172.78934
G0 F5400 X-22.285 Y5.881
G1 F1800 X-9.717 Y-6.687 E174.56283
G0 F5400 X-10.321 Y-6.648
G1 F1800 X-22.817 Y5.847 E176.32608
G0 F5400 X-23.349 Y5.813
G1 F1800 X-10.926 Y-6.61 E178.07909
G0 F5400 X-11.53 Y-6.571
G1 F1800 X-23.881 Y5.779 E179.82188
G0 F5400 X-24.405 Y5.737
G1 F1800 X-12.135 Y-6.532 E181.55324
G0 F5400 X-12.739 Y-6.493
G1 F1800 X-24.789 Y5.555 E183.25349
G0 F5400 X-24.932 Y5.133
G1 F1800 X-13.344 Y-6.454 E184.88861
G0 F5400 X-13.949 Y-6.415
G1 F1800 X-24.938 Y4.573 E186.4392
G0 F5400 X-24.938 Y4.007
G1 F1800 X-14.553 Y-6.376 E187.9045
G0 F5400 X-15.158 Y-6.337
G1 F1800 X-24.938 Y3.442 E189.28449
G0 F5400 X-24.939 Y2.877
G1 F1800 X-15.762 Y-6.298 E190.57932
G0 F5400 X-16.367 Y-6.26
G1 F1800 X-24.939 Y2.312 E191.78893
G0 F5400 X-24.939 Y1.746
G1 F1800 X-16.971 Y-6.221 E192.91323
G0 F5400 X-17.576 Y-6.182
G1 F1800 X-24.939 Y1.18 E193.95216
G0 F5400 X-24.939 Y0.615
G1 F1800 X-18.181 Y-6.143 E194.90578
G0 F5400 X-18.785 Y-6.104
G1 F1800 X-24.939 Y0.049 E195.77411
G0 F5400 X-24.939 Y-.516
G1 F1800 X-19.39 Y-6.065 E196.55713
G0 F5400 X-19.994 Y-6.026
G1 F1800 X-24.939 Y-1.081 E197.25492
G0 F5400 X-24.939 Y-1.647
G1 F1800 X-20.599 Y-5.987 E197.86734
G0 F5400 X-21.204 Y-5.948
G1 F1800 X-24.939 Y-2.213 E198.39439
G0 F5400 X-24.939 Y-2.778
G1 F1800 X-21.807 Y-5.91 E198.83635
G0 F5400 X-22.412 Y-5.871
G1 F1800 X-24.939 Y-3.344 E199.19294
G0 F5400 X-24.939 Y-3.91
G1 F1800 X-23.017 Y-5.832 E199.46415
G0 F5400 X-23.621 Y-5.794
G1 F1800 X-24.939 Y-4.475 E199.65021
G0 F5400 X-24.939 Y-5.041
G1 F1800 X-24.226 Y-5.755 E199.75089
G1 X-24.156 Y-5.825
;MESH:NONMESH
G0 F600 X-24.156 Y-5.825 Z1.5
G0 F5400 X-20.225 Y-1.515
;TIME_ELAPSED:96.199042
;LAYER:2
;TYPE:WALL-INNER
;MESH:benchy.stl
G1 F3600 X-25.794 Y-1.516 E200.30657
G1 X-25.794 Y-5.425 E200.69661
G1 X-25.742 Y-5.798 E200.73419
G1 X-25.626 Y-6.085 E200.76508
G1 X-25.446 Y-6.315 E200.79422
G1 X-25.193 Y-6.496 E200.82526
G1 X-24.703 Y-6.628 E200.87589
G1 X-23.538 Y-6.709 E200.99242
G1 X-20.641 Y-6.905 E201.28214
G1 X-19.074 Y-7.014 E201.43888
G1 X-9.524 Y-7.666 E202.394
G1 X-2.933 Y-8.124 E203.05324
G1 X-.984 Y-8.262 E203.24819
G1 X-.484 Y-8.285 E203.29814
G1 X0.277 Y-8.291 E203.37407
G1 X1.076 Y-8.256 E203.45387
G1 X1.787 Y-8.194 E203.52509
G1 X2.548 Y-8.089 E203.60174
G1 X3.277 Y-7.953 E203.67573
G1 X3.818 Y-7.83 E203.73109
G1 X4.388 Y-7.679 E203.78993
G1 X5.214 Y-7.419 E203.87634
G1 X5.723 Y-7.234 E203.93037
G1 X6.381 Y-6.966 E204.00127
G1 X7.111 Y-6.625 E204.08166
G1 X7.728 Y-6.3 E204.15124
G1 X8.217 Y-6.018 E204.20757
G1 X8.656 Y-5.744 E204.2592
G1 X9.113 Y-5.44 E204.31397
G1 X9.553 Y-5.121 E204.3682
G1 X10.087 Y-4.705 E204.43574
G1 X10.62 Y-4.249 E204.50573
G1 X11.006 Y-3.892 E204.55819
G1 X11.387 Y-3.516 E204.61161
G1 X11.775 Y-3.105 E204.668
G1 X12.117 Y-2.717 E204.71961
G1 X12.469 Y-2.289 E204.77491
G1 X12.798 Y-1.859 E204.82893
G1 X13.089 Y-1.447 E204.87926
G1 X13.421 Y-.953 E204.93865
G1 X13.696 Y-.502 E204.99135
G1 X13.849 Y-.178 E205.02711
G1 X13.871 Y0.02 E205.04698
G1 X13.835 Y0.217 E205.06697
G1 X13.58 Y0.696 E205.12111
G1 X13.287 Y1.157 E205.17562
G1 X12.895 Y1.728 E205.24472
G1 X12.478 Y2.278 E205.31359
G1 X12.147 Y2.682 E205.36571
G1 X11.787 Y3.091 E205.42007
G1 X11.451 Y3.447 E205.46892
G1 X11.058 Y3.84 E205.52438
G1 X10.674 Y4.199 E205.57683
G1 X10.262 Y4.557 E205.63129
G1 X9.811 Y4.927 E205.6895
G1 X9.604 Y5.084 E205.71542
G1 X9.157 Y5.409 E205.77056
G1 X8.711 Y5.711 E205.82431
G1 X8.234 Y6.008 E205.88038
G1 X7.741 Y6.292 E205.93715
G1 X7.163 Y6.599 E206.00245
G1 X6.517 Y6.906 E206.07382
G1 X5.753 Y7.223 E206.15635
G1 X5.081 Y7.464 E206.22758
G1 X4.566 Y7.627 E206.28148
G1 X3.995 Y7.785 E206.3406
G1 X3.43 Y7.92 E206.39856
G1 X2.707 Y8.062 E206.47208
G1 X2.13 Y8.151 E206.53034
G1 X1.21 Y8.247 E206.62263
G1 X0.45 Y8.286 E206.69856
G1 X-.161 Y8.292 E206.75953
G1 X-.801 Y8.273 E206.82342
G1 X-1.655 Y8.215 E206.90883
G1 X-5.082 Y7.974 E207.25162
G1 X-6.326 Y7.89 E207.37603
G1 X-6.529 Y7.874 E207.39635
G1 X-12.801 Y7.441 E208.02366
G1 X-15.706 Y7.245 E208.31418
G1 X-15.924 Y7.228 E208.336
G1 X-20.205 Y6.937 E208.76415
G1 X-24.757 Y6.624 E209.21942
G1 X-25.129 Y6.527 E209.25778
G1 X-25.382 Y6.372 E209.28738
G1 X-25.59 Y6.142 E209.31833
G1 X-25.732 Y5.831 E209.35244
G1 X-25.794 Y5.421 E209.39382
G1 X-25.795 Y1.517 E209.78336
G1 X-20.225 Y1.516 E210.33913
G1 X-20.225 Y-1.515 E210.64157
G0 F7200 X-20.625 Y-1.115
;TYPE:WALL-OUTER
G1 F1800 X-26.194 Y-1.116 E211.19725
G1 X-26.194 Y-5.451 E211.62979
G1 X-26.131 Y-5.904 E211.67543
G1 X-25.977 Y-6.285 E211.71643
G1 X-25.726 Y-6.606 E211.75709
G1 X-25.376 Y-6.856 E211.80001
G1 X-24.967 Y-6.998 E211.84321
G1 X-24.745 Y-7.026 E211.86554
G1 X-23.566 Y-7.108 E211.98346
G1 X-20.669 Y-7.304 E212.27319
G1 X-19.102 Y-7.413 E212.42992
G1 X-9.552 Y-8.065 E213.38504
G1 X-2.961 Y-8.523 E214.04428
G1 X-1.002 Y-8.662 E214.24024
G1 X-.502 Y-8.685 E214.29018
G1 X0.291 Y-8.691 E214.36931
G1 X1.093 Y-8.656 E214.44941
G1 X1.837 Y-8.591 E214.52393
G1 X2.61 Y-8.484 E214.6018
G1 X3.36 Y-8.344 E214.67793
G1 X3.92 Y-8.217 E214.73522
G1 X4.503 Y-8.063 E214.79539
G1 X5.338 Y-7.8 E214.88274
G1 X5.86 Y-7.61 E214.93817
G1 X6.539 Y-7.333 E215.01134
G1 X7.297 Y-6.979 E215.09482
G1 X7.928 Y-6.647 E215.16596
G1 X8.417 Y-6.365 E215.22228
G1 X8.878 Y-6.077 E215.27652
G1 X9.342 Y-5.768 E215.33215
G1 X9.788 Y-5.445 E215.38709
G1 X10.347 Y-5.009 E215.45783
G1 X10.88 Y-4.553 E215.52782
G1 X11.287 Y-4.177 E215.58311
G1 X11.678 Y-3.791 E215.63793
G1 X12.066 Y-3.38 E215.69433
G1 X12.426 Y-2.971 E215.7487
G1 X12.787 Y-2.532 E215.80541
G1 X13.125 Y-2.09 E215.86093
G1 X13.416 Y-1.678 E215.91126
G1 X13.753 Y-1.176 E215.97159
G1 X14.051 Y-.688 E216.02864
G1 X14.238 Y-.29 E216.07252
G1 X14.275 Y0.036 E216.10526
G1 X14.218 Y0.351 E216.1372
G1 X13.928 Y0.893 E216.19853
G1 X13.617 Y1.384 E216.25653
G1 X13.221 Y1.96 E216.32627
G1 X12.796 Y2.52 E216.39642
G1 X12.447 Y2.946 E216.45137
G1 X12.078 Y3.366 E216.50715
G1 X11.734 Y3.73 E216.55713
G1 X11.341 Y4.123 E216.61258
G1 X10.936 Y4.501 E216.66786
G1 X10.516 Y4.866 E216.72338
G1 X10.065 Y5.236 E216.78159
G1 X9.839 Y5.408 E216.80993
G1 X9.392 Y5.733 E216.86507
G1 X8.923 Y6.05 E216.92156
G1 X8.434 Y6.355 E216.97906
G1 X7.941 Y6.639 E217.03583
G1 X7.344 Y6.956 E217.10328
G1 X6.687 Y7.268 E217.17585
G1 X5.896 Y7.596 E217.26129
G1 X5.202 Y7.845 E217.33486
G1 X4.673 Y8.013 E217.39025
G1 X4.102 Y8.171 E217.44936
G1 X3.507 Y8.313 E217.5104
G1 X2.784 Y8.455 E217.58392
G1 X2.172 Y8.549 E217.6457
G1 X1.252 Y8.645 E217.738
G1 X0.454 Y8.686 E217.81772
G1 X-.169 Y8.692 E217.87989
G1 X-.813 Y8.673 E217.94418
G1 X-1.682 Y8.614 E218.03109
G1 X-5.109 Y8.373 E218.37388
G1 X-6.358 Y8.289 E218.49879
G1 X-6.559 Y8.273 E218.5189
G1 X-12.829 Y7.84 E219.14602
G1 X-15.737 Y7.644 E219.43684
G1 X-15.953 Y7.627 E219.45846
G1 X-20.232 Y7.336 E219.8864
G1 X-24.822 Y7.02 E220.34548
G1 X-25.287 Y6.899 E220.39342
G1 X-25.64 Y6.683 E220.43472
G1 X-25.928 Y6.364 E220.4776
G1 X-26.117 Y5.951 E220.52292
G1 X-26.191 Y5.534 E220.56518
G1 X-26.194 Y5.421 E220.57646
G1 X-26.195 Y1.117 E221.00591
G1 X-20.625 Y1.116 E221.56169
G1 X-20.625 Y-1.115 E221.7843
G0 F7200 X-20.825 Y-1.115
G0 X-20.824 Y-1.615
G0 X-19.835 Y-1.905
;TYPE:SKIN
G1 F1800 X-25.404 Y-1.906 E222.33997
G1 X-25.404 Y-5.399 E222.68851
G1 X-25.362 Y-5.698 E222.71864
G1 X-25.287 Y-5.885 E222.73874
G1 X-25.172 Y-6.032 E222.75736
G1 X-25.025 Y-6.138 E222.77545
G1 X-24.642 Y-6.24 E222.81499
G1 X-23.511 Y-6.319 E222.92812
G1 X-20.614 Y-6.515 E223.21784
G1 X-19.047 Y-6.624 E223.37458
G1 X-9.497 Y-7.276 E224.3297
G1 X-2.906 Y-7.734 E224.98894
G1 X-.957 Y-7.872 E225.1839
G1 X-.466 Y-7.895 E225.23294
G1 X0.264 Y-7.901 E225.30578
G1 X1.059 Y-7.866 E225.38519
G1 X1.74 Y-7.808 E225.45338
G1 X2.476 Y-7.705 E225.52754
G1 X3.205 Y-7.569 E225.60153
G1 X3.725 Y-7.451 E225.65474
G1 X4.279 Y-7.304 E225.71193
G1 X5.089 Y-7.049 E225.79666
G1 X5.59 Y-6.867 E225.84985
G1 X6.224 Y-6.609 E225.91815
G1 X6.937 Y-6.276 E225.99667
G1 X7.54 Y-5.958 E226.06469
G1 X8.016 Y-5.683 E226.11954
G1 X8.444 Y-5.416 E226.16987
G1 X8.891 Y-5.119 E226.22342
G1 X9.313 Y-4.813 E226.27544
G1 X9.847 Y-4.397 E226.34298
G1 X10.36 Y-3.958 E226.41035
G1 X10.77 Y-3.578 E226.46613
G1 X11.108 Y-3.244 E226.51354
G1 X11.483 Y-2.847 E226.56803
G1 X11.816 Y-2.469 E226.6183
G1 X12.147 Y-2.067 E226.67026
G1 X12.5 Y-1.606 E226.72819
G1 X12.758 Y-1.24 E226.77287
G1 X13.092 Y-.743 E226.83262
G1 X13.469 Y-0.069 E226.90968
G1 X13.463 Y0.085 E226.92506
G1 X13.236 Y0.509 E226.97305
G1 X12.965 Y0.937 E227.02359
G1 X12.575 Y1.506 E227.09243
G1 X12.176 Y2.031 E227.15822
G1 X11.849 Y2.43 E227.2097
G1 X11.494 Y2.834 E227.26336
G1 X11.176 Y3.172 E227.30967
G1 X10.821 Y3.527 E227.35976
G1 X10.407 Y3.914 E227.41631
G1 X10.014 Y4.255 E227.46822
G1 X9.563 Y4.625 E227.52643
G1 X9.374 Y4.768 E227.55008
G1 X8.933 Y5.089 E227.60451
G1 X8.498 Y5.384 E227.65695
G1 X8.033 Y5.673 E227.71158
G1 X7.552 Y5.95 E227.76696
G1 X6.995 Y6.246 E227.8299
G1 X6.353 Y6.552 E227.90086
G1 X5.612 Y6.859 E227.9809
G1 X4.957 Y7.094 E228.05033
G1 X4.457 Y7.252 E228.10265
G1 X3.905 Y7.405 E228.15981
G1 X3.34 Y7.54 E228.21777
G1 X2.648 Y7.676 E228.28814
G1 X2.073 Y7.765 E228.3462
G1 X1.187 Y7.857 E228.43508
G1 X0.43 Y7.896 E228.51071
G1 X-.153 Y7.902 E228.56889
G1 X-.774 Y7.883 E228.63088
G1 X-1.628 Y7.825 E228.71629
G1 X-5.055 Y7.584 E229.05908
G1 X-6.404 Y7.494 E229.19398
G1 X-12.774 Y7.051 E229.83112
G1 X-15.895 Y6.84 E230.14324
G1 X-24.696 Y6.236 E231.02348
G1 X-24.976 Y6.163 E231.05235
G1 X-25.13 Y6.068 E231.0704
G1 X-25.26 Y5.925 E231.08969
G1 X-25.354 Y5.719 E231.11228
G1 X-25.404 Y5.389 E231.14559
G1 X-25.405 Y1.907 E231.49302
G1 X-19.835 Y1.906 E232.0488
G1 X-19.835 Y-1.905 E232.42906
G0 F7200 X-20.197 Y1.544
G0 X-24.477 Y6.069
G1 F1800 X-25.224 Y5.322 E232.53447
G0 F7200 X-25.224 Y4.756
G1 F1800 X-23.869 Y6.111 E232.72568
G0 F7200 X-23.262 Y6.153
G1 F1800 X-25.224 Y4.191 E233.00253
G0 F7200 X-25.224 Y3.625
G1 F1800 X-22.654 Y6.194 E233.36512
G0 F7200 X-22.047 Y6.236
G1 F1800 X-25.224 Y3.059 E233.81343
G0 F7200 X-25.224 Y2.493
G1 F1800 X-21.44 Y6.278 E234.34746
G0 F7200 X-20.832 Y6.32
G1 F1800 X-25.066 Y2.086 E234.94493
G0 F7200 X-24.5 Y2.086
G1 F1800 X-20.225 Y6.361 E235.54817
G0 F7200 X-19.617 Y6.403
G1 F1800 X-23.934 Y2.086 E236.15735
G0 F7200 X-23.369 Y2.086
G1 F1800 X-19.01 Y6.445 E236.77245
G0 F7200 X-18.403 Y6.486
G1 F1800 X-22.803 Y2.086 E237.39334
G0 F7200 X-22.237 Y2.086
G1 F1800 X-17.795 Y6.528 E238.02015
G0 F7200 X-17.188 Y6.57
G1 F1800 X-21.672 Y2.086 E238.65289
G0 F7200 X-21.106 Y2.086
G1 F1800 X-16.58 Y6.612 E239.29156
G0 F7200 X-15.973 Y6.653
G1 F1800 X-20.54 Y2.086 E239.93601
G0 F7200 X-19.975 Y2.086
G1 F1800 X-15.366 Y6.694 E240.58632
G0 F7200 X-14.76 Y6.735
G1 F1800 X-19.654 Y1.841 E241.27692
G0 F7200 X-19.654 Y1.275
G1 F1800 X-14.154 Y6.776 E242.0531
G0 F7200 X-13.547 Y6.817
G1 F1800 X-19.654 Y0.709 E242.91493
G0 F7200 X-19.654 Y0.144
G1 F1800 X-12.94 Y6.858 E243.86235
G0 F7200 X-12.333 Y6.899
G1 F1800 X-19.654 Y-.421 E244.89535
G0 F7200 X-19.654 Y-.987
G1 F1800 X-11.725 Y6.942 E246.01422
G0 F7200 X-11.117 Y6.984
G1 F1800 X-19.654 Y-1.552 E247.21881
G0 F7200 X-20.187 Y-2.085
G1 F1800 X-24.191 Y-6.089 E247.78382
G0 F7200 X-24.704 Y-6.036
G1 F1800 X-20.753 Y-2.085 E248.34135
G0 F7200 X-21.319 Y-2.085
G1 F1800 X-25.084 Y-5.851 E248.8727
G0 F7200 X-25.218 Y-5.419
G1 F1800 X-21.884 Y-2.085 E249.34317
G0 F7200 X-22.45 Y-2.085
G1 F1800 X-25.223 Y-4.859 E249.73454
G0 F7200 X-25.223 Y-4.293
G1 F1800 X-23.016 Y-2.085 E250.04604
G0 F7200 X-23.582 Y-2.085
G1 F1800 X-25.223 Y-3.727 E250.27767
G0 F7200 X-25.223 Y-3.162
G1 F1800 X-24.147 Y-2.085 E250.42958
G0 F7200 X-24.713 Y-2.085
G1 F1800 X-25.223 Y-2.596 E250.50161
G0 F7200 X-23.663 Y-6.127
G1 F1800 X-10.509 Y7.026 E252.35772
G0 F7200 X-9.901 Y7.068
G1 F1800 X-23.133 Y-6.163 E254.22482
G0 F7200 X-22.604 Y-6.199
G1 F1800 X-9.293 Y7.111 E256.10308
G0 F7200 X-8.686 Y7.153
G1 F1800 X-22.074 Y-6.235 E257.99227
G0 F7200 X-21.544 Y-6.27
G1 F1800 X-8.077 Y7.195 E259.89247
G0 F7200 X-7.469 Y7.237
G1 F1800 X-21.014 Y-6.306 E261.80367
G0 F7200 X-20.484 Y-6.342
G1 F1800 X-6.862 Y7.279 E263.72581
G0 F7200 X-6.255 Y7.321
G1 F1800 X-19.955 Y-6.379 E265.65903
G0 F7200 X-19.427 Y-6.416
G1 F1800 X-5.648 Y7.362 E267.60333
G0 F7200 X-5.041 Y7.403
G1 F1800 X-18.898 Y-6.453 E269.55863
G0 F7200 X-18.368 Y-6.489
G1 F1800 X-4.433 Y7.445 E271.52494
G0 F7200 X-3.825 Y7.488
G1 F1800 X-17.838 Y-6.525 E273.50232
G0 F7200 X-17.309 Y-6.561
G1 F1800 X-3.216 Y7.531 E275.49093
G0 F7200 X-2.608 Y7.573
G1 F1800 X-16.779 Y-6.597 E277.49054
G0 F7200 X-16.25 Y-6.633
G1 F1800 X-2 Y7.616 E279.5013
G0 F7200 X-1.392 Y7.658
G1 F1800 X-15.72 Y-6.669 E281.52306
G0 F7200 X-15.19 Y-6.705
G1 F1800 X-.785 Y7.699 E283.55569
G0 F7200 X-.2 Y7.718
G1 F1800 X-14.661 Y-6.742 E285.59622
G0 F7200 X-14.132 Y-6.778
G1 F1800 X0.361 Y7.715 E287.64134
G0 F7200 X0.901 Y7.689
G1 F1800 X-13.602 Y-6.814 E289.68787
G0 F7200 X-13.072 Y-6.85
G1 F1800 X1.427 Y7.65 E291.73391
G0 F7200 X1.94 Y7.597
G1 F1800 X-12.543 Y-6.886 E293.77762
G0 F7200 X-12.013 Y-6.922
G1 F1800 X2.434 Y7.525 E295.81624
G0 F7200 X2.913 Y7.438
G1 F1800 X-11.484 Y-6.958 E297.84775
G0 F7200 X-10.954 Y-6.994
G1 F1800 X3.382 Y7.342 E299.87071
G0 F7200 X3.839 Y7.233
G1 F1800 X-10.425 Y-7.031 E301.88352
G0 F7200 X-9.895 Y-7.067
G1 F1800 X4.283 Y7.112 E303.88425
G0 F7200 X4.717 Y6.979
G1 F1800 X-9.366 Y-7.103 E305.87145
G0 F7200 X-8.837 Y-7.14
G1 F1800 X5.139 Y6.836 E307.84361
G0 F7200 X5.554 Y6.685
G1 F1800 X-8.308 Y-7.177 E309.79969
G0 F7200 X-7.779 Y-7.213
G1 F1800 X5.954 Y6.52 E311.73756
G0 F7200 X6.351 Y6.351
G1 F1800 X-7.25 Y-7.25 E313.65681
G0 F7200 X-6.721 Y-7.287
G1 F1800 X6.735 Y6.169 E315.5556
G0 F7200 X7.11 Y5.979
G1 F1800 X-6.192 Y-7.324 E317.43273
G0 F7200 X-5.663 Y-7.36
G1 F1800 X7.479 Y5.782 E319.2872
G0 F7200 X7.838 Y5.576
G1 F1800 X-5.134 Y-7.397 E321.11776
G0 F7200 X-4.605 Y-7.433
G1 F1800 X8.19 Y5.361 E322.92321
G0 F7200 X8.534 Y5.14
G1 F1800 X-4.076 Y-7.47 E324.70261
G0 F7200 X-3.547 Y-7.507
G1 F1800 X8.869 Y4.91 E326.45472
G0 F7200 X9.197 Y4.671
G1 F1800 X-3.018 Y-7.544 E328.17838
G0 F7200 X-2.49 Y-7.581
G1 F1800 X9.518 Y4.427 E329.87284
G0 F7200 X9.829 Y4.172
G1 F1800 X-1.962 Y-7.619 E331.53668
G0 F7200 X-1.433 Y-7.655
G1 F1800 X10.134 Y3.911 E333.16884
G0 F7200 X10.431 Y3.643
G1 F1800 X-.904 Y-7.692 E334.76833
G0 F7200 X-.361 Y-7.715
G1 F1800 X10.723 Y3.37 E336.33247
G0 F7200 X11.006 Y3.087
G1 F1800 X0.2 Y-7.719 E337.85732
G0 F7200 X0.789 Y-7.696
G1 F1800 X11.281 Y2.796 E339.33785
G0 F7200 X11.549 Y2.498
G1 F1800 X1.395 Y-7.655 E340.77062
G0 F7200 X2.032 Y-7.584
G1 F1800 X11.81 Y2.193 E342.15033
G0 F7200 X12.063 Y1.881
G1 F1800 X2.704 Y-7.477 E343.47091
G0 F7200 X3.411 Y-7.336
G1 F1800 X12.307 Y1.559 E344.72617
G0 F7200 X12.544 Y1.231
G1 F1800 X4.167 Y-7.146 E345.90825
G1 X4.097 Y-7.216
G0 F7200 X4.987 Y-6.891
G1 F1800 X12.775 Y0.895 E347.00708
G0 F7200 X12.996 Y0.551
G1 F1800 X5.899 Y-6.545 E348.00847
G1 X5.829 Y-6.615
G0 F7200 X6.94 Y-6.069
G1 F1800 X13.202 Y0.191 E348.89197
G1 X13.272 Y0.261
G0 F7200 X12.947 Y-.628
G1 F1800 X8.256 Y-5.319 E349.55392
G1 X8.186 Y-5.389
;MESH:NONMESH
G0 F600 X8.186 Y-5.389 Z2.1
G0 F7200 X-20.155 Y-1.585
G0 X-20.225 Y-1.578
;TIME_ELAPSED:146.980555
;LAYER:3
;TYPE:WALL-INNER
;MESH:benchy.stl
G1 F3600 X-26.077 Y-1.58 E350.13783
G1 X-26.078 Y-5.714 E350.55033
G1 X-26.033 Y-6.083 E350.58742
G1 X-25.916 Y-6.38 E350.61927
G1 X-25.718 Y-6.636 E350.65156
G1 X-25.555 Y-6.763 E350.67218
G1 X-25.243 Y-6.897 E350.70606
G1 X-24.978 Y-6.941 E350.73287
G1 X-17.564 Y-7.48 E351.47459
G1 X-11.332 Y-7.93 E352.09804
G1 X-3.748 Y-8.489 E352.85683
G1 X-1.123 Y-8.687 E353.1195
G1 X-.64 Y-8.712 E353.16775
G1 X0.01 Y-8.724 E353.23262
G1 X0.655 Y-8.71 E353.297
G1 X1.276 Y-8.674 E353.35906
G1 X2.058 Y-8.595 E353.43749
G1 X2.84 Y-8.479 E353.51637
G1 X3.376 Y-8.377 E353.57081
G1 X4.176 Y-8.194 E353.6527
G1 X4.899 Y-7.991 E353.72763
G1 X5.617 Y-7.756 E353.80301
G1 X6.309 Y-7.494 E353.87684
G1 X6.975 Y-7.208 E353.94917
G1 X7.633 Y-6.889 E354.02213
G1 X8.289 Y-6.538 E354.09637
G1 X8.711 Y-6.29 E354.14521
G1 X9.279 Y-5.93 E354.21231
G1 X9.743 Y-5.612 E354.26843
G1 X10.222 Y-5.258 E354.32786
G1 X10.716 Y-4.865 E354.39085
G1 X11.142 Y-4.499 E354.44689
G1 X11.568 Y-4.108 E354.50459
G1 X11.982 Y-3.7 E354.56259
G1 X12.385 Y-3.274 E354.6211
G1 X12.577 Y-3.061 E354.64971
G1 X12.948 Y-2.626 E354.70676
G1 X13.309 Y-2.171 E354.76471
G1 X13.623 Y-1.746 E354.81744
G1 X13.957 Y-1.265 E354.87587
G1 X14.28 Y-.757 E354.93594
G1 X14.519 Y-.35 E354.98303
G1 X14.595 Y-.136 E355.00569
G1 X14.606 Y0.053 E355.02458
G1 X14.534 Y0.316 E355.05179
G1 X14.197 Y0.887 E355.11795
G1 X13.867 Y1.392 E355.17814
G1 X13.538 Y1.861 E355.2353
G1 X13.185 Y2.328 E355.29371
G1 X12.819 Y2.777 E355.35152
G1 X12.353 Y3.309 E355.42208
G1 X12.005 Y3.676 E355.47255
G1 X11.62 Y4.055 E355.52645
G1 X11.208 Y4.438 E355.58258
G1 X10.677 Y4.897 E355.65262
G1 X10.228 Y5.255 E355.70992
G1 X9.775 Y5.59 E355.76613
G1 X9.285 Y5.927 E355.82547
G1 X8.873 Y6.191 E355.8743
G1 X8.385 Y6.483 E355.93104
G1 X7.925 Y6.738 E355.98352
G1 X7.439 Y6.985 E356.03792
G1 X7.001 Y7.196 E356.08643
G1 X6.454 Y7.434 E356.14595
G1 X5.919 Y7.646 E356.20337
G1 X5.19 Y7.9 E356.2804
G1 X4.488 Y8.111 E356.35354
G1 X3.755 Y8.296 E356.42898
G1 X3.198 Y8.413 E356.48577
G1 X2.698 Y8.504 E356.53648
G1 X1.927 Y8.612 E356.61416
G1 X1.311 Y8.672 E356.67591
G1 X0.333 Y8.719 E356.77361
G1 X-.451 Y8.718 E356.85184
G1 X-.952 Y8.697 E356.90187
G1 X-1.446 Y8.664 E356.95127
G1 X-2.204 Y8.604 E357.02714
G1 X-3.737 Y8.491 E357.18052
G1 X-5.322 Y8.371 E357.33913
G1 X-9.793 Y8.043 E357.78644
G1 X-11.005 Y7.956 E357.90769
G1 X-11.323 Y7.931 E357.93952
G1 X-25.027 Y6.937 E359.3105
G1 X-25.333 Y6.869 E359.34178
G1 X-25.602 Y6.729 E359.37204
G1 X-25.833 Y6.508 E359.40394
G1 X-25.982 Y6.244 E359.43418
G1 X-26.078 Y5.731 E359.48626
G1 X-26.078 Y1.58 E359.90045
G1 X-20.225 Y1.578 E360.48446
G1 X-20.225 Y-1.578 E360.79937
G0 F7200 X-20.625 Y-1.178
;TYPE:WALL-OUTER
G1 F1800 X-26.477 Y-1.18 E361.38328
G1 X-26.478 Y-5.737 E361.83798
G1 X-26.424 Y-6.181 E361.88261
G1 X-26.266 Y-6.583 E361.92571
G1 X-26.004 Y-6.92 E361.9683
G1 X-25.76 Y-7.111 E361.99922
G1 X-25.357 Y-7.284 E362.04298
G1 X-25.028 Y-7.338 E362.07625
G1 X-17.593 Y-7.879 E362.82008
G1 X-11.361 Y-8.329 E363.44353
G1 X-3.778 Y-8.888 E364.20222
G1 X-1.153 Y-9.086 E364.46488
G1 X-.647 Y-9.112 E364.51544
G1 X0.012 Y-9.124 E364.58121
G1 X0.664 Y-9.11 E364.64628
G1 X1.316 Y-9.072 E364.71145
G1 X2.115 Y-8.991 E364.79158
G1 X2.899 Y-8.875 E364.87066
G1 X3.456 Y-8.769 E364.92723
G1 X4.271 Y-8.583 E365.01064
G1 X5.019 Y-8.373 E365.08817
G1 X5.742 Y-8.136 E365.16408
G1 X6.456 Y-7.866 E365.24025
G1 X7.149 Y-7.568 E365.31552
G1 X7.822 Y-7.242 E365.39014
G1 X8.478 Y-6.891 E365.46437
G1 X8.914 Y-6.635 E365.51482
G1 X9.493 Y-6.268 E365.58322
G1 X9.981 Y-5.934 E365.64223
G1 X10.46 Y-5.58 E365.70166
G1 X10.965 Y-5.178 E365.76607
G1 X11.412 Y-4.794 E365.82486
G1 X11.849 Y-4.393 E365.88404
G1 X12.273 Y-3.975 E365.94345
G1 X12.676 Y-3.549 E366.00197
G1 X12.874 Y-3.329 E366.0315
G1 X13.261 Y-2.875 E366.09102
G1 X13.631 Y-2.409 E366.1504
G1 X13.952 Y-1.974 E366.20434
G1 X14.295 Y-1.48 E366.26435
G1 X14.618 Y-.972 E366.32441
G1 X14.883 Y-.521 E366.37661
G1 X14.991 Y-.218 E366.40871
G1 X15.009 Y0.096 E366.44009
G1 X14.907 Y0.471 E366.47887
G1 X14.634 Y0.946 E366.53353
G1 X14.532 Y1.106 E366.55246
G1 X14.202 Y1.611 E366.61266
G1 X13.857 Y2.102 E366.67254
G1 X13.495 Y2.581 E366.73244
G1 X13.12 Y3.041 E366.79166
G1 X12.654 Y3.573 E366.86223
G1 X12.286 Y3.961 E366.91559
G1 X11.901 Y4.34 E366.96949
G1 X11.47 Y4.741 E367.02824
G1 X10.939 Y5.2 E367.09827
G1 X10.477 Y5.568 E367.1572
G1 X10.002 Y5.92 E367.2162
G1 X9.512 Y6.257 E367.27554
G1 X9.089 Y6.528 E367.32566
G1 X8.579 Y6.833 E367.38496
G1 X8.106 Y7.095 E367.43891
G1 X7.62 Y7.342 E367.4933
G1 X7.161 Y7.563 E367.54414
G1 X6.614 Y7.801 E367.60366
G1 X6.051 Y8.024 E367.66408
G1 X5.322 Y8.278 E367.74111
G1 X4.586 Y8.499 E367.81779
G1 X3.837 Y8.688 E367.89487
G1 X3.28 Y8.804 E367.95164
G1 X2.756 Y8.9 E368.00479
G1 X1.971 Y9.009 E368.08387
G1 X1.33 Y9.072 E368.14814
G1 X0.352 Y9.119 E368.24584
G1 X-.468 Y9.118 E368.32766
G1 X-.969 Y9.097 E368.37769
G1 X-1.478 Y9.063 E368.42859
G1 X-2.235 Y9.003 E368.50436
G1 X-3.766 Y8.89 E368.65754
G1 X-5.351 Y8.77 E368.81615
G1 X-9.822 Y8.442 E369.26346
G1 X-11.037 Y8.355 E369.38501
G1 X-11.353 Y8.33 E369.41664
G1 X-25.082 Y7.334 E370.79012
G1 X-25.474 Y7.247 E370.83019
G1 X-25.838 Y7.057 E370.87116
G1 X-26.151 Y6.757 E370.91442
G1 X-26.358 Y6.392 E370.95629
G1 X-26.467 Y5.927 E371.00394
G1 X-26.478 Y5.731 E371.02353
G1 X-26.478 Y1.18 E371.47763
G1 X-20.625 Y1.178 E372.06164
G1 X-20.625 Y-1.178 E372.29673
G0 F7200 X-20.825 Y-1.178
G0 X-20.824 Y-1.678
G0 X-19.835 Y-1.968
;TYPE:SKIN
G1 F1800 X-25.687 Y-1.97 E372.88064
G1 X-25.688 Y-5.683 E373.25113
G1 X-25.651 Y-5.989 E373.28188
G1 X-25.572 Y-6.188 E373.30325
G1 X-25.357 Y-6.422 E373.33495
G1 X-25.127 Y-6.521 E373.35994
G1 X-24.938 Y-6.553 E373.37907
G1 X-17.535 Y-7.091 E374.11969
G1 X-11.303 Y-7.541 E374.74314
G1 X-3.719 Y-8.1 E375.50193
G1 X-1.121 Y-8.296 E375.76189
G1 X-.62 Y-8.322 E375.81195
G1 X0.01 Y-8.334 E375.87482
G1 X0.632 Y-8.32 E375.9369
G1 X1.253 Y-8.284 E375.99897
G1 X2.005 Y-8.209 E376.07438
G1 X2.776 Y-8.094 E376.15216
G1 X3.284 Y-7.998 E376.20374
G1 X4.071 Y-7.818 E376.2843
G1 X4.786 Y-7.617 E376.35841
G1 X5.487 Y-7.388 E376.43199
G1 X6.155 Y-7.135 E376.50326
G1 X6.821 Y-6.849 E376.57559
G1 X7.456 Y-6.541 E376.64601
G1 X8.098 Y-6.198 E376.71863
G1 X8.502 Y-5.96 E376.76542
G1 X9.064 Y-5.604 E376.8318
G1 X9.511 Y-5.298 E376.88585
G1 X9.979 Y-4.952 E376.94393
G1 X10.467 Y-4.564 E377.00613
G1 X10.888 Y-4.203 E377.06147
G1 X11.295 Y-3.831 E377.11649
G1 X11.699 Y-3.432 E377.17315
G1 X12.07 Y-3.041 E377.22693
G1 X12.287 Y-2.8 E377.25929
G1 X12.642 Y-2.384 E377.31386
G1 X12.995 Y-1.939 E377.37053
G1 X13.309 Y-1.514 E377.42326
G1 X13.628 Y-1.056 E377.47895
G1 X13.947 Y-.554 E377.5383
G1 X14.207 Y-0.063 E377.59373
G1 X14.172 Y0.161 E377.61636
G1 X13.861 Y0.688 E377.67741
G1 X13.563 Y1.145 E377.73185
G1 X13.226 Y1.625 E377.79037
G1 X12.849 Y2.124 E377.85277
G1 X12.526 Y2.52 E377.90376
G1 X12.07 Y3.04 E377.97277
G1 X11.727 Y3.402 E378.02253
G1 X11.351 Y3.773 E378.07524
G1 X10.953 Y4.143 E378.12946
G1 X10.434 Y4.592 E378.19794
G1 X9.996 Y4.941 E378.25382
G1 X9.548 Y5.272 E378.3094
G1 X9.064 Y5.605 E378.36802
G1 X8.693 Y5.843 E378.412
G1 X8.184 Y6.148 E378.47121
G1 X7.736 Y6.397 E378.52235
G1 X7.27 Y6.634 E378.57452
G1 X6.837 Y6.842 E378.62245
G1 X6.31 Y7.071 E378.67978
G1 X5.783 Y7.28 E378.73635
G1 X5.077 Y7.527 E378.81098
G1 X4.375 Y7.737 E378.88409
G1 X3.675 Y7.914 E378.95614
G1 X3.128 Y8.029 E379.01191
G1 X2.628 Y8.12 E379.06262
G1 X1.881 Y8.225 E379.13789
G1 X1.292 Y8.282 E379.19694
G1 X0.314 Y8.329 E379.29463
G1 X-.435 Y8.328 E379.36937
G1 X-.926 Y8.307 E379.41841
G1 X-1.529 Y8.267 E379.47871
G1 X-2.175 Y8.216 E379.54336
G1 X-3.708 Y8.103 E379.69674
G1 X-5.293 Y7.983 E379.85535
G1 X-9.764 Y7.655 E380.30266
G1 X-10.976 Y7.568 E380.42391
G1 X-11.294 Y7.543 E380.45574
G1 X-24.963 Y6.551 E381.82322
G1 X-25.202 Y6.499 E381.84763
G1 X-25.368 Y6.411 E381.86638
G1 X-25.523 Y6.264 E381.88769
G1 X-25.61 Y6.112 E381.90517
G1 X-25.688 Y5.691 E381.94789
G1 X-25.688 Y1.97 E382.31917
G1 X-19.835 Y1.968 E382.90319
G1 X-19.835 Y-1.968 E383.29592
G0 F7200 X-24.723 Y-6.388
G1 F1800 X-25.506 Y-5.606 E383.40634
G0 F7200 X-25.506 Y-5.04
G1 F1800 X-24.113 Y-6.433 E383.60291
G0 F7200 X-23.504 Y-6.477
G1 F1800 X-25.506 Y-4.475 E383.88541
G0 F7200 X-25.506 Y-3.909
G1 F1800 X-22.893 Y-6.521 E384.25406
G0 F7200 X-22.283 Y-6.566
G1 F1800 X-25.506 Y-3.343 E384.70886
G0 F7200 X-25.506 Y-2.778
G1 F1800 X-21.674 Y-6.61 E385.2496
G0 F7200 X-21.064 Y-6.654
G1 F1800 X-25.506 Y-2.212 E385.87641
G0 F7200 X-25.003 Y-2.149
G1 F1800 X-20.453 Y-6.699 E386.51847
G0 F7200 X-19.843 Y-6.743
G1 F1800 X-24.437 Y-2.149 E387.16673
G0 F7200 X-23.871 Y-2.149
G1 F1800 X-19.234 Y-6.787 E387.82113
G0 F7200 X-18.623 Y-6.832
G1 F1800 X-23.306 Y-2.148 E388.48203
G0 F7200 X-22.741 Y-2.148
G1 F1800 X-18.013 Y-6.876 E389.1492
G0 F7200 X-17.404 Y-6.92
G1 F1800 X-22.175 Y-2.148 E389.82251
G0 F7200 X-21.609 Y-2.148
G1 F1800 X-16.793 Y-6.965 E390.50217
G0 F7200 X-16.184 Y-7.008
G1 F1800 X-21.044 Y-2.148 E391.18797
G0 F7200 X-20.479 Y-2.148
G1 F1800 X-15.574 Y-7.052 E391.88004
G0 F7200 X-14.965 Y-7.096
G1 F1800 X-19.913 Y-2.148 E392.57826
G0 F7200 X-19.654 Y-1.841
G1 F1800 X-14.354 Y-7.141 E393.32615
G0 F7200 X-13.745 Y-7.184
G1 F1800 X-19.654 Y-1.275 E394.15997
G0 F7200 X-19.654 Y-.709
G1 F1800 X-13.135 Y-7.228 E395.07987
G0 F7200 X-12.526 Y-7.272
G1 F1800 X-19.654 Y-.144 E396.08571
G0 F7200 X-19.654 Y0.421
G1 F1800 X-11.916 Y-7.316 E397.17756
G0 F7200 X-11.306 Y-7.36
G1 F1800 X-19.654 Y0.987 E398.35548
G0 F7200 X-19.654 Y1.552
G1 F1800 X-10.696 Y-7.405 E399.61948
G0 F7200 X-10.085 Y-7.45
G1 F1800 X-19.654 Y2.118 E400.9697
G1 X-19.684 Y2.148
G1 X-23.979 Y6.443 E401.57577
G0 F7200 X-24.506 Y6.404
G1 F1800 X-20.25 Y2.148 E402.17634
G0 F7200 X-20.815 Y2.148
G1 F1800 X-25.022 Y6.354 E402.76992
G0 F7200 X-25.38 Y6.146
G1 F1800 X-21.381 Y2.148 E403.33415
G0 F7200 X-21.947 Y2.148
G1 F1800 X-25.501 Y5.702 E403.83566
G0 F7200 X-25.507 Y5.142
G1 F1800 X-22.513 Y2.148 E404.25814
G0 F7200 X-23.079 Y2.148
G1 F1800 X-25.507 Y4.577 E404.60083
G0 F7200 X-25.507 Y4.011
G1 F1800 X-23.645 Y2.149 E404.86358
G0 F7200 X-24.211 Y2.149
G1 F1800 X-25.507 Y3.445 E405.04646
G0 F7200 X-25.507 Y2.88
G1 F1800 X-24.777 Y2.149 E405.14954
G0 F7200 X-25.342 Y2.149
G1 F1800 X-25.507 Y2.314 E405.17282
G0 F7200 X-23.451 Y6.481
G1 F1800 X-9.475 Y-7.495 E407.14499
G0 F7200 X-8.864 Y-7.54
G1 F1800 X-22.924 Y6.519 E409.12894
G0 F7200 X-22.396 Y6.557
G1 F1800 X-8.253 Y-7.585 E411.12459
G0 F7200 X-7.643 Y-7.63
G1 F1800 X-21.869 Y6.595 E413.13197
G0 F7200 X-21.342 Y6.634
G1 F1800 X-7.032 Y-7.675 E415.15119
G0 F7200 X-6.421 Y-7.72
G1 F1800 X-20.815 Y6.672 E417.1822
G0 F7200 X-20.287 Y6.711
G1 F1800 X-5.811 Y-7.765 E419.22492
G0 F7200 X-5.2 Y-7.81
G1 F1800 X-19.76 Y6.749 E421.27942
G0 F7200 X-19.232 Y6.787
G1 F1800 X-4.589 Y-7.855 E423.34564
G0 F7200 X-3.978 Y-7.9
G1 F1800 X-18.705 Y6.825 E425.42363
G0 F7200 X-18.177 Y6.863
G1 F1800 X-3.367 Y-7.946 E427.51341
G0 F7200 X-2.755 Y-7.992
G1 F1800 X-17.65 Y6.902 E429.61519
G0 F7200 X-17.123 Y6.94
G1 F1800 X-2.143 Y-8.039 E431.72896
G0 F7200 X-1.531 Y-8.085
G1 F1800 X-16.595 Y6.979 E433.85465
G0 F7200 X-16.068 Y7.017
G1 F1800 X-.924 Y-8.126 E435.99156
G0 F7200 X-.337 Y-8.147
G1 F1800 X-15.54 Y7.055 E438.1368
G0 F7200 X-15.013 Y7.093
G1 F1800 X0.229 Y-8.148 E440.28754
G0 F7200 X0.777 Y-8.131
G1 F1800 X-14.485 Y7.131 E442.44117
G0 F7200 X-13.958 Y7.17
G1 F1800 X1.308 Y-8.097 E444.59544
G0 F7200 X1.822 Y-8.045
G1 F1800 X-13.431 Y7.208 E446.74781
G0 F7200 X-12.903 Y7.247
G1 F1800 X2.322 Y-7.978 E448.89622
G0 F7200 X2.812 Y-7.904
G1 F1800 X-12.376 Y7.285 E451.03948
G0 F7200 X-11.848 Y7.323
G1 F1800 X3.287 Y-7.812 E453.17519
G0 F7200 X3.747 Y-7.707
G1 F1800 X-11.321 Y7.361 E455.30145
G0 F7200 X-10.795 Y7.401
G1 F1800 X4.2 Y-7.594 E457.4174
G0 F7200 X4.641 Y-7.469
G1 F1800 X-10.267 Y7.439 E459.52108
G0 F7200 X-9.74 Y7.477
G1 F1800 X5.071 Y-7.334 E461.61108
G0 F7200 X5.494 Y-7.191
G1 F1800 X-9.212 Y7.515 E463.68625
G0 F7200 X-8.686 Y7.554
G1 F1800 X5.905 Y-7.037 E465.7452
G0 F7200 X6.307 Y-6.873
G1 F1800 X-8.158 Y7.592 E467.78637
G0 F7200 X-7.631 Y7.631
G1 F1800 X6.703 Y-6.703 E469.80905
G0 F7200 X7.085 Y-6.52
G1 F1800 X-7.104 Y7.669 E471.81127
G0 F7200 X-6.576 Y7.708
G1 F1800 X7.464 Y-6.332 E473.79247
G0 F7200 X7.833 Y-6.136
G1 F1800 X-6.05 Y7.747 E475.75151
G0 F7200 X-5.522 Y7.785
G1 F1800 X8.195 Y-5.932 E477.68712
G0 F7200 X8.546 Y-5.718
G1 F1800 X-4.996 Y7.824 E479.59805
G0 F7200 X-4.47 Y7.864
G1 F1800 X8.893 Y-5.499 E481.48371
G0 F7200 X9.231 Y-5.271
G1 F1800 X-3.944 Y7.904 E483.34285
G0 F7200 X-3.418 Y7.943
G1 F1800 X9.562 Y-5.036 E485.17439
G0 F7200 X9.886 Y-4.794
G1 F1800 X-2.891 Y7.982 E486.9773
G0 F7200 X-2.364 Y8.021
G1 F1800 X10.201 Y-4.544 E488.75035
G0 F7200 X10.511 Y-4.288
G1 F1800 X-1.839 Y8.062 E490.49307
G0 F7200 X-1.311 Y8.099
G1 F1800 X10.813 Y-4.025 E492.2039
G0 F7200 X11.11 Y-3.756
G1 F1800 X-.778 Y8.132 E493.88142
G0 F7200 X-.228 Y8.147
G1 F1800 X11.396 Y-3.476 E495.52163
G0 F7200 X11.677 Y-3.191
G1 F1800 X0.338 Y8.146 E497.12154
G0 F7200 X0.932 Y8.118
G1 F1800 X11.952 Y-2.901 E498.67651
G0 F7200 X12.218 Y-2.601
G1 F1800 X1.539 Y8.077 E500.18336
G0 F7200 X2.181 Y8
G1 F1800 X12.479 Y-2.296 E501.63638
G0 F7200 X12.73 Y-1.982
G1 F1800 X2.852 Y7.895 E503.0302
G0 F7200 X3.56 Y7.753
G1 F1800 X12.974 Y-1.66 E504.35855
G0 F7200 X13.213 Y-1.334
G1 F1800 X4.311 Y7.567 E505.61465
G1 X4.241 Y7.637
G0 F7200 X5.126 Y7.318
G1 F1800 X13.445 Y-1 E506.78848
G0 F7200 X13.667 Y-.656
G1 F1800 X6.018 Y6.992 E507.86776
G1 X5.948 Y7.062
G0 F7200 X7.024 Y6.552
G1 F1800 X13.876 Y-.299 E508.83458
G0 F7200 X13.934 Y0.207
G1 F1800 X8.237 Y5.905 E509.63856
G1 X8.167 Y5.975
G0 F7200 X10.004 Y4.702
G1 F1800 X12.732 Y1.974 E510.02351
G1 X12.802 Y1.904
;MESH:NONMESH
G0 F600 X12.802 Y1.904 Z2.7
G0 F7200 X-20.125 Y-1.198
G0 X-20.225 Y-1.198
;TIME_ELAPSED:201.360037
;LAYER:4
;TYPE:WALL-INNER
;MESH:benchy.stl
G1 F3600 X-26.356 Y-1.2 E510.63527
G1 X-26.356 Y-6.006 E511.11481
G1 X-26.307 Y-6.41 E511.15542
G1 X-26.187 Y-6.699 E511.18664
G1 X-26.004 Y-6.936 E511.21652
G1 X-25.767 Y-7.108 E511.24574
G1 X-25.275 Y-7.249 E511.2968
G1 X-11.609 Y-8.295 E512.66439
G1 X-7.052 Y-8.648 E513.12045
G1 X-1.273 Y-9.105 E513.69889
G1 X-.943 Y-9.126 E513.73188
G1 X-.43 Y-9.145 E513.7831
G1 X0.221 Y-9.149 E513.84806
G1 X0.548 Y-9.141 E513.8807
G1 X1.057 Y-9.117 E513.93154
G1 X1.699 Y-9.066 E513.9958
G1 X2.35 Y-8.99 E514.0612
G1 X3.141 Y-8.866 E514.14109
G1 X3.622 Y-8.77 E514.19003
G1 X4.232 Y-8.631 E514.25246
G1 X5.147 Y-8.379 E514.34716
G1 X5.62 Y-8.226 E514.39676
G1 X6.494 Y-7.908 E514.48956
G1 X7.354 Y-7.543 E514.58278
G1 X8.03 Y-7.217 E514.65767
G1 X8.455 Y-6.992 E514.70565
G1 X8.98 Y-6.695 E514.76584
G1 X9.643 Y-6.283 E514.84372
G1 X10.39 Y-5.768 E514.93426
G1 X10.86 Y-5.413 E514.99303
G1 X11.376 Y-4.992 E515.05948
G1 X11.848 Y-4.578 E515.12212
G1 X12.269 Y-4.184 E515.17966
G1 X12.73 Y-3.72 E515.24492
G1 X13.137 Y-3.279 E515.3048
G1 X13.51 Y-2.851 E515.36145
G1 X13.901 Y-2.365 E515.42369
G1 X14.294 Y-1.838 E515.48928
G1 X14.622 Y-1.367 E515.54655
G1 X14.993 Y-.788 E515.61517
G1 X15.248 Y-.356 E515.66522
G1 X15.325 Y-.137 E515.68839
G1 X15.336 Y0.055 E515.70757
G1 X15.247 Y0.359 E515.73918
G1 X15.006 Y0.766 E515.78638
G1 X14.638 Y1.341 E515.8545
G1 X14.306 Y1.822 E515.91281
G1 X13.913 Y2.347 E515.97825
G1 X13.536 Y2.818 E516.03845
G1 X13.131 Y3.285 E516.10013
G1 X12.719 Y3.73 E516.16064
G1 X12.304 Y4.151 E516.21962
G1 X11.863 Y4.566 E516.28005
G1 X11.634 Y4.772 E516.31078
G1 X11.178 Y5.159 E516.37046
G1 X10.662 Y5.563 E516.43585
G1 X10.045 Y6.012 E516.51199
G1 X9.524 Y6.359 E516.57445
G1 X8.758 Y6.823 E516.66381
G1 X8.313 Y7.067 E516.71445
G1 X7.789 Y7.335 E516.77317
G1 X6.925 Y7.731 E516.86801
G1 X6.366 Y7.959 E516.92825
G1 X5.768 Y8.177 E516.99176
G1 X5.173 Y8.37 E517.05417
G1 X4.553 Y8.547 E517.11851
G1 X3.634 Y8.768 E517.21282
G1 X2.849 Y8.915 E517.29251
G1 X2.208 Y9.009 E517.35715
G1 X1.524 Y9.081 E517.42578
G1 X0.903 Y9.125 E517.4879
G1 X0.383 Y9.144 E517.53982
G1 X-.584 Y9.141 E517.63631
G1 X-1.104 Y9.118 E517.68824
G1 X-1.955 Y9.052 E517.77341
G1 X-2.761 Y8.986 E517.8541
G1 X-3.378 Y8.939 E517.91585
G1 X-5.557 Y8.765 E518.13396
G1 X-6.626 Y8.683 E518.24094
G1 X-7.038 Y8.649 E518.28219
G1 X-8.125 Y8.566 E518.39096
G1 X-8.542 Y8.532 E518.43271
G1 X-9.645 Y8.449 E518.54308
G1 X-11.601 Y8.296 E518.73885
G1 X-20.966 Y7.581 E519.67601
G1 X-25.255 Y7.251 E520.10523
G1 X-25.614 Y7.176 E520.14183
G1 X-25.885 Y7.036 E520.17226
G1 X-26.107 Y6.821 E520.2031
G1 X-26.26 Y6.546 E520.2345
G1 X-26.357 Y6.036 E520.2863
G1 X-26.357 Y1.2 E520.76884
G1 X-20.225 Y1.198 E521.38069
G1 X-20.225 Y-1.198 E521.61977
G0 F7200 X-20.625 Y-.798
;TYPE:WALL-OUTER
G1 F1800 X-26.756 Y-.8 E522.23152
G1 X-26.756 Y-6.03 E522.75337
G1 X-26.697 Y-6.512 E522.80182
G1 X-26.537 Y-6.901 E522.84379
G1 X-26.286 Y-7.225 E522.88469
G1 X-25.952 Y-7.468 E522.9259
G1 X-25.526 Y-7.617 E522.97093
G1 X-25.314 Y-7.647 E522.9923
G1 X-11.64 Y-8.694 E524.36069
G1 X-7.083 Y-9.047 E524.81675
G1 X-2.609 Y-9.4 E525.26455
G1 X-1.305 Y-9.504 E525.39508
G1 X-.958 Y-9.526 E525.42977
G1 X-.445 Y-9.545 E525.481
G1 X0.228 Y-9.549 E525.54815
G1 X0.567 Y-9.541 E525.58199
G1 X1.076 Y-9.517 E525.63283
G1 X1.733 Y-9.465 E525.69859
G1 X1.903 Y-9.447 E525.71565
G1 X2.404 Y-9.386 E525.76601
G1 X3.207 Y-9.26 E525.84711
G1 X3.711 Y-9.16 E525.89838
G1 X4.335 Y-9.018 E525.96224
G1 X5.263 Y-8.762 E526.05829
G1 X5.743 Y-8.607 E526.10862
G1 X6.631 Y-8.284 E526.20291
G1 X7.51 Y-7.911 E526.29818
G1 X8.217 Y-7.571 E526.37646
G1 X8.642 Y-7.346 E526.42444
G1 X9.191 Y-7.035 E526.4874
G1 X9.854 Y-6.623 E526.56529
G1 X10.631 Y-6.087 E526.65948
G1 X11.113 Y-5.723 E526.71974
G1 X11.64 Y-5.293 E526.78761
G1 X12.112 Y-4.879 E526.85026
G1 X12.553 Y-4.466 E526.91054
G1 X13.014 Y-4.002 E526.97581
G1 X13.439 Y-3.542 E527.0383
G1 X13.822 Y-3.102 E527.0965
G1 X14.213 Y-2.616 E527.15874
G1 X14.622 Y-2.067 E527.22705
G1 X14.959 Y-1.583 E527.2859
G1 X15.33 Y-1.004 E527.35452
G1 X15.615 Y-.521 E527.41047
G1 X15.721 Y-.218 E527.4425
G1 X15.738 Y0.096 E527.47388
G1 X15.638 Y0.471 E527.51261
G1 X15.602 Y0.545 E527.52082
G1 X15.343 Y0.982 E527.5715
G1 X14.975 Y1.557 E527.63962
G1 X14.626 Y2.062 E527.70087
G1 X14.233 Y2.587 E527.76631
G1 X13.838 Y3.08 E527.82934
G1 X13.425 Y3.557 E527.8923
G1 X13.013 Y4.002 E527.95281
G1 X12.589 Y4.432 E528.01307
G1 X12.13 Y4.864 E528.07596
G1 X11.893 Y5.077 E528.10776
G1 X11.425 Y5.474 E528.16899
G1 X10.904 Y5.882 E528.23502
G1 X10.274 Y6.34 E528.31274
G1 X9.746 Y6.692 E528.37606
G1 X8.95 Y7.174 E528.46891
G1 X8.505 Y7.418 E528.51955
G1 X7.956 Y7.699 E528.58108
G1 X7.092 Y8.095 E528.67592
G1 X6.503 Y8.335 E528.73938
G1 X5.905 Y8.553 E528.80289
G1 X5.283 Y8.755 E528.86815
G1 X4.665 Y8.932 E528.93229
G1 X3.719 Y9.159 E529.02936
G1 X2.907 Y9.311 E529.11179
G1 X2.258 Y9.406 E529.17724
G1 X1.566 Y9.479 E529.24667
G1 X0.918 Y9.525 E529.31149
G1 X0.398 Y9.544 E529.36341
G1 X-.108 Y9.549 E529.4139
G1 X-.602 Y9.541 E529.4632
G1 X-1.122 Y9.518 E529.51513
G1 X-1.988 Y9.451 E529.6018
G1 X-2.793 Y9.385 E529.6824
G1 X-3.41 Y9.338 E529.74414
G1 X-5.588 Y9.164 E529.96215
G1 X-6.659 Y9.082 E530.06933
G1 X-7.07 Y9.048 E530.11048
G1 X-8.158 Y8.965 E530.21936
G1 X-8.573 Y8.931 E530.2609
G1 X-9.676 Y8.848 E530.37127
G1 X-11.632 Y8.695 E530.56704
G1 X-20.997 Y7.98 E531.5042
G1 X-25.312 Y7.648 E531.93603
G1 X-25.75 Y7.557 E531.98066
G1 X-26.121 Y7.364 E532.02239
G1 X-26.426 Y7.069 E532.06473
G1 X-26.636 Y6.693 E532.1077
G1 X-26.743 Y6.272 E532.15105
G1 X-26.757 Y6.036 E532.17464
G1 X-26.757 Y0.8 E532.69709
G1 X-20.625 Y0.798 E533.30894
G1 X-20.625 Y-.798 E533.46819
G0 F7200 X-20.825 Y-.798
G0 X-20.824 Y-1.298
G0 X-19.835 Y-1.588
;TYPE:SKIN
G1 F1800 X-25.966 Y-1.59 E534.07994
G1 X-25.966 Y-5.975 E534.51748
G1 X-25.925 Y-6.313 E534.55145
G1 X-25.847 Y-6.501 E534.57176
G1 X-25.73 Y-6.653 E534.5909
G1 X-25.593 Y-6.753 E534.60783
G1 X-25.202 Y-6.865 E534.64841
G1 X-11.58 Y-7.907 E536.01159
G1 X-7.023 Y-8.26 E536.46765
G1 X-1.325 Y-8.711 E537.03798
G1 X-.918 Y-8.736 E537.07866
G1 X-.416 Y-8.755 E537.12879
G1 X0.213 Y-8.759 E537.19155
G1 X0.53 Y-8.751 E537.22319
G1 X1.039 Y-8.728 E537.27403
G1 X1.624 Y-8.682 E537.33259
G1 X2.297 Y-8.603 E537.4002
G1 X3.081 Y-8.48 E537.47938
G1 X3.536 Y-8.39 E537.52566
G1 X4.133 Y-8.254 E537.58676
G1 X5.036 Y-8.005 E537.68022
G1 X5.487 Y-7.859 E537.72752
G1 X6.357 Y-7.542 E537.81992
G1 X7.184 Y-7.192 E537.90952
G1 X7.847 Y-6.872 E537.98298
G1 X8.308 Y-6.628 E538.03502
G1 X8.78 Y-6.36 E538.08918
G1 X9.421 Y-5.962 E538.16446
G1 X10.154 Y-5.456 E538.25334
G1 X10.656 Y-5.077 E538.3161
G1 X11.119 Y-4.699 E538.37574
G1 X11.581 Y-4.293 E538.43711
G1 X11.992 Y-3.909 E538.49323
G1 X12.443 Y-3.455 E538.55709
G1 X12.85 Y-3.014 E538.61697
G1 X13.206 Y-2.607 E538.67092
G1 X13.589 Y-2.131 E538.73188
G1 X13.974 Y-1.615 E538.79612
G1 X14.298 Y-1.15 E538.85267
G1 X14.657 Y-.59 E538.91904
G1 X14.938 Y-0.061 E538.97881
G1 X14.888 Y0.199 E539.00523
G1 X14.675 Y0.561 E539.04714
G1 X14.335 Y1.092 E539.11005
G1 X13.989 Y1.594 E539.17089
G1 X13.609 Y2.103 E539.23427
G1 X13.242 Y2.562 E539.29291
G1 X12.841 Y3.024 E539.35395
G1 X12.406 Y3.493 E539.41778
G1 X12.032 Y3.871 E539.47083
G1 X11.602 Y4.276 E539.52977
G1 X11.349 Y4.504 E539.56376
G1 X10.938 Y4.852 E539.61749
G1 X10.449 Y5.235 E539.67947
G1 X9.815 Y5.696 E539.75769
G1 X9.322 Y6.025 E539.81683
G1 X8.563 Y6.485 E539.90538
G1 X8.135 Y6.72 E539.9541
G1 X7.627 Y6.98 E540.01104
G1 X6.777 Y7.37 E540.10436
G1 X6.22 Y7.597 E540.16437
G1 X5.642 Y7.808 E540.22577
G1 X5.052 Y7.999 E540.28765
G1 X4.45 Y8.172 E540.35015
G1 X3.576 Y8.382 E540.43984
G1 X2.777 Y8.531 E540.52094
G1 X2.163 Y8.621 E540.58286
G1 X1.489 Y8.692 E540.65048
G1 X0.898 Y8.735 E540.70961
G1 X0.371 Y8.754 E540.76223
G1 X-.567 Y8.751 E540.85582
G1 X-1.136 Y8.726 E540.91265
G1 X-5.527 Y8.377 E541.35217
G1 X-6.596 Y8.295 E541.45915
G1 X-7.008 Y8.261 E541.5004
G1 X-8.095 Y8.178 E541.60917
G1 X-8.512 Y8.144 E541.65092
G1 X-9.615 Y8.061 E541.76129
G1 X-11.571 Y7.908 E541.95705
G1 X-20.936 Y7.193 E542.89422
G1 X-25.193 Y6.865 E543.32024
G1 X-25.481 Y6.806 E543.34957
G1 X-25.655 Y6.715 E543.36917
G1 X-25.795 Y6.58 E543.38857
G1 X-25.888 Y6.412 E543.40773
G1 X-25.967 Y6 E543.44959
G1 X-25.967 Y1.59 E543.88962
G1 X-19.835 Y1.588 E544.50148
G1 X-19.835 Y-1.588 E544.81838
G0 F7200 X-20.197 Y1.226
G0 X-25.786 Y5.891
G1 F1800 X-24.977 Y6.701 E544.93261
G0 F7200 X-24.364 Y6.748
G1 F1800 X-25.786 Y5.325 E545.13334
G0 F7200 X-25.786 Y4.76
G1 F1800 X-23.751 Y6.796 E545.42057
G0 F7200 X-23.137 Y6.843
G1 F1800 X-25.786 Y4.194 E545.79437
G0 F7200 X-25.786 Y3.628
G1 F1800 X-22.525 Y6.89 E546.25461
G0 F7200 X-21.912 Y6.937
G1 F1800 X-25.786 Y3.063 E546.80127
G0 F7200 X-25.786 Y2.497
G1 F1800 X-21.299 Y6.984 E547.43443
G0 F7200 X-20.686 Y7.032
G1 F1800 X-25.786 Y1.931 E548.15417
G0 F7200 X-25.383 Y1.769
G1 F1800 X-20.074 Y7.078 E548.90333
G0 F7200 X-19.461 Y7.125
G1 F1800 X-24.817 Y1.769 E549.65912
G0 F7200 X-24.251 Y1.769
G1 F1800 X-18.849 Y7.172 E550.42147
G0 F7200 X-18.236 Y7.218
G1 F1800 X-23.686 Y1.769 E551.19045
G0 F7200 X-23.12 Y1.769
G1 F1800 X-17.624 Y7.265 E551.96599
G0 F7200 X-17.012 Y7.312
G1 F1800 X-22.555 Y1.769 E552.74817
G0 F7200 X-21.989 Y1.769
G1 F1800 X-16.399 Y7.358 E553.53691
G0 F7200 X-15.787 Y7.405
G1 F1800 X-21.424 Y1.768 E554.33235
G0 F7200 X-20.858 Y1.768
G1 F1800 X-15.175 Y7.452 E555.13436
G0 F7200 X-14.562 Y7.498
G1 F1800 X-20.293 Y1.768 E555.94299
G0 F7200 X-19.727 Y1.768
G1 F1800 X-13.95 Y7.545 E556.75819
G0 F7200 X-13.338 Y7.592
G1 F1800 X-19.654 Y1.275 E557.64951
G0 F7200 X-19.654 Y0.709
G1 F1800 X-12.725 Y7.638 E558.62727
G0 F7200 X-12.113 Y7.685
G1 F1800 X-19.654 Y0.144 E559.69139
G0 F7200 X-19.654 Y-.421
G1 F1800 X-11.5 Y7.732 E560.84193
G0 F7200 X-10.886 Y7.781
G1 F1800 X-19.654 Y-.987 E562.07919
G0 F7200 X-19.654 Y-1.552
G1 F1800 X-10.272 Y7.829 E563.40303
G0 F7200 X-9.659 Y7.877
G1 F1800 X-24.291 Y-6.754 E565.46769
G0 F7200 X-24.817 Y-6.715
G1 F1800 X-19.87 Y-1.768 E566.16576
G0 F7200 X-20.436 Y-1.768
G1 F1800 X-25.313 Y-6.646 E566.85403
G0 F7200 X-25.669 Y-6.436
G1 F1800 X-21.001 Y-1.768 E567.51274
G0 F7200 X-21.568 Y-1.769
G1 F1800 X-25.782 Y-5.983 E568.10738
G0 F7200 X-25.785 Y-5.42
G1 F1800 X-22.133 Y-1.769 E568.62264
G0 F7200 X-22.699 Y-1.769
G1 F1800 X-25.785 Y-4.854 E569.05804
G0 F7200 X-25.785 Y-4.289
G1 F1800 X-23.265 Y-1.769 E569.41364
G0 F7200 X-23.831 Y-1.769
G1 F1800 X-25.785 Y-3.723 E569.68937
G0 F7200 X-25.785 Y-3.157
G1 F1800 X-24.398 Y-1.77 E569.88509
G0 F7200 X-24.963 Y-1.77
G1 F1800 X-25.785 Y-2.592 E570.00108
G0 F7200 X-25.785 Y-2.026
G1 F1800 X-25.529 Y-1.77 E570.03721
G0 F7200 X-23.765 Y-6.795
G1 F1800 X-9.047 Y7.923 E572.11408
G0 F7200 X-8.435 Y7.969
G1 F1800 X-23.24 Y-6.835 E574.20315
G0 F7200 X-22.715 Y-6.875
G1 F1800 X-7.821 Y8.017 E576.30472
G0 F7200 X-7.208 Y8.064
G1 F1800 X-22.189 Y-6.915 E578.41856
G0 F7200 X-21.663 Y-6.955
G1 F1800 X-6.593 Y8.114 E580.54502
G0 F7200 X-5.98 Y8.161
G1 F1800 X-21.138 Y-6.996 E582.68391
G0 F7200 X-20.612 Y-7.036
G1 F1800 X-5.367 Y8.208 E584.83508
G0 F7200 X-4.753 Y8.257
G1 F1800 X-20.087 Y-7.076 E586.9988
G0 F7200 X-19.561 Y-7.116
G1 F1800 X-4.138 Y8.306 E589.17508
G0 F7200 X-3.524 Y8.355
G1 F1800 X-19.036 Y-7.156 E591.36392
G0 F7200 X-18.51 Y-7.196
G1 F1800 X-2.909 Y8.403 E593.56525
G0 F7200 X-2.295 Y8.452
G1 F1800 X-17.985 Y-7.237 E595.77921
G0 F7200 X-17.459 Y-7.277
G1 F1800 X-1.681 Y8.5 E598.00558
G0 F7200 X-1.069 Y8.547
G1 F1800 X-16.933 Y-7.317 E600.24416
G0 F7200 X-16.408 Y-7.357
G1 F1800 X-.48 Y8.57 E602.49171
G0 F7200 X0.086 Y8.572
G1 F1800 X-15.883 Y-7.397 E604.7451
G0 F7200 X-15.357 Y-7.438
G1 F1800 X0.643 Y8.563 E607.00295
G0 F7200 X1.179 Y8.533
G1 F1800 X-14.832 Y-7.478 E609.26227
G0 F7200 X-14.306 Y-7.517
G1 F1800 X1.699 Y8.488 E611.52075
G0 F7200 X2.208 Y8.43
G1 F1800 X-13.78 Y-7.558 E613.77683
G0 F7200 X-13.255 Y-7.598
G1 F1800 X2.701 Y8.358 E616.02839
G0 F7200 X3.179 Y8.271
G1 F1800 X-12.73 Y-7.638 E618.27333
G0 F7200 X-12.204 Y-7.679
G1 F1800 X3.652 Y8.177 E620.51078
G0 F7200 X4.108 Y8.068
G1 F1800 X-11.678 Y-7.718 E622.73835
G0 F7200 X-11.153 Y-7.759
G1 F1800 X4.558 Y7.952 E624.95535
G0 F7200 X4.997 Y7.826
G1 F1800 X-10.628 Y-7.8 E627.16027
G0 F7200 X-10.103 Y-7.84
G1 F1800 X5.424 Y7.687 E629.3513
G0 F7200 X5.844 Y7.541
G1 F1800 X-9.578 Y-7.881 E631.52751
G0 F7200 X-9.053 Y-7.921
G1 F1800 X6.255 Y7.387 E633.68763
G0 F7200 X6.657 Y7.223
G1 F1800 X-8.528 Y-7.962 E635.8304
G0 F7200 X-8.003 Y-8.003
G1 F1800 X7.047 Y7.047 E637.95412
G0 F7200 X7.435 Y6.869
G1 F1800 X-7.477 Y-8.043 E640.05836
G0 F7200 X-6.952 Y-8.084
G1 F1800 X7.812 Y6.681 E642.14179
G0 F7200 X8.183 Y6.486
G1 F1800 X-6.429 Y-8.126 E644.20371
G0 F7200 X-5.904 Y-8.167
G1 F1800 X8.546 Y6.283 E646.24276
G0 F7200 X8.898 Y6.07
G1 F1800 X-5.38 Y-8.208 E648.25754
G0 F7200 X-4.856 Y-8.25
G1 F1800 X9.25 Y5.856 E650.24805
G0 F7200 X9.589 Y5.629
G1 F1800 X-4.332 Y-8.292 E652.21245
G0 F7200 X-3.807 Y-8.333
G1 F1800 X9.92 Y5.395 E654.14955
G0 F7200 X10.248 Y5.156
G1 F1800 X-3.283 Y-8.374 E656.05885
G0 F7200 X-2.759 Y-8.416
G1 F1800 X10.569 Y4.912 E657.93957
G0 F7200 X10.883 Y4.66
G1 F1800 X-2.235 Y-8.458 E659.79066
G0 F7200 X-1.711 Y-8.499
G1 F1800 X11.189 Y4.401 E661.61099
G0 F7200 X11.488 Y4.134
G1 F1800 X-1.183 Y-8.537 E663.39901
G0 F7200 X-.645 Y-8.565
G1 F1800 X11.778 Y3.859 E665.1521
G0 F7200 X12.066 Y3.58
G1 F1800 X-0.091 Y-8.576 E666.86751
G0 F7200 X0.48 Y-8.57
G1 F1800 X12.345 Y3.294 E668.54172
G0 F7200 X12.616 Y3
G1 F1800 X1.072 Y-8.543 E670.17063
G0 F7200 X1.69 Y-8.491
G1 F1800 X12.882 Y2.7 E671.74987
G0 F7200 X13.144 Y2.396
G1 F1800 X2.334 Y-8.413 E673.27521
G0 F7200 X3.005 Y-8.308
G1 F1800 X13.395 Y2.081 E674.74128
G0 F7200 X13.64 Y1.76
G1 F1800 X3.716 Y-8.162 E676.14153
G0 F7200 X4.473 Y-7.971
G1 F1800 X13.879 Y1.434 E677.46874
G0 F7200 X14.11 Y1.099
G1 F1800 X5.272 Y-7.737 E678.71574
G1 X5.202 Y-7.807
G0 F7200 X6.151 Y-7.424
G1 F1800 X14.335 Y0.758 E679.87045
G0 F7200 X14.553 Y0.411
G1 F1800 X7.121 Y-7.02 E680.91911
G1 X7.051 Y-7.09
G0 F7200 X8.261 Y-6.445
G1 F1800 X14.737 Y0.029 E681.83281
G1 X14.807 Y0.099
G0 F7200 X13.974 Y-1.298
G1 F1800 X9.779 Y-5.494 E682.42484
G1 X9.709 Y-5.564
;MESH:NONMESH
G0 F600 X9.709 Y-5.564 Z3.3
G0 F7200 X15.195 Y-.207
G0 X15.914 Y-.459
;TIME_ELAPSED:259.592569
;LAYER:5
;TYPE:WALL-INNER
;MESH:benchy.stl
G1 F3600 X16.036 Y-.182 E682.45504
G1 X16.057 Y0.061 E682.47937
G1 X15.99 Y0.311 E682.5052
G1 X15.685 Y0.841 E682.56622
G1 X15.416 Y1.264 E682.61623
G1 X15.143 Y1.67 E682.66505
G1 X14.764 Y2.194 E682.72958
G1 X14.459 Y2.59 E682.77945
G1 X14.081 Y3.05 E682.83886
G1 X13.622 Y3.574 E682.90837
G1 X13.169 Y4.053 E682.97415
G1 X12.736 Y4.477 E683.03462
G1 X12.349 Y4.839 E683.0875
G1 X11.856 Y5.267 E683.15264
G1 X11.481 Y5.571 E683.20081
G1 X10.998 Y5.94 E683.26146
G1 X10.567 Y6.252 E683.31455
G1 X10.035 Y6.609 E683.37848
G1 X9.605 Y6.879 E683.42914
G1 X9.047 Y7.204 E683.49357
G1 X8.339 Y7.58 E683.57356
G1 X7.743 Y7.868 E683.63961
G1 X6.981 Y8.198 E683.72246
G1 X6.227 Y8.486 E683.803
G1 X5.763 Y8.646 E683.85197
G1 X5.113 Y8.844 E683.91977
G1 X4.17 Y9.091 E684.01704
G1 X3.501 Y9.231 E684.08524
G1 X3.18 Y9.292 E684.11784
G1 X2.675 Y9.373 E684.16888
G1 X2.183 Y9.439 E684.21841
G1 X1.663 Y9.494 E684.27058
G1 X0.999 Y9.542 E684.33701
G1 X0.303 Y9.568 E684.4065
G1 X-.195 Y9.571 E684.4562
G1 X-.895 Y9.551 E684.52607
G1 X-1.406 Y9.52 E684.57715
G1 X-4.804 Y9.234 E684.91741
G1 X-9.315 Y8.863 E685.36903
G1 X-11.344 Y8.7 E685.57214
G1 X-11.867 Y8.656 E685.62451
G1 X-25.167 Y7.587 E686.95587
G1 X-25.731 Y7.527 E687.01246
G1 X-26.028 Y7.419 E687.044
G1 X-26.294 Y7.221 E687.07708
G1 X-26.466 Y6.995 E687.10542
G1 X-26.593 Y6.662 E687.14098
G1 X-26.633 Y6.317 E687.17564
G1 X-26.632 Y-6.3 E688.43457
G1 X-26.575 Y-6.732 E688.47805
G1 X-26.464 Y-6.999 E688.5069
G1 X-26.276 Y-7.241 E688.53748
G1 X-26.043 Y-7.411 E688.56625
G1 X-25.553 Y-7.554 E688.61719
G1 X-12.403 Y-8.612 E689.93354
G1 X-5.294 Y-9.194 E690.64525
G1 X-1.42 Y-9.519 E691.03316
G1 X-.733 Y-9.557 E691.10181
G1 X-.381 Y-9.568 E691.13695
G1 X0.123 Y-9.57 E691.18724
G1 X0.816 Y-9.552 E691.25641
G1 X1.48 Y-9.51 E691.3228
G1 X2.168 Y-9.44 E691.3918
G1 X2.821 Y-9.35 E691.45758
