;FLAVOR:Marlin
;TIME:4602
;Filament used: 6.67625m
;Layer height: 0.3
;MINX:-29.8
;MINY:-15.302
;MINZ:0.3
;MAXX:29.789
;MAXY:15.302
;MAXZ:48
;Generated with Cura_SteamEngine 4.13.1
M104 S200
M105
M109 S200
M82 ;absolute extrusion mode

G92 E0
G92 E0
;LAYER_COUNT:160
;LAYER:0
M107
;MESH:benchy.stl
G0 F3600 X-6.083 Y-.83 Z0.3
;TYPE:WALL-INNER
G1 F1800 X-5.995 Y-.392 E0.02229
G1 X-5.984 Y0.076 E0.04564
G1 X-6.04 Y0.552 E0.06956
G1 X-6.171 Y0.924 E0.08923
G1 X-6.324 Y1.118 E0.10156
G1 X-6.499 Y1.216 E0.11156
G1 X-7.278 Y1.287 E0.15059
G1 X-7.275 Y0.869 E0.17144
G1 X-7.273 Y-.889 E0.25915
G1 X-7.275 Y-1.339 E0.2816
G1 X-6.499 Y-1.291 E0.32039
G1 X-6.347 Y-1.238 E0.32842
G1 X-6.234 Y-1.138 E0.33595
G1 X-6.083 Y-.83 E0.35306
G0 F3600 X-5.701 Y-.959
;TYPE:WALL-OUTER
G1 F1800 X-5.596 Y-.435 E0.37973
G1 X-5.583 Y0.092 E0.40603
G1 X-5.648 Y0.643 E0.43371
G1 X-5.816 Y1.119 E0.45889
G1 X-6.06 Y1.429 E0.47857
G1 X-6.347 Y1.589 E0.49497
G1 X-6.42 Y1.609 E0.49874
G1 X-6.928 Y1.676 E0.52431
G1 X-7.456 Y1.693 E0.55066
G1 X-7.631 Y1.667 E0.55949
G1 X-7.684 Y1.561 E0.5654
G1 X-7.672 Y0.97 E0.59489
G1 X-7.675 Y0.869 E0.59993
G1 X-7.673 Y-.888 E0.68759
G1 X-7.677 Y-1.661 E0.72616
G1 X-7.642 Y-1.733 E0.73015
G1 X-6.936 Y-1.744 E0.76538
G1 X-6.408 Y-1.683 E0.79189
G1 X-6.14 Y-1.59 E0.80605
G1 X-5.91 Y-1.385 E0.82142
G1 X-5.701 Y-.959 E0.84509
G0 F3600 X-5.662 Y-.763
G0 X-6.454 Y-.698
;TYPE:SKIN
G1 F1800 X-6.385 Y-.352 E0.86269
G1 X-6.374 Y0.055 E0.883
G1 X-6.423 Y0.466 E0.90365
G1 X-6.581 Y0.814 E0.92272
G1 X-6.885 Y0.86 E0.93806
G1 X-6.883 Y-.924 E1.02707
G1 X-6.55 Y-.896 E1.04374
G1 X-6.454 Y-.698 E1.05472
G0 F3600 X-6.702 Y-.48
G1 F1800 X-6.565 Y-.342 E1.06442
G0 F3600 X-6.704 Y0.084
G1 F1800 X-6.573 Y0.214 E1.07362
G0 F3600 X-7.253 Y-.889
G0 X-9.276 Y-.879
G0 X-10.194 Y-1.08
G0 X-10.143 Y-2.295
G0 X-10.631 Y-3.072
G0 X-11.567 Y-3.509
G0 X-12.771 Y-3.529
G0 X-13.759 Y-3.145
G0 X-14.235 Y-2.421
G0 X-13.689 Y-1.427
G0 X-12.318 Y-1.544
;TYPE:WALL-INNER
G1 F1800 X-12.638 Y-1.446 E1.09032
G1 X-12.292 Y-1.611 E1.09316
G1 X-12.318 Y-1.544
G0 F3600 X-16.329 Y0.451
G0 X-16.317 Y2.389
G0 X-16.684 Y3.165
G0 X-17.477 Y3.334
G0 X-18.182 Y2.563
G0 X-21.465 Y0.959
G1 F1800 X-21.874 Y1.156 E1.11581
G1 X-22.134 Y1.407 E1.13383
G1 X-22.306 Y1.452 E1.1427
G1 X-22.587 Y1.446 E1.15673
G1 X-22.833 Y1.363 E1.16968
G1 X-23.038 Y1.206 E1.18256
G1 X-23.184 Y0.969 E1.19645
G1 X-23.294 Y0.568 E1.21719
G1 X-23.336 Y-0.005 E1.24586
G1 X-23.317 Y-.466 E1.26888
G1 X-23.214 Y-.958 E1.29396
G1 X-23.085 Y-1.217 E1.30839
G1 X-22.921 Y-1.381 E1.31996
G1 X-22.596 Y-1.513 E1.33746
G1 X-22.379 Y-1.514 E1.34829
G1 X-22.198 Y-1.437 E1.3581
G1 X-21.727 Y-1.154 E1.38552
G1 X-21.229 Y-.998 E1.41155
G1 X-20.824 Y-1.034 E1.43184
G1 X-20.413 Y-1.277 E1.45566
G1 X-20.125 Y-1.708 E1.48152
G1 X-20.084 Y-1.959 E1.49421
G1 X-20.049 Y-1.845
G1 X-19.728 Y-1.506 E1.5175
G1 X-19.323 Y-1.363 E1.53893
G1 X-18.9 Y-1.37 E1.56003
G1 X-18.384 Y-1.43 E1.58595
G1 X-18.292 Y-1.414 E1.59061
G1 X-18.283 Y-1.377 E1.59251
G1 X-18.317 Y-.793 E1.62169
G1 X-18.308 Y0.093 E1.6659
G1 X-18.313 Y1.333 E1.72776
G1 X-18.301 Y1.964 E1.75925
G1 X-18.345 Y2.581 E1.79011
G1 X-18.224 Y3.023 E1.81297
G1 X-17.964 Y3.311 E1.83233
G1 X-17.51 Y3.494 E1.85675
G1 X-17.036 Y3.499 E1.8804
G1 X-16.581 Y3.296 E1.90526
G1 X-16.29 Y2.928 E1.92866
G1 X-16.156 Y2.406 E1.95555
G1 X-16.172 Y1.669 E1.99233
G1 X-16.173 Y1.422 E2.00465
G1 X-16.169 Y0.806 E2.03539
G1 X-16.17 Y-.6 E2.10553
G1 X-16.167 Y-1.215 E2.13621
G1 X-16.162 Y-1.4 E2.14545
G1 X-15.729 Y-1.39 E2.16706
G1 X-15.15 Y-1.426 E2.196
G1 X-14.683 Y-1.596 E2.22079
G1 X-14.396 Y-1.889 E2.24125
G1 X-14.353 Y-2.004 E2.24738
G1 X-14.135 Y-1.596 E2.26344
G1 X-13.77 Y-1.283 E2.28743
G1 X-13.404 Y-1.167 E2.30658
G1 X-13.302 Y-1.186 E2.31176
G1 X-13.389 Y-1.13 E2.31208
G1 X-13.648 Y-.691 E2.33751
G1 X-13.725 Y-.234 E2.36063
G1 X-13.647 Y0.156 E2.38047
G1 X-13.426 Y0.474 E2.39979
G1 X-12.992 Y0.689 E2.42395
G1 X-12.433 Y0.799 E2.45238
G1 X-12.237 Y0.898 E2.46333
G1 X-12.05 Y1.099 E2.47703
G1 X-11.984 Y1.267 E2.48603
G1 X-12.044 Y1.479 E2.49703
G1 X-12.179 Y1.551 E2.50466
G1 X-12.335 Y1.46 E2.51367
G1 X-12.771 Y1.175 E2.53966
G1 X-13.188 Y1.082 E2.56097
G1 X-13.682 Y1.138 E2.58577
G1 X-14.11 Y1.394 E2.61066
G1 X-14.355 Y1.8 E2.63431
G1 X-14.396 Y2.313 E2.65999
G1 X-14.263 Y2.757 E2.68311
G1 X-13.964 Y3.147 E2.70763
G1 X-13.573 Y3.404 E2.73097
G1 X-13.005 Y3.591 E2.76081
G1 X-12.437 Y3.656 E2.78933
G1 X-11.833 Y3.634 E2.81948
G1 X-11.208 Y3.48 E2.8516
G1 X-10.693 Y3.199 E2.88087
G1 X-10.261 Y2.796 E2.91034
G1 X-9.907 Y2.223 E2.94394
G1 X-9.715 Y1.596 E2.97666
G1 X-9.694 Y1.038 E3.00452
G1 X-9.845 Y0.354 E3.03946
G1 X-10.075 Y-.242 E3.07134
G1 X-10.314 Y-.527 E3.08989
G1 X-10.134 Y-.737 E3.10369
G1 X-9.972 Y-1.255 E3.13077
G1 X-9.929 Y-1.877 E3.16187
G1 X-9.986 Y-2.337 E3.185
G1 X-10.166 Y-2.774 E3.20858
G1 X-10.521 Y-3.192 E3.23594
G1 X-10.932 Y-3.47 E3.26069
G1 X-11.534 Y-3.667 E3.2923
G1 X-12.212 Y-3.73 E3.32627
G1 X-12.801 Y-3.688 E3.35573
G1 X-13.363 Y-3.539 E3.38473
G1 X-13.854 Y-3.277 E3.4125
G1 X-14.211 Y-2.931 E3.4373
G1 X-14.27 Y-2.79 E3.44493
G1 X-14.473 Y-3.229 E3.46153
G1 X-14.849 Y-3.492 E3.48442
G1 X-15.302 Y-3.559 E3.50726
G1 X-16.024 Y-3.55 E3.54329
G1 X-16.202 Y-3.553 E3.55217
G1 X-16.766 Y-3.554 E3.58031
G1 X-17.208 Y-3.552 E3.60236
G1 X-18.011 Y-3.554 E3.64242
G1 X-18.559 Y-3.546 E3.66976
G1 X-19.201 Y-3.59 E3.70187
G1 X-19.654 Y-3.469 E3.72526
G1 X-19.953 Y-3.219 E3.74471
G1 X-20.16 Y-2.823 E3.767
G1 X-20.181 Y-2.62 E3.77718
G1 X-20.456 Y-2.996 E3.79138
G1 X-20.971 Y-3.39 E3.82373
G1 X-21.565 Y-3.632 E3.85573
G1 X-22.151 Y-3.722 E3.88531
G1 X-22.844 Y-3.703 E3.9199
G1 X-23.459 Y-3.564 E3.95135
G1 X-24.085 Y-3.263 E3.98601
G1 X-24.58 Y-2.862 E4.01779
G1 X-25.012 Y-2.304 E4.05299
G1 X-25.271 Y-1.761 E4.08301
G1 X-25.296 Y-1.667 E4.08786
G1 X-25.296 Y-2.304 E4.10115
G1 X-25.296 Y-4.868 E4.22907
G1 X-25.239 Y-5.264 E4.24903
G1 X-25.119 Y-5.551 E4.26455
G1 X-24.933 Y-5.781 E4.2793
G1 X-24.694 Y-5.949 E4.29388
G1 X-24.198 Y-6.08 E4.31947
G1 X-.692 Y-7.516 E5.49438
G1 X0.003 Y-7.536 E5.52907
G1 X0.673 Y-7.521 E5.5625
G1 X1.337 Y-7.479 E5.59569
G1 X2.152 Y-7.381 E5.63665
G1 X2.843 Y-7.262 E5.67163
G1 X3.628 Y-7.083 E5.7118
G1 X4.264 Y-6.903 E5.74477
G1 X4.878 Y-6.7 E5.77704
G1 X5.342 Y-6.526 E5.80176
G1 X5.922 Y-6.281 E5.83317
G1 X6.542 Y-5.986 E5.86743
G1 X7.019 Y-5.732 E5.89439
G1 X7.491 Y-5.457 E5.92164
G1 X7.957 Y-5.164 E5.9491
G1 X8.459 Y-4.817 E5.97955
G1 X8.948 Y-4.446 E6.01017
G1 X9.568 Y-3.93 E6.05042
G1 X10.117 Y-3.416 E6.08794
G1 X10.483 Y-3.044 E6.11397
G1 X10.838 Y-2.654 E6.14028
G1 X11.205 Y-2.219 E6.16868
G1 X11.5 Y-1.84 E6.19264
G1 X11.919 Y-1.256 E6.2285
G1 X12.198 Y-.83 E6.2539
G1 X12.456 Y-.404 E6.27875
G1 X12.562 Y-.132 E6.29331
G1 X12.567 Y0.103 E6.30504
G1 X12.488 Y0.347 E6.31784
G1 X12.186 Y0.848 E6.34702
G1 X11.888 Y1.307 E6.37432
G1 X11.525 Y1.814 E6.40543
G1 X11.108 Y2.337 E6.4388
G1 X11.096 Y2.241 E6.44363
G1 X10.846 Y1.817 E6.46819
G1 X10.382 Y1.565 E6.49453
G1 X9.752 Y1.482 E6.52623
G1 X9.686 Y1.467 E6.52961
G1 X10.246 Y0.666 E6.57837
G1 X10.599 Y0.174 E6.60858
G1 X10.951 Y-.413 E6.64273
G1 X11.063 Y-.902 E6.66776
G1 X10.991 Y-1.448 E6.69523
G1 X10.741 Y-1.841 E6.71847
G1 X10.396 Y-2.055 E6.73872
G1 X9.881 Y-2.12 E6.76462
G1 X9.469 Y-2.114 E6.78518
G1 X7.874 Y-2.119 E6.86475
G1 X7.281 Y-2.025 E6.89471
G1 X6.872 Y-1.743 E6.91949
G1 X6.769 Y-1.534 E6.93112
G1 X6.561 Y-1.826 E6.94136
G1 X6.225 Y-2.055 E6.96165
G1 X5.823 Y-2.131 E6.98206
G1 X5.404 Y-1.988 E7.00415
G1 X5.11 Y-1.722 E7.02393
G1 X4.818 Y-1.235 E7.05226
G1 X4.569 Y-.516 E7.09022
G1 X4.537 Y-.429 E7.09484
G1 X4.481 Y-.569 E7.09738
G1 X4.316 Y-1.123 E7.11437
G1 X4.127 Y-1.595 E7.13973
G1 X3.762 Y-1.944 E7.16493
G1 X3.357 Y-2.098 E7.18654
G1 X2.868 Y-2.104 E7.21094
G1 X2.487 Y-1.94 E7.23164
G1 X2.2 Y-1.574 E7.25484
G1 X2.172 Y-1.44 E7.26167
G1 X1.915 Y-1.834 E7.27769
G1 X1.534 Y-2.076 E7.30021
G1 X1.122 Y-2.126 E7.32092
G1 X0.668 Y-1.95 E7.34521
G1 X0.267 Y-1.569 E7.3728
G1 X0.174 Y-1.412 E7.38191
G1 X-.116 Y-1.802 E7.40616
G1 X-.517 Y-2.067 E7.43014
G1 X-.913 Y-2.129 E7.45013
G1 X-1.401 Y-1.992 E7.47542
G1 X-1.752 Y-1.698 E7.49826
G1 X-1.934 Y-1.273 E7.52133
G1 X-1.895 Y-.796 E7.54521
G1 X-1.663 Y-.266 E7.57407
G1 X-1.274 Y0.417 E7.61328
G1 X-1.06 Y0.75 E7.63303
G1 X-1.255 Y1.034 E7.65022
G1 X-1.544 Y1.538 E7.6792
G1 X-1.73 Y1.857 E7.69763
G1 X-1.881 Y1.491 E7.70753
G1 X-2.272 Y1.076 E7.73598
G1 X-2.77 Y0.828 E7.76373
G1 X-3.204 Y0.76 E7.78565
G1 X-3.754 Y0.845 E7.81342
G1 X-3.877 Y0.914 E7.82045
G1 X-3.833 Y0.729 E7.8237
G1 X-3.784 Y0.171 E7.85164
G1 X-3.787 Y-.386 E7.87943
G1 X-3.856 Y-.983 E7.90942
G1 X-4.011 Y-1.584 E7.94038
G1 X-4.247 Y-2.116 E7.96942
G1 X-4.562 Y-2.58 E7.9974
G1 X-5.048 Y-3.034 E8.03058
G1 X-5.605 Y-3.326 E8.06195
G1 X-6.366 Y-3.5 E8.1009
G1 X-7.02 Y-3.55 E8.13362
G1 X-7.684 Y-3.549 E8.16675
G1 X-8.177 Y-3.567 E8.19136
G1 X-8.71 Y-3.518 E8.21807
G1 X-9.177 Y-3.289 E8.24401
G1 X-9.447 Y-2.927 E8.26654
G1 X-9.509 Y-2.46 E8.29005
G1 X-9.466 Y-1.93 E8.31658
G1 X-9.477 Y-1.076 E8.35919
G1 X-9.475 Y-.686 E8.37864
G1 X-9.475 Y0.354 E8.43053
G1 X-9.475 Y1.258 E8.46966
G1 X-9.473 Y1.833 E8.49511
G1 X-9.486 Y2.393 E8.52305
G1 X-9.39 Y2.868 E8.54723
G1 X-9.19 Y3.213 E8.56713
G1 X-8.828 Y3.466 E8.58916
G1 X-8.375 Y3.518 E8.61191
G1 X-7.748 Y3.473 E8.64327
G1 X-7.046 Y3.482 E8.6783
G1 X-6.429 Y3.438 E8.70916
G1 X-5.802 Y3.307 E8.74111
G1 X-5.206 Y3.032 E8.77386
G1 X-4.796 Y2.699 E8.80021
G1 X-4.618 Y3.178 E8.82571
G1 X-4.248 Y3.607 E8.85397
G1 X-3.756 Y3.883 E8.88211
G1 X-3.196 Y3.97 E8.91039
G1 X-2.642 Y3.859 E8.93858
G1 X-2.155 Y3.556 E8.96719
G1 X-1.85 Y3.163 E8.99201
G1 X-1.747 Y3.343 E9.00236
G1 X-1.362 Y3.609 E9.0257
G1 X-.887 Y3.693 E9.04977
G1 X-.505 Y3.576 E9.0697
G1 X-.135 Y3.237 E9.09474
G1 X0.116 Y2.855 E9.11754
G1 X0.412 Y3.33 E9.14546
G1 X0.75 Y3.604 E9.16717
G1 X1.241 Y3.712 E9.19225
G1 X1.699 Y3.608 E9.21568
G1 X2.091 Y3.311 E9.24022
G1 X2.285 Y2.858 E9.26481
G1 X2.265 Y2.334 E9.29097
G1 X2.077 Y1.892 E9.31493
G1 X1.616 Y1.115 E9.36
G1 X1.4 Y0.743 E9.38146
G1 X1.496 Y0.473 E9.39576
G1 X1.706 Y0.14 E9.4154
G1 X2.096 Y-.531 E9.45412
G1 X2.154 Y-.687 E9.46243
G1 X2.362 Y-0.069 E9.49496
G1 X2.565 Y0.422 E9.52146
G1 X2.708 Y0.811 E9.54214
G1 X2.986 Y1.545 E9.5813
G1 X3.184 Y2.09 E9.61023
G1 X3.396 Y2.556 E9.63577
G1 X3.435 Y2.715 E9.64394
G1 X3.372 Y2.906 E9.65397
G1 X3.069 Y3.627 E9.69299
G1 X2.862 Y3.963 E9.71268
G1 X2.731 Y4.03 E9.72002
G1 X2.179 Y4.198 E9.74881
G1 X1.877 Y4.432 E9.76787
G1 X1.706 Y4.767 E9.78663
G1 X1.691 Y5.202 E9.80835
G1 X1.833 Y5.633 E9.83099
G1 X2.106 Y5.982 E9.85309
G1 X2.528 Y6.193 E9.87663
G1 X3.008 Y6.217 E9.90061
G1 X3.558 Y6.085 E9.92883
G1 X4.106 Y5.814 E9.95933
G1 X4.507 Y5.418 E9.98744
G1 X4.778 Y4.962 E10.01391
G1 X5.087 Y4.232 E10.05346
G1 X5.385 Y3.46 E10.09474
G1 X5.523 Y3.084 E10.11472
G1 X6.342 Y0.79 E10.23625
G1 X6.577 Y0.082 E10.27346
G1 X6.805 Y-.427 E10.30129
G1 X6.835 Y-.355 E10.30518
G1 X7.182 Y-0.078 E10.32733
G1 X7.595 Y0.041 E10.34878
G1 X8.004 Y0.069 E10.36923
G1 X7.824 Y0.324 E10.37622
G1 X7.222 Y1.162 E10.4277
G1 X6.831 Y1.72 E10.46169
G1 X6.623 Y2.226 E10.48898
G1 X6.599 Y2.696 E10.51246
G1 X6.768 Y3.206 E10.53927
G1 X7.021 Y3.497 E10.5585
G1 X7.328 Y3.66 E10.57585
G1 X7.818 Y3.701 E10.60038
G1 X8.295 Y3.674 E10.62421
G1 X9.061 Y3.683 E10.66243
G1 X9.837 Y3.682 E10.70115
G1 X9.744 Y3.768 E10.70747
G1 X9.303 Y4.157 E10.7368
G1 X8.76 Y4.594 E10.77158
G1 X8.308 Y4.924 E10.7995
G1 X7.771 Y5.283 E10.83173
G1 X7.37 Y5.531 E10.85525
G1 X6.835 Y5.833 E10.8859
G1 X6.101 Y6.2 E10.92684
G1 X5.662 Y6.392 E10.95074
G1 X5.085 Y6.626 E10.98181
G1 X4.611 Y6.791 E11.00685
G1 X4.052 Y6.969 E11.03612
G1 X3.525 Y7.109 E11.06332
G1 X2.794 Y7.272 E11.10069
G1 X2.508 Y7.324 E11.11519
G1 X2.006 Y7.402 E11.14053
G1 X1.411 Y7.472 E11.17042
G1 X0.89 Y7.51 E11.19649
G1 X0.287 Y7.534 E11.22659
G1 X-.32 Y7.53 E11.25688
G1 X-.836 Y7.508 E11.28264
G1 X-8.561 Y7.033 E11.66877
G1 X-10.541 Y6.914 E11.76773
G1 X-21.862 Y6.224 E12.33359
G1 X-24.221 Y6.076 E12.45151
G1 X-24.573 Y6 E12.46948
G1 X-24.828 Y5.866 E12.48385
G1 X-25.048 Y5.655 E12.49906
G1 X-25.193 Y5.403 E12.51356
G1 X-25.297 Y4.864 E12.54095
G1 X-25.297 Y1.583 E12.70464
G1 X-25.176 Y1.922 E12.7226
G1 X-24.89 Y2.423 E12.75138
G1 X-24.422 Y2.939 E12.78613
G1 X-23.849 Y3.328 E12.82068
G1 X-23.315 Y3.538 E12.84931
G1 X-22.688 Y3.648 E12.88107
G1 X-21.995 Y3.637 E12.91565
G1 X-21.348 Y3.494 E12.94871
G1 X-20.833 Y3.238 E12.9774
G1 X-20.382 Y2.824 E13.00794
G1 X-20.086 Y2.299 E13.03801
G1 X-20.022 Y1.896 E13.05837
G1 X-20.194 Y1.439 E13.08273
G1 X-20.571 Y1.099 E13.10806
G1 X-21.015 Y0.946 E13.13149
G1 X-21.465 Y0.959 E13.15395
G0 F3600 X-21.368 Y1.356
;TYPE:WALL-OUTER
G1 F1800 X-21.642 Y1.488 E13.16912
G1 X-21.931 Y1.767 E13.18916
G1 X-22.258 Y1.853 E13.20603
G1 X-22.656 Y1.845 E13.22589
G1 X-23.024 Y1.721 E13.24527
G1 X-23.34 Y1.479 E13.26512
G1 X-23.555 Y1.129 E13.28562
G1 X-23.69 Y0.637 E13.31107
G1 X-23.737 Y-0.001 E13.34299
G1 X-23.716 Y-.511 E13.36845
G1 X-23.594 Y-1.092 E13.39807
G1 X-23.413 Y-1.455 E13.41831
G1 X-23.148 Y-1.72 E13.437
G1 X-22.674 Y-1.913 E13.46254
G1 X-22.297 Y-1.914 E13.48134
G1 X-22.016 Y-1.794 E13.49659
G1 X-21.562 Y-1.521 E13.52302
G1 X-21.185 Y-1.403 E13.54273
G1 X-20.95 Y-1.424 E13.5545
G1 X-20.695 Y-1.575 E13.56928
G1 X-20.506 Y-1.858 E13.58626
G1 X-20.457 Y-2.157 E13.60138
G1 X-20.53 Y-2.419 E13.61495
G1 X-20.745 Y-2.713 E13.63312
G1 X-21.172 Y-3.04 E13.65995
G1 X-21.672 Y-3.244 E13.68689
G1 X-22.176 Y-3.321 E13.71233
G1 X-22.794 Y-3.304 E13.74317
G1 X-23.327 Y-3.184 E13.77043
G1 X-23.869 Y-2.923 E13.80044
G1 X-24.292 Y-2.58 E13.82761
G1 X-24.669 Y-2.093 E13.85834
G1 X-24.894 Y-1.621 E13.88442
G1 X-25.05 Y-1.047 E13.9141
G1 X-25.122 Y-.463 E13.94346
G1 X-25.138 Y0.082 E13.97066
G1 X-25.095 Y0.685 E14.00082
G1 X-24.985 Y1.266 E14.03032
G1 X-24.811 Y1.754 E14.05617
G1 X-24.564 Y2.187 E14.08104
G1 X-24.158 Y2.635 E14.1112
G1 X-23.661 Y2.972 E14.14116
G1 X-23.206 Y3.151 E14.16555
G1 X-22.656 Y3.247 E14.19341
G1 X-22.042 Y3.238 E14.22404
G1 X-21.482 Y3.114 E14.25266
G1 X-21.062 Y2.905 E14.27606
G1 X-20.699 Y2.572 E14.30064
G1 X-20.47 Y2.165 E14.32394
G1 X-20.434 Y1.938 E14.3354
G1 X-20.534 Y1.671 E14.34963
G1 X-20.778 Y1.451 E14.36602
G1 X-21.077 Y1.348 E14.3818
G1 X-21.368 Y1.356 E14.39632
G0 F3600 X-21.548 Y1.442
G0 X-21.677 Y1.172
G0 X-18.167 Y2.347
G0 X-17.869 Y3.174
G0 X-17.069 Y3.337
G0 X-16.656 Y2.746
G1 F1800 X-16.557 Y2.36 E14.4162
G1 X-16.572 Y1.678 E14.45023
G1 X-16.573 Y1.419 E14.46316
G1 X-16.569 Y0.805 E14.49379
G1 X-16.57 Y-.602 E14.56398
G1 X-16.567 Y-1.226 E14.59512
G1 X-16.553 Y-1.751 E14.62132
G1 X-16.464 Y-1.808 E14.62659
G1 X-15.737 Y-1.79 E14.66287
G1 X-15.233 Y-1.822 E14.68807
G1 X-14.905 Y-1.941 E14.70548
G1 X-14.741 Y-2.108 E14.71715
G1 X-14.656 Y-2.338 E14.72939
G1 X-14.663 Y-2.687 E14.7468
G1 X-14.791 Y-2.963 E14.76198
G1 X-15.001 Y-3.11 E14.77477
G1 X-15.329 Y-3.159 E14.79131
G1 X-16.026 Y-3.15 E14.82609
G1 X-16.206 Y-3.153 E14.83507
G1 X-16.765 Y-3.154 E14.86296
G1 X-17.207 Y-3.152 E14.88501
G1 X-18.009 Y-3.154 E14.92502
G1 X-18.568 Y-3.146 E14.95292
G1 X-19.162 Y-3.186 E14.98262
G1 X-19.465 Y-3.105 E14.99826
G1 X-19.635 Y-2.963 E15.00932
G1 X-19.77 Y-2.705 E15.02384
G1 X-19.802 Y-2.402 E15.03904
G1 X-19.694 Y-2.052 E15.05732
G1 X-19.504 Y-1.851 E15.07112
G1 X-19.258 Y-1.764 E15.08413
G1 X-18.927 Y-1.77 E15.10065
G1 X-18.371 Y-1.834 E15.12857
G1 X-18.098 Y-1.786 E15.1424
G1 X-17.94 Y-1.662 E15.15242
G1 X-17.881 Y-1.413 E15.16519
G1 X-17.917 Y-.784 E15.19662
G1 X-17.908 Y0.095 E15.24048
G1 X-17.913 Y1.33 E15.30209
G1 X-17.901 Y1.977 E15.33438
G1 X-17.941 Y2.541 E15.36259
G1 X-17.863 Y2.826 E15.37733
G1 X-17.729 Y2.975 E15.38732
G1 X-17.431 Y3.095 E15.40335
G1 X-17.119 Y3.098 E15.41892
G1 X-16.834 Y2.971 E15.43449
G1 X-16.656 Y2.746 E15.4488
G0 F3600 X-16.607 Y2.553
G0 X-16.317 Y2.628
G0 X-13.351 Y-.997
G0 X-13.093 Y-.845
G1 F1800 X-13.266 Y-.552 E15.46577
G1 X-13.318 Y-.24 E15.48155
G1 X-13.271 Y-0.004 E15.49356
G1 X-13.156 Y0.161 E15.50359
G1 X-12.862 Y0.307 E15.51997
G1 X-12.302 Y0.418 E15.54845
G1 X-11.994 Y0.573 E15.56566
G1 X-11.704 Y0.883 E15.58683
G1 X-11.578 Y1.208 E15.60422
G1 X-11.602 Y1.508 E15.61924
G1 X-11.742 Y1.758 E15.63353
G1 X-12.001 Y1.932 E15.6491
G1 X-12.265 Y1.964 E15.66237
G1 X-12.536 Y1.806 E15.67802
G1 X-12.929 Y1.55 E15.70142
G1 X-13.21 Y1.487 E15.71579
G1 X-13.551 Y1.526 E15.73291
G1 X-13.819 Y1.686 E15.74848
G1 X-13.964 Y1.926 E15.76247
G1 X-13.991 Y2.27 E15.77968
G1 X-13.901 Y2.572 E15.79541
G1 X-13.688 Y2.85 E15.81288
G1 X-13.398 Y3.041 E15.8302
G1 X-12.919 Y3.198 E15.85535
G1 X-12.421 Y3.255 E15.88036
G1 X-11.889 Y3.236 E15.90692
G1 X-11.354 Y3.104 E15.93441
G1 X-10.929 Y2.872 E15.95857
G1 X-10.573 Y2.54 E15.98285
G1 X-10.274 Y2.057 E16.01119
G1 X-10.113 Y1.529 E16.03873
G1 X-10.096 Y1.074 E16.06145
G1 X-10.229 Y0.47 E16.0923
G1 X-10.424 Y-0.036 E16.11936
G1 X-10.642 Y-.295 E16.13625
G1 X-10.926 Y-.453 E16.15246
G1 X-11.034 Y-.489 E16.15814
G1 X-10.723 Y-.666 E16.169
G1 X-10.491 Y-.935 E16.18673
G1 X-10.368 Y-1.329 E16.20732
G1 X-10.331 Y-1.866 E16.23417
G1 X-10.376 Y-2.234 E16.25267
G1 X-10.512 Y-2.563 E16.27043
G1 X-10.79 Y-2.891 E16.29188
G1 X-11.11 Y-3.107 E16.31114
G1 X-11.616 Y-3.273 E16.33771
G1 X-12.216 Y-3.329 E16.36777
G1 X-12.735 Y-3.292 E16.39373
G1 X-13.215 Y-3.164 E16.41852
G1 X-13.616 Y-2.95 E16.44119
G1 X-13.874 Y-2.701 E16.45908
G1 X-13.995 Y-2.411 E16.47476
G1 X-13.966 Y-2.128 E16.48895
G1 X-13.818 Y-1.851 E16.50462
G1 X-13.572 Y-1.64 E16.52079
G1 X-13.379 Y-1.579 E16.53089
G1 X-13.093 Y-1.632 E16.5454
G1 X-12.648 Y-1.913 E16.57166
G1 X-12.327 Y-2.021 E16.58855
G1 X-12.074 Y-1.981 E16.60133
G1 X-11.916 Y-1.814 E16.6128
G1 X-11.866 Y-1.593 E16.62411
G1 X-11.931 Y-1.379 E16.63526
G1 X-12.064 Y-1.227 E16.64534
G1 X-12.279 Y-1.11 E16.65755
G1 X-12.862 Y-.994 E16.68721
G1 X-13.093 Y-.845 E16.70092
G0 F3600 X-13.194 Y-.673
G0 X-13.452 Y-.825
G0 X-14.197 Y1.849
G0 X-14.117 Y2.684
G0 X-13.503 Y3.259
G0 X-12.667 Y3.467
G0 X-8.854 Y3.324
G0 X-8.682 Y3.08
G1 F1800 X-8.366 Y3.116 E16.71679
G1 X-7.759 Y3.073 E16.74715
G1 X-7.058 Y3.082 E16.78213
G1 X-6.484 Y3.041 E16.81084
G1 X-5.928 Y2.925 E16.83917
G1 X-5.419 Y2.69 E16.86714
G1 X-4.997 Y2.348 E16.89424
G1 X-4.629 Y1.864 E16.92458
G1 X-4.386 Y1.321 E16.95425
G1 X-4.229 Y0.665 E16.98791
G1 X-4.184 Y0.155 E17.01345
G1 X-4.187 Y-.362 E17.03924
G1 X-4.25 Y-.91 E17.06676
G1 X-4.39 Y-1.452 E17.09469
G1 X-4.598 Y-1.921 E17.12029
G1 X-4.868 Y-2.318 E17.14424
G1 X-5.282 Y-2.705 E17.17251
G1 X-5.745 Y-2.948 E17.1986
G1 X-6.426 Y-3.103 E17.23345
G1 X-7.035 Y-3.15 E17.26392
G1 X-7.697 Y-3.149 E17.29695
G1 X-8.166 Y-3.166 E17.32036
G1 X-8.6 Y-3.126 E17.3421
G1 X-8.914 Y-2.972 E17.35955
G1 X-9.064 Y-2.771 E17.37207
G1 X-9.107 Y-2.45 E17.38822
G1 X-9.066 Y-1.946 E17.41345
G1 X-9.077 Y-1.075 E17.45691
G1 X-9.075 Y-.686 E17.47632
G1 X-9.075 Y1.257 E17.57325
G1 X-9.073 Y1.842 E17.60244
G1 X-9.085 Y2.358 E17.62819
G1 X-9.011 Y2.724 E17.64682
G1 X-8.888 Y2.936 E17.65905
G1 X-8.682 Y3.08 E17.67159
G0 F3600 X-8.484 Y3.102
G0 X-8.518 Y3.4
G0 X-3.769 Y3.759
G0 X-3.623 Y3.499
G1 F1800 X-3.205 Y3.564 E17.69269
G1 X-2.792 Y3.481 E17.71371
G1 X-2.427 Y3.254 E17.73515
G1 X-2.171 Y2.924 E17.75599
G1 X-2.042 Y2.524 E17.77696
G1 X-2.062 Y2.1 E17.79813
G1 X-2.223 Y1.712 E17.81909
G1 X-2.514 Y1.402 E17.8403
G1 X-2.893 Y1.214 E17.86141
G1 X-3.205 Y1.165 E17.87717
G1 X-3.622 Y1.229 E17.89821
G1 X-3.992 Y1.436 E17.91937
G1 X-4.268 Y1.758 E17.93786
G1 X-4.414 Y2.151 E17.95878
G1 X-4.414 Y2.578 E17.98008
G1 X-4.268 Y2.971 E18.001
G1 X-3.991 Y3.293 E18.02219
G1 X-3.623 Y3.499 E18.04323
G0 F3600 X-3.426 Y3.529
G0 X-3.472 Y3.825
G0 X1.241 Y3.547
G0 X2.157 Y2.902
G0 X1.882 Y2.783
G1 F1800 X1.868 Y2.423 E18.0612
G1 X1.719 Y2.073 E18.08018
G1 X1.272 Y1.319 E18.12391
G1 X1.001 Y0.853 E18.1508
G1 X0.998 Y0.597 E18.16358
G1 X1.144 Y0.281 E18.18094
G1 X1.364 Y-0.067 E18.20148
G1 X1.728 Y-.694 E18.23765
G1 X1.836 Y-1.031 E18.25531
G1 X1.802 Y-1.274 E18.26755
G1 X1.627 Y-1.543 E18.28356
G1 X1.396 Y-1.69 E18.29722
G1 X1.173 Y-1.717 E18.30843
G1 X0.886 Y-1.606 E18.32378
G1 X0.583 Y-1.317 E18.34467
G1 X0.373 Y-.964 E18.36516
G1 X0.192 Y-.546 E18.38789
G1 X-0.087 Y-1.092 E18.41848
G1 X-.395 Y-1.507 E18.44426
G1 X-.665 Y-1.685 E18.4604
G1 X-.889 Y-1.72 E18.47171
G1 X-1.21 Y-1.63 E18.48834
G1 X-1.422 Y-1.453 E18.50212
G1 X-1.527 Y-1.207 E18.51546
G1 X-1.502 Y-.895 E18.53108
G1 X-1.305 Y-.446 E18.55554
G1 X-.932 Y0.21 E18.59319
G1 X-.64 Y0.663 E18.62008
G1 X-.607 Y0.797 E18.62696
G1 X-.916 Y1.247 E18.6542
G1 X-1.198 Y1.739 E18.68249
G1 X-1.476 Y2.217 E18.71008
G1 X-1.595 Y2.565 E18.72842
G1 X-1.582 Y2.827 E18.74151
G1 X-1.445 Y3.065 E18.75521
G1 X-1.206 Y3.23 E18.7697
G1 X-.912 Y3.282 E18.7846
G1 X-.708 Y3.22 E18.79523
G1 X-.442 Y2.976 E18.81324
G1 X-.127 Y2.498 E18.8418
G1 X0.104 Y2.001 E18.86915
G1 X0.419 Y2.585 E18.90225
G1 X0.716 Y3.062 E18.93028
G1 X0.928 Y3.234 E18.9439
G1 X1.239 Y3.302 E18.95979
G1 X1.526 Y3.237 E18.97447
G1 X1.765 Y3.056 E18.98942
G1 X1.882 Y2.783 E19.00424
G0 F3600 X1.875 Y2.583
G0 X2.175 Y2.571
G0 X1.853 Y5.179
G0 X2.618 Y6.097
G0 X2.632 Y5.798
G1 F1800 X2.971 Y5.815 E19.02118
G1 X3.421 Y5.707 E19.04426
G1 X3.871 Y5.484 E19.06932
G1 X4.189 Y5.17 E19.09162
G1 X4.42 Y4.781 E19.11419
G1 X4.716 Y4.082 E19.15206
G1 X5.011 Y3.319 E19.19287
G1 X5.147 Y2.948 E19.21258
G1 X5.909 Y0.808 E19.32592
G1 X5.964 Y0.658 E19.33389
G1 X6.201 Y-0.056 E19.37142
G1 X6.459 Y-.633 E19.40295
G1 X6.533 Y-1.001 E19.42168
G1 X6.465 Y-1.271 E19.43557
G1 X6.277 Y-1.536 E19.45178
G1 X6.069 Y-1.677 E19.46432
G1 X5.852 Y-1.718 E19.47534
G1 X5.611 Y-1.636 E19.48804
G1 X5.422 Y-1.465 E19.50075
G1 X5.182 Y-1.065 E19.52402
G1 X4.947 Y-.385 E19.55992
G1 X4.765 Y0.109 E19.58618
G1 X4.588 Y0.711 E19.61749
G1 X4.575 Y0.752 E19.61963
G1 X4.305 Y0.064 E19.64143
G1 X4.105 Y-.431 E19.66806
G1 X3.938 Y-.991 E19.69722
G1 X3.788 Y-1.366 E19.71737
G1 X3.544 Y-1.599 E19.7342
G1 X3.281 Y-1.699 E19.74824
G1 X2.948 Y-1.703 E19.76485
G1 X2.739 Y-1.613 E19.7762
G1 X2.573 Y-1.401 E19.78964
G1 X2.516 Y-1.127 E19.8036
G1 X2.548 Y-.77 E19.82148
G1 X2.737 Y-.21 E19.85097
G1 X2.935 Y0.269 E19.87683
G1 X3.083 Y0.671 E19.8982
G1 X3.362 Y1.408 E19.93751
G1 X3.555 Y1.939 E19.9657
G1 X3.775 Y2.425 E19.99232
G1 X3.85 Y2.73 E20.00799
G1 X3.745 Y3.052 E20.02488
G1 X3.434 Y3.792 E20.06493
G1 X3.252 Y4.144 E20.0847
G1 X3.095 Y4.293 E20.0955
G1 X2.879 Y4.403 E20.10759
G1 X2.366 Y4.559 E20.13434
G1 X2.193 Y4.693 E20.14526
G1 X2.103 Y4.87 E20.15517
G1 X2.093 Y5.145 E20.1689
G1 X2.191 Y5.441 E20.18445
G1 X2.366 Y5.665 E20.19863
G1 X2.632 Y5.798 E20.21347
G0 F3600 X2.832 Y5.808
G0 X2.818 Y6.106
G0 X9.902 Y3.509
G0 X10.974 Y2.733
G0 X10.701 Y1.853
G0 X10.558 Y2.116
G1 F1800 X10.256 Y1.952 E20.23062
G1 X9.738 Y1.884 E20.25668
G1 X9.025 Y1.927 E20.29232
G1 X8.889 Y1.931 E20.2991
G1 X9.358 Y1.237 E20.34089
G1 X9.919 Y0.437 E20.38964
G1 X10.264 Y-0.046 E20.41925
G1 X10.575 Y-.564 E20.4494
G1 X10.657 Y-.921 E20.46767
G1 X10.606 Y-1.308 E20.48715
G1 X10.453 Y-1.549 E20.50139
G1 X10.259 Y-1.669 E20.51277
G1 X9.859 Y-1.72 E20.53289
G1 X9.474 Y-1.714 E20.5521
G1 X8.415 Y-1.717 E20.60493
G1 X7.905 Y-1.719 E20.63037
G1 X7.433 Y-1.644 E20.65422
G1 X7.185 Y-1.473 E20.66925
G1 X7.057 Y-1.212 E20.68375
G1 X7.049 Y-.876 E20.70052
G1 X7.164 Y-.604 E20.71525
G1 X7.369 Y-.44 E20.72835
G1 X7.665 Y-.355 E20.74371
G1 X8.187 Y-.319 E20.76982
G1 X8.812 Y-.371 E20.80111
G1 X8.513 Y0.043 E20.81325
G1 X8.151 Y0.555 E20.84453
G1 X7.548 Y1.394 E20.89608
G1 X7.184 Y1.913 E20.92771
G1 X7.019 Y2.315 E20.94939
G1 X7.002 Y2.642 E20.96572
G1 X7.122 Y3.004 E20.98475
G1 X7.274 Y3.178 E20.99628
G1 X7.443 Y3.268 E21.00583
G1 X7.824 Y3.3 E21.0249
G1 X8.292 Y3.274 E21.04829
G1 X9.063 Y3.283 E21.08676
G1 X9.802 Y3.283 E21.12363
G1 X10.223 Y3.25 E21.14469
G1 X10.477 Y3.149 E21.15833
G1 X10.652 Y2.955 E21.17137
G1 X10.74 Y2.628 E21.18826
G1 X10.709 Y2.372 E21.20113
G1 X10.558 Y2.116 E21.21595
G0 F3600 X10.382 Y2.021
G0 X10.525 Y1.758
G0 X12.549 Y-.446
G0 X12.817 Y-.579
G1 F1800 X12.96 Y-.211 E21.23565
G1 X12.968 Y0.162 E21.25426
G1 X12.855 Y0.513 E21.27266
G1 X12.526 Y1.059 E21.30446
G1 X12.213 Y1.54 E21.33309
G1 X11.848 Y2.049 E21.36434
G1 X11.536 Y2.449 E21.38965
G1 X11.201 Y2.845 E21.41553
G1 X10.859 Y3.225 E21.44104
G1 X10.388 Y3.713 E21.47487
G1 X10.009 Y4.068 E21.50078
G1 X9.569 Y4.457 E21.53008
G1 X8.996 Y4.917 E21.56674
G1 X8.53 Y5.257 E21.59552
G1 X7.993 Y5.616 E21.62775
G1 X7.567 Y5.879 E21.65272
G1 X7.014 Y6.191 E21.6844
G1 X6.28 Y6.558 E21.72534
G1 X5.812 Y6.763 E21.75083
G1 X5.228 Y7 E21.78228
G1 X4.742 Y7.169 E21.80795
G1 X4.169 Y7.351 E21.83794
G1 X3.612 Y7.5 E21.86671
G1 X2.881 Y7.662 E21.90406
G1 X2.57 Y7.719 E21.91984
G1 X2.065 Y7.798 E21.94534
G1 X1.44 Y7.871 E21.97673
G1 X0.906 Y7.91 E22.00344
G1 X0.3 Y7.934 E22.0337
G1 X-.338 Y7.93 E22.06553
G1 X-.854 Y7.907 E22.0913
G1 X-8.586 Y7.432 E22.47778
G1 X-10.566 Y7.313 E22.57674
G1 X-21.887 Y6.623 E23.14259
G1 X-24.277 Y6.473 E23.26207
G1 X-24.711 Y6.38 E23.28421
G1 X-25.066 Y6.193 E23.30423
G1 X-25.367 Y5.903 E23.32508
G1 X-25.567 Y5.556 E23.34506
G1 X-25.682 Y5.105 E23.36828
G1 X-25.697 Y4.875 E23.37978
G1 X-25.696 Y-4.897 E23.86731
G1 X-25.628 Y-5.37 E23.89115
G1 X-25.466 Y-5.757 E23.91208
G1 X-25.208 Y-6.077 E23.93259
G1 X-24.878 Y-6.308 E23.95268
G1 X-24.461 Y-6.451 E23.97468
G1 X-24.237 Y-6.478 E23.98593
G1 X-.703 Y-7.916 E25.16224
G1 X0.001 Y-7.936 E25.19738
G1 X0.684 Y-7.921 E25.23146
G1 X1.372 Y-7.877 E25.26585
G1 X2.211 Y-7.777 E25.30801
G1 X2.925 Y-7.653 E25.34416
G1 X3.729 Y-7.47 E25.3853
G1 X4.379 Y-7.286 E25.419
G1 X5.003 Y-7.08 E25.45179
G1 X5.49 Y-6.897 E25.47774
G1 X6.089 Y-6.644 E25.51018
G1 X6.723 Y-6.343 E25.5452
G1 X7.22 Y-6.078 E25.5733
G1 X7.692 Y-5.803 E25.60055
G1 X8.184 Y-5.493 E25.62956
G1 X8.701 Y-5.136 E25.66091
G1 X9.19 Y-4.765 E25.69153
G1 X9.833 Y-4.23 E25.73326
G1 X10.402 Y-3.697 E25.77216
G1 X10.768 Y-3.325 E25.7982
G1 X11.144 Y-2.912 E25.82606
G1 X11.511 Y-2.477 E25.85445
G1 X11.825 Y-2.073 E25.87998
G1 X12.254 Y-1.475 E25.9167
G1 X12.533 Y-1.049 E25.94211
G1 X12.817 Y-.579 E25.9695
G0 F3600 X12.889 Y-.393
G0 X12.174 Y-0.056
;TYPE:SKIN
G1 F1800 X12.131 Y0.185 E25.98172
G1 X11.856 Y0.641 E26.00828
G1 X11.57 Y1.081 E26.03446
G1 X11.211 Y1.584 E26.06529
G1 X11.182 Y1.619 E26.06756
G1 X11.127 Y1.526 E26.07295
G1 X10.505 Y1.188 E26.10827
G1 X10.37 Y1.17 E26.11506
G1 X10.564 Y0.894 E26.1319
G1 X10.925 Y0.388 E26.16291
G1 X11.317 Y-.265 E26.2009
G1 X11.459 Y-.883 E26.23254
G1 X11.403 Y-1.305 E26.25378
G1 X11.865 Y-.627 E26.29471
G1 X12.174 Y-0.056 E26.3271
G0 F3600 X10.512 Y-2.433
G1 F1800 X9.903 Y-2.51 E26.35773
G1 X9.465 Y-2.504 E26.37958
G1 X7.844 Y-2.509 E26.46045
G1 X7.133 Y-2.396 E26.49637
G1 X6.777 Y-2.151 E26.51793
G1 X6.377 Y-2.423 E26.54206
G1 X5.794 Y-2.533 E26.57166
G1 X5.201 Y-2.331 E26.60292
G1 X4.806 Y-1.972 E26.62955
G1 X4.56 Y-1.563 E26.65336
G1 X4.458 Y-1.819 E26.66711
G1 X3.974 Y-2.281 E26.70049
G1 X3.431 Y-2.488 E26.72948
G1 X2.79 Y-2.495 E26.76146
G1 X2.241 Y-2.259 E26.79127
G1 X2.152 Y-2.146 E26.79845
G1 X1.669 Y-2.452 E26.82698
G1 X1.072 Y-2.525 E26.85698
G1 X0.455 Y-2.286 E26.88999
G1 X0.195 Y-2.039 E26.90789
G1 X0.157 Y-2.09 E26.91106
G1 X-.373 Y-2.439 E26.94272
G1 X-.937 Y-2.527 E26.9712
G1 X-1.587 Y-2.345 E27.00487
G1 X-2.074 Y-1.938 E27.03654
G1 X-2.33 Y-1.338 E27.06908
G1 X-2.279 Y-.699 E27.10106
G1 X-2.012 Y-0.091 E27.13419
G1 X-1.608 Y0.62 E27.17499
G1 X-1.528 Y0.743 E27.18231
G1 X-1.731 Y1.081 E27.20198
G1 X-2.036 Y0.758 E27.22414
G1 X-2.651 Y0.452 E27.25842
G1 X-3.204 Y0.366 E27.28634
G1 X-3.413 Y0.398 E27.29688
G1 X-3.394 Y0.187 E27.30745
G1 X-3.397 Y-.409 E27.33719
G1 X-3.472 Y-1.055 E27.36963
G1 X-3.641 Y-1.713 E27.40353
G1 X-3.904 Y-2.306 E27.43589
G1 X-4.264 Y-2.835 E27.46782
G1 X-4.82 Y-3.355 E27.5058
G1 X-5.469 Y-3.695 E27.54235
G1 X-6.307 Y-3.886 E27.58523
G1 X-7.006 Y-3.94 E27.62021
G1 X-7.67 Y-3.939 E27.65333
G1 X-8.188 Y-3.957 E27.67919
G1 X-8.817 Y-3.9 E27.7107
G1 X-9.433 Y-3.597 E27.74495
G1 X-9.82 Y-3.079 E27.77721
G1 X-9.833 Y-2.983 E27.78204
G1 X-10.258 Y-3.485 E27.81486
G1 X-10.759 Y-3.823 E27.84501
G1 X-11.454 Y-4.051 E27.8815
G1 X-12.208 Y-4.122 E27.91928
G1 X-12.865 Y-4.074 E27.95215
G1 X-13.507 Y-3.904 E27.98528
G1 X-14.086 Y-3.595 E28.01803
G1 X-14.182 Y-3.501 E28.02473
G1 X-14.701 Y-3.864 E28.05633
G1 X-15.276 Y-3.949 E28.08533
G1 X-16.022 Y-3.94 E28.12255
G1 X-16.198 Y-3.943 E28.13133
G1 X-16.766 Y-3.944 E28.15967
G1 X-17.21 Y-3.942 E28.18182
G1 X-18.013 Y-3.944 E28.22188
G1 X-18.538 Y-3.936 E28.24807
G1 X-19.239 Y-3.984 E28.28313
G1 X-19.838 Y-3.824 E28.31406
G1 X-20.263 Y-3.468 E28.34172
G1 X-20.311 Y-3.375 E28.34694
G1 X-20.776 Y-3.731 E28.37616
G1 X-21.46 Y-4.01 E28.41301
G1 X-22.126 Y-4.112 E28.44663
G1 X-22.893 Y-4.091 E28.48491
G1 X-23.588 Y-3.935 E28.52044
G1 X-24.295 Y-3.595 E28.55958
G1 X-24.861 Y-3.137 E28.59591
G1 X-24.906 Y-3.079 E28.59957
G1 X-24.906 Y-4.841 E28.68748
G1 X-24.861 Y-5.158 E28.70345
G1 X-24.78 Y-5.349 E28.7138
G1 X-24.526 Y-5.591 E28.7313
G1 X-24.141 Y-5.692 E28.75116
G1 X-.668 Y-7.126 E29.92442
G1 X0.007 Y-7.146 E29.95811
G1 X0.648 Y-7.131 E29.9901
G1 X1.3 Y-7.089 E30.02269
G1 X2.105 Y-6.993 E30.06314
G1 X2.767 Y-6.88 E30.09664
G1 X3.532 Y-6.705 E30.1358
G1 X4.136 Y-6.535 E30.1671
G1 X4.748 Y-6.332 E30.19927
G1 X5.197 Y-6.164 E30.22319
G1 X5.754 Y-5.928 E30.25337
G1 X6.366 Y-5.637 E30.28718
G1 X6.836 Y-5.387 E30.31373
G1 X7.325 Y-5.102 E30.34197
G1 X7.719 Y-4.854 E30.3652
G1 X8.23 Y-4.501 E30.39618
G1 X8.698 Y-4.146 E30.42549
G1 X9.31 Y-3.637 E30.4652
G1 X9.844 Y-3.137 E30.5017
G1 X10.512 Y-2.433 E30.55012
G0 F3600 X9.756 Y-2.688
G1 F1800 X8.02 Y-4.424 E30.6726
G1 X7.95 Y-4.494
G0 F3600 X8.058 Y-2.689
G1 F1800 X4.537 Y-6.21 E30.92103
G1 X4.467 Y-6.28
G0 F3600 X3.719 Y-6.462
G1 F1800 X7.539 Y-2.643 E31.19051
G0 F3600 X7.054 Y-2.561
G1 F1800 X2.968 Y-6.648 E31.47884
G0 F3600 X2.269 Y-6.781
G1 F1800 X6.482 Y-2.568 E31.77609
G0 F3600 X5.77 Y-2.714
G1 F1800 X1.617 Y-6.868 E32.06914
G0 F3600 X0.992 Y-6.926
G1 F1800 X5.347 Y-2.571 E32.37641
G0 F3600 X4.979 Y-2.374
G1 F1800 X0.398 Y-6.955 E32.69962
G0 F3600 X-.171 Y-6.96
G1 F1800 X4.683 Y-2.105 E33.04213
G1 X4.753 Y-2.035
G0 F3600 X3.609 Y-2.612
G1 F1800 X-.718 Y-6.94 E33.34746
G0 F3600 X-1.251 Y-6.908
G1 F1800 X2.983 Y-2.672 E33.64626
G0 F3600 X2.517 Y-2.573
G1 F1800 X-1.784 Y-6.875 E33.94976
G0 F3600 X-2.317 Y-6.843
G1 F1800 X2.124 Y-2.401 E34.26313
G1 X2.194 Y-2.331
G0 F3600 X1.279 Y-2.68
G1 F1800 X-2.851 Y-6.81 E34.55452
G0 F3600 X-3.384 Y-6.778
G1 F1800 X0.787 Y-2.607 E34.84881
G0 F3600 X0.379 Y-2.448
G1 F1800 X-3.917 Y-6.745 E35.15195
G0 F3600 X-4.45 Y-6.713
G1 F1800 X-.354 Y-2.617 E35.44095
G0 F3600 X-.999 Y-2.696
G1 F1800 X-4.983 Y-6.68 E35.72204
G0 F3600 X-5.516 Y-6.648
G1 F1800 X-1.441 Y-2.572 E36.00959
G0 F3600 X-1.819 Y-2.385
G1 F1800 X-6.05 Y-6.615 E36.30807
G0 F3600 X-6.583 Y-6.583
G1 F1800 X-2.127 Y-2.127 E36.62247
G0 F3600 X-2.339 Y-1.773
G1 F1800 X-7.116 Y-6.55 E36.95951
G0 F3600 X-7.649 Y-6.518
G1 F1800 X-2.508 Y-1.376 E37.32227
G0 F3600 X-2.463 Y-.766
G1 F1800 X-3.469 Y-1.772 E37.39325
G0 F3600 X-3.287 Y-1.024
G1 F1800 X-2.04 Y0.222 E37.4812
G0 F3600 X-2.505 Y0.323
G1 F1800 X-3.216 Y-.388 E37.53136
G1 X-3.286 Y-.458
G0 F3600 X-5.608 Y-3.911
G1 F1800 X-8.182 Y-6.485 E37.71297
G0 F3600 X-8.715 Y-6.453
G1 F1800 X-6.331 Y-4.068 E37.88121
G0 F3600 X-6.944 Y-4.116
G1 F1800 X-9.248 Y-6.419 E38.04374
G0 F3600 X-9.781 Y-6.387
G1 F1800 X-7.514 Y-4.12 E38.20369
G0 F3600 X-8.093 Y-4.133
G1 F1800 X-10.314 Y-6.354 E38.36039
G0 F3600 X-10.847 Y-6.322
G1 F1800 X-8.623 Y-4.097 E38.51734
G0 F3600 X-9.067 Y-3.976
G1 F1800 X-11.38 Y-6.289 E38.68053
G0 F3600 X-11.914 Y-6.257
G1 F1800 X-9.446 Y-3.79 E38.85463
G0 F3600 X-9.726 Y-3.503
G1 F1800 X-12.447 Y-6.224 E39.04661
G0 F3600 X-12.98 Y-6.192
G1 F1800 X-10.82 Y-4.032 E39.19901
G1 X-10.75 Y-3.962
G0 F3600 X-11.599 Y-4.245
G1 F1800 X-13.513 Y-6.159 E39.33405
G0 F3600 X-14.046 Y-6.127
G1 F1800 X-12.222 Y-4.302 E39.46278
G0 F3600 X-12.749 Y-4.263
G1 F1800 X-14.579 Y-6.094 E39.59193
G0 F3600 X-15.112 Y-6.062
G1 F1800 X-13.217 Y-4.166 E39.72567
G0 F3600 X-13.648 Y-4.031
G1 F1800 X-15.646 Y-6.029 E39.86664
G0 F3600 X-16.179 Y-5.996
G1 F1800 X-14.016 Y-3.834 E40.01922
G1 X-13.946 Y-3.764
G0 F3600 X-14.809 Y-4.061
G1 F1800 X-16.712 Y-5.964 E40.15348
G0 F3600 X-17.245 Y-5.931
G1 F1800 X-15.44 Y-4.126 E40.28084
G0 F3600 X-15.999 Y-4.12
G1 F1800 X-17.778 Y-5.899 E40.40635
G0 F3600 X-18.311 Y-5.866
G1 F1800 X-16.568 Y-4.123 E40.52933
G0 F3600 X-17.133 Y-4.122
G1 F1800 X-18.845 Y-5.834 E40.65012
G0 F3600 X-19.378 Y-5.801
G1 F1800 X-17.699 Y-4.123 E40.76855
G0 F3600 X-18.262 Y-4.12
G1 F1800 X-19.911 Y-5.769 E40.8849
G0 F3600 X-20.444 Y-5.736
G1 F1800 X-18.846 Y-4.138 E40.99764
G0 F3600 X-19.4 Y-4.127
G1 F1800 X-20.977 Y-5.703 E41.10887
G0 F3600 X-21.51 Y-5.67
G1 F1800 X-19.847 Y-4.007 E41.22621
G0 F3600 X-20.177 Y-3.773
G1 F1800 X-22.043 Y-5.638 E41.35783
G0 F3600 X-22.576 Y-5.605
G1 F1800 X-20.977 Y-4.007 E41.47061
G1 X-20.907 Y-3.937
G0 F3600 X-21.776 Y-4.24
G1 F1800 X-23.109 Y-5.573 E41.56466
G0 F3600 X-23.642 Y-5.54
G1 F1800 X-22.387 Y-4.285 E41.65321
G0 F3600 X-22.932 Y-4.265
G1 F1800 X-24.166 Y-5.498 E41.74024
G0 F3600 X-24.55 Y-5.317
G1 F1800 X-23.395 Y-4.162 E41.82173
G0 F3600 X-23.821 Y-4.022
G1 F1800 X-24.713 Y-4.914 E41.88467
G0 F3600 X-24.725 Y-4.36
G1 F1800 X-24.203 Y-3.838 E41.9215
G0 F3600 X-24.55 Y-3.62
G1 F1800 X-24.725 Y-3.795 E41.93384
G0 F3600 X5.456 Y-5.857
G1 F1800 X8.626 Y-2.687 E42.1575
G0 F3600 X9.193 Y-2.685
G1 F1800 X6.539 Y-5.34 E42.34479
G1 X6.469 Y-5.41
G0 F3600 X10.625 Y-1.723
G0 X11.522 Y-.357
G1 F1800 X11.965 Y0.086 E42.37605
G0 F3600 X11.761 Y0.447
G1 F1800 X11.347 Y0.033 E42.40526
G0 F3600 X11.134 Y0.386
G1 F1800 X11.542 Y0.794 E42.43405
G0 F3600 X11.313 Y1.13
G1 F1800 X10.906 Y0.724 E42.46273
G0 F3600 X10.899 Y-.91
G0 X10.625 Y-1.723
G0 X9.469 Y-1.954
G0 X-.903 Y-1.963
G0 X-3.991 Y0.7
G0 X-4.798 Y2.475
G0 X-5.851 Y3.152
G0 X-8.373 Y3.356
G0 X-9.205 Y2.865
G0 X-9.654 Y0.244
;TYPE:SKIN
G1 F1800 X-9.718 Y0.181 E42.46497
G0 F3600 X-9.654 Y-0.038
G1 F1800 X-9.895 Y-.278 E42.47345
G0 F3600 X-9.654 Y-.321
G1 F1800 X-9.977 Y-.643 E42.48483
G0 F3600 X-9.907 Y-.857
G1 F1800 X-9.654 Y-.603 E42.49377
G0 F3600 X-9.655 Y-.887
G1 F1800 X-9.84 Y-1.071 E42.50028
G0 F3600 X-9.654 Y-1.169
G1 F1800 X-9.787 Y-1.302 E42.50497
G0 F3600 X-9.651 Y-1.448
G1 F1800 X-9.77 Y-1.567 E42.50917
G0 F3600 X-9.647 Y-1.728
G1 F1800 X-9.751 Y-1.832 E42.51284
G0 F3600 X-9.652 Y-2.015
G1 F1800 X-9.78 Y-2.143 E42.51735
G0 F3600 X-9.677 Y-2.323
G1 F1800 X-9.86 Y-2.506 E42.52381
G0 F3600 X-9.67 Y-2.599
G1 F1800 X-9.845 Y-2.774 E42.52998
G0 F3600 X-11.003 Y-3.323
G0 X-12.213 Y-3.569
G0 X-13.306 Y-3.387
G0 X-14.076 Y-2.839
G0 X-14.007 Y-1.698
G0 X-12.827 Y-1.453
G0 X-13.964 Y-.936
;TYPE:SKIN
G1 F1800 X-14.021 Y-.827 E42.53612
G1 X-14.121 Y-.228 E42.56642
G1 X-14.014 Y0.312 E42.59388
G1 X-13.71 Y0.749 E42.62044
G1 X-13.81 Y0.76 E42.62546
G1 X-14.393 Y1.109 E42.65936
G1 X-14.737 Y1.677 E42.69249
G1 X-14.79 Y2.354 E42.72637
G1 X-14.616 Y2.938 E42.75677
G1 X-14.233 Y3.437 E42.78815
G1 X-13.744 Y3.759 E42.81736
G1 X-13.089 Y3.974 E42.85176
G1 X-12.452 Y4.046 E42.88374
G1 X-11.779 Y4.022 E42.91734
G1 X-11.066 Y3.847 E42.95396
G1 X-10.463 Y3.517 E42.98826
G1 X-9.957 Y3.046 E43.02275
G1 X-9.802 Y2.796 E43.03742
G1 X-9.76 Y3.008 E43.0482
G1 X-9.484 Y3.484 E43.07566
G1 X-8.97 Y3.842 E43.10691
G1 X-8.383 Y3.91 E43.13639
G1 X-7.748 Y3.863 E43.16815
G1 X-7.035 Y3.872 E43.20373
G1 X-6.375 Y3.826 E43.23674
G1 X-5.679 Y3.68 E43.27222
G1 X-4.998 Y3.366 E43.30963
G1 X-4.972 Y3.345 E43.3113
G1 X-4.959 Y3.379 E43.31311
G1 X-4.498 Y3.913 E43.34831
G1 X-3.885 Y4.257 E43.38338
G1 X-3.188 Y4.366 E43.41857
G1 X-2.496 Y4.228 E43.45378
G1 X-1.89 Y3.85 E43.48941
G1 X-1.823 Y3.764 E43.49485
G1 X-1.514 Y3.978 E43.5136
G1 X-.862 Y4.093 E43.54663
G1 X-.306 Y3.923 E43.57564
G1 X0.094 Y3.556 E43.60272
G1 X0.116 Y3.592 E43.60483
G1 X0.576 Y3.965 E43.63437
G1 X1.243 Y4.112 E43.66845
G1 X1.825 Y3.979 E43.69823
G1 X1.569 Y4.177 E43.71438
G1 X1.32 Y4.667 E43.7418
G1 X1.299 Y5.258 E43.7713
G1 X1.484 Y5.82 E43.80082
G1 X1.853 Y6.292 E43.83071
G1 X2.427 Y6.579 E43.86273
G1 X3.045 Y6.609 E43.8936
G1 X3.692 Y6.454 E43.92679
G1 X4.336 Y6.136 E43.96262
G1 X4.817 Y5.66 E43.99638
G1 X5.127 Y5.138 E44.02667
G1 X5.448 Y4.378 E44.06783
G1 X5.75 Y3.597 E44.10961
G1 X5.89 Y3.217 E44.12981
G1 X6.231 Y2.263 E44.18036
G1 X6.205 Y2.749 E44.20464
G1 X6.423 Y3.403 E44.23903
G1 X6.774 Y3.807 E44.26573
G1 X7.215 Y4.042 E44.29066
G1 X7.812 Y4.091 E44.32055
G1 X8.312 Y4.064 E44.34553
G1 X8.789 Y4.07 E44.36933
G1 X8.523 Y4.284 E44.38636
G1 X8.084 Y4.604 E44.41346
G1 X7.566 Y4.951 E44.44457
G1 X7.166 Y5.198 E44.46802
G1 X6.661 Y5.484 E44.49698
G1 X5.929 Y5.85 E44.53781
G1 X5.516 Y6.031 E44.5603
G1 X4.948 Y6.261 E44.59088
G1 X4.492 Y6.419 E44.61495
G1 X3.925 Y6.599 E44.64463
G1 X3.432 Y6.731 E44.67009
G1 X2.724 Y6.888 E44.70627
G1 X2.448 Y6.938 E44.72027
G1 X1.953 Y7.015 E44.74526
G1 X1.358 Y7.085 E44.77515
G1 X0.869 Y7.12 E44.79961
G1 X0.273 Y7.144 E44.82937
G1 X-.303 Y7.14 E44.85811
G1 X-.812 Y7.118 E44.88352
G1 X-8.537 Y6.643 E45.26965
G1 X-10.517 Y6.524 E45.36861
G1 X-21.838 Y5.834 E45.93447
G1 X-24.174 Y5.688 E46.05124
G1 X-24.44 Y5.63 E46.06482
G1 X-24.598 Y5.547 E46.07373
G1 X-24.738 Y5.412 E46.08343
G1 X-24.822 Y5.266 E46.09183
G1 X-24.907 Y4.826 E46.11419
G1 X-24.907 Y2.984 E46.20609
G1 X-24.679 Y3.235 E46.22301
G1 X-24.032 Y3.675 E46.26204
G1 X-23.421 Y3.916 E46.29481
G1 X-22.719 Y4.038 E46.33036
G1 X-21.95 Y4.027 E46.36873
G1 X-21.217 Y3.864 E46.40619
G1 X-20.61 Y3.562 E46.44001
G1 X-20.072 Y3.07 E46.47639
G1 X-19.712 Y2.43 E46.51302
G1 X-19.62 Y1.855 E46.54207
G1 X-19.862 Y1.213 E46.5763
G1 X-20.368 Y0.756 E46.61032
G1 X-20.955 Y0.554 E46.64129
G1 X-21.559 Y0.571 E46.67144
G1 X-22.1 Y0.832 E46.7014
G1 X-22.351 Y1.061 E46.71835
G1 X-22.648 Y1.014 E46.73336
G1 X-22.822 Y0.812 E46.74666
G1 X-22.91 Y0.496 E46.76302
G1 X-22.946 Y-0.005 E46.78808
G1 X-22.929 Y-.418 E46.8087
G1 X-22.842 Y-.83 E46.82971
G1 X-22.703 Y-1.049 E46.84265
G1 X-22.458 Y-1.124 E46.85544
G1 X-22.374 Y-1.088 E46.86
G1 X-21.889 Y-.795 E46.88826
G1 X-21.272 Y-.602 E46.92052
G1 X-20.701 Y-.654 E46.94912
G1 X-20.138 Y-.986 E46.98173
G1 X-19.988 Y-1.212 E46.99526
G1 X-19.947 Y-1.169 E46.99823
G1 X-19.387 Y-.971 E47.02786
G1 X-18.874 Y-.98 E47.05346
G1 X-18.696 Y-1.001 E47.0624
G1 X-18.707 Y-.802 E47.07234
G1 X-18.698 Y0.091 E47.1169
G1 X-18.703 Y1.335 E47.17896
G1 X-18.691 Y1.954 E47.20985
G1 X-18.739 Y2.62 E47.24316
G1 X-18.575 Y3.216 E47.274
G1 X-18.194 Y3.639 E47.30241
G1 X-17.588 Y3.884 E47.33502
G1 X-16.954 Y3.889 E47.36665
G1 X-16.335 Y3.614 E47.40044
G1 X-15.933 Y3.105 E47.4328
G1 X-15.764 Y2.451 E47.4665
G1 X-15.782 Y1.661 E47.50592
G1 X-15.783 Y1.424 E47.51775
G1 X-15.779 Y0.808 E47.54848
G1 X-15.78 Y-.598 E47.61863
G1 X-15.778 Y-1.001 E47.63873
G1 X-15.721 Y-1 E47.64158
G1 X-15.07 Y-1.04 E47.67412
G1 X-14.467 Y-1.26 E47.70614
G1 X-14.41 Y-1.318 E47.7102
G1 X-13.964 Y-.936 E47.73949
G0 F3600 X-14.235 Y-2.421
G0 X-13.759 Y-3.145
G0 X-12.771 Y-3.529
G0 X-6.39 Y-3.34
G0 X1.478 Y-1.92
G0 X2.04 Y-1.324
G0 X1.828 Y0.704
G1 F1800 X2.081 Y0.271 E47.76451
G1 X2.343 Y0.948 E47.80073
G1 X2.619 Y1.678 E47.83967
G1 X2.823 Y2.238 E47.8694
G1 X3.029 Y2.698 E47.89455
G1 X3.002 Y2.781 E47.8989
G1 X2.724 Y3.444 E47.93477
G1 X2.584 Y3.667 E47.9479
G1 X2.054 Y3.828 E47.97554
G1 X2.409 Y3.559 E47.99776
G1 X2.679 Y2.93 E48.03191
G1 X2.651 Y2.248 E48.06596
G1 X2.426 Y1.715 E48.09483
G1 X1.951 Y0.916 E48.1412
G1 X1.828 Y0.704 E48.15343
G0 F3600 X2.791 Y4.179
G0 X2.004 Y4.537
G0 X1.977 Y5.557
G0 X2.994 Y6.054
G0 X4.012 Y5.681
G0 X6.498 Y1.514
G1 F1800 X6.711 Y0.917 E48.18505
G1 X6.94 Y0.228 E48.22128
G1 X7.314 Y0.366 E48.24116
G1 X6.904 Y0.936 E48.27619
G1 X6.498 Y1.514 E48.31143
G0 F3600 X6.912 Y3.125
G0 X7.901 Y4.507
G1 F1800 X7.652 Y4.258 E48.329
G0 F3600 X7.563 Y4.735
G1 F1800 X6.914 Y4.086 E48.37479
G1 X6.844 Y4.016
G0 F3600 X7.216 Y4.953
G1 F1800 X5.919 Y3.656 E48.4663
G0 F3600 X6.233 Y3.404
G1 F1800 X6.07 Y3.242 E48.47777
G0 F3600 X5.761 Y4.064
G1 F1800 X6.859 Y5.162 E48.55524
G0 F3600 X6.495 Y5.364
G1 F1800 X5.602 Y4.471 E48.61824
G0 F3600 X5.434 Y4.869
G1 F1800 X6.118 Y5.552 E48.66647
G0 F3600 X5.736 Y5.736
G1 F1800 X5.261 Y5.261 E48.69998
G0 F3600 X5.05 Y5.616
G1 F1800 X5.34 Y5.906 E48.72044
G0 F3600 X4.938 Y6.069
G1 F1800 X4.799 Y5.93 E48.73025
G0 F3600 X2.259 Y6.784
G1 F1800 X2.082 Y6.607 E48.74274
G0 F3600 X1.763 Y6.854
G1 F1800 X-.822 Y4.268 E48.92516
G0 F3600 X-.388 Y4.136
G1 F1800 X1.295 Y5.82 E49.04394
G0 F3600 X1.125 Y5.085
G1 F1800 X-0.038 Y3.921 E49.12603
G1 X-.108 Y3.851
G0 F3600 X0.803 Y4.198
G1 F1800 X1.17 Y4.565 E49.15193
G0 F3600 X1.255 Y6.911
G1 F1800 X-1.492 Y4.164 E49.34574
G0 F3600 X-2.056 Y4.166
G1 F1800 X0.721 Y6.944 E49.54171
G0 F3600 X0.174 Y6.962
G1 F1800 X-2.404 Y4.383 E49.72364
G0 F3600 X-2.868 Y4.485
G1 F1800 X-.399 Y6.954 E49.89784
G0 F3600 X-.994 Y6.925
G1 F1800 X-3.406 Y4.513 E50.06802
G1 X-3.476 Y4.443
G0 F3600 X-4.197 Y4.287
G1 F1800 X-1.597 Y6.887 E50.25146
G0 F3600 X-2.199 Y6.851
G1 F1800 X-5.331 Y3.719 E50.47244
G0 F3600 X-5.739 Y3.877
G1 F1800 X-2.802 Y6.814 E50.67966
G0 F3600 X-3.405 Y6.776
G1 F1800 X-6.206 Y3.975 E50.87729
G0 F3600 X-6.716 Y4.031
G1 F1800 X-4.007 Y6.74 E51.06842
G0 F3600 X-4.61 Y6.703
G1 F1800 X-7.264 Y4.049 E51.25568
G0 F3600 X-7.829 Y4.049
G1 F1800 X-5.213 Y6.665 E51.44025
G0 F3600 X-5.815 Y6.629
G1 F1800 X-8.356 Y4.088 E51.61953
G0 F3600 X-8.99 Y4.02
G1 F1800 X-6.418 Y6.592 E51.801
G0 F3600 X-7.021 Y6.554
G1 F1800 X-10.126 Y3.449 E52.02007
G0 F3600 X-10.435 Y3.706
G1 F1800 X-7.624 Y6.518 E52.21844
G0 F3600 X-8.227 Y6.48
G1 F1800 X-10.8 Y3.907 E52.39998
G0 F3600 X-11.206 Y4.067
G1 F1800 X-8.828 Y6.444 E52.56772
G0 F3600 X-9.43 Y6.408
G1 F1800 X-11.66 Y4.179 E52.72503
G0 F3600 X-12.187 Y4.217
G1 F1800 X-10.032 Y6.372 E52.87707
G0 F3600 X-10.634 Y6.335
G1 F1800 X-12.78 Y4.19 E53.02845
G0 F3600 X-13.511 Y4.024
G1 F1800 X-11.237 Y6.298 E53.18889
G0 F3600 X-11.839 Y6.262
G1 F1800 X-15.592 Y2.509 E53.45369
G0 F3600 X-15.708 Y2.959
G1 F1800 X-12.441 Y6.226 E53.68419
G0 F3600 X-13.043 Y6.189
G1 F1800 X-15.89 Y3.342 E53.88506
G0 F3600 X-16.141 Y3.657
G1 F1800 X-13.646 Y6.152 E54.0611
G0 F3600 X-14.248 Y6.115
G1 F1800 X-16.485 Y3.879 E54.2189
G0 F3600 X-16.877 Y4.053
G1 F1800 X-14.851 Y6.078 E54.36181
G0 F3600 X-15.453 Y6.042
G1 F1800 X-17.43 Y4.065 E54.50129
G1 X-17.5 Y3.995
G0 F3600 X-18.254 Y3.807
G1 F1800 X-16.056 Y6.005 E54.65638
G0 F3600 X-16.658 Y5.968
G1 F1800 X-19.753 Y2.873 E54.87474
G0 F3600 X-19.97 Y3.222
G1 F1800 X-17.261 Y5.931 E55.06588
G0 F3600 X-17.863 Y5.895
G1 F1800 X-20.265 Y3.493 E55.23535
G0 F3600 X-20.576 Y3.747
G1 F1800 X-18.466 Y5.858 E55.38426
G0 F3600 X-19.068 Y5.821
G1 F1800 X-20.955 Y3.935 E55.51736
G0 F3600 X-21.373 Y4.082
G1 F1800 X-19.671 Y5.784 E55.63745
G0 F3600 X-20.273 Y5.748
G1 F1800 X-21.834 Y4.186 E55.74762
G0 F3600 X-22.373 Y4.213
G1 F1800 X-20.875 Y5.712 E55.85335
G0 F3600 X-21.477 Y5.675
G1 F1800 X-22.977 Y4.175 E55.95918
G0 F3600 X-23.731 Y3.986
G1 F1800 X-22.08 Y5.637 E56.07567
G0 F3600 X-22.683 Y5.6
G1 F1800 X-24.726 Y3.558 E56.21978
G0 F3600 X-24.726 Y4.123
G1 F1800 X-23.287 Y5.562 E56.32131
G0 F3600 X-23.891 Y5.524
G1 F1800 X-24.726 Y4.689 E56.38022
G1 X-24.796 Y4.619
G0 F3600 X-21.4 Y3.34
G0 X-20.507 Y2.72
G0 X-20.189 Y1.912
G0 X-20.655 Y1.24
G0 X-22.364 Y0.828
G1 F1800 X-22.732 Y0.461 E56.40615
G0 F3600 X-22.76 Y-.132
G1 F1800 X-22.029 Y0.598 E56.45769
G0 F3600 X-21.647 Y0.414
G1 F1800 X-22.698 Y-.636 E56.53181
G0 F3600 X-22.375 Y-.879
G1 F1800 X-21.117 Y0.378 E56.62053
G0 F3600 X-20.363 Y0.566
G1 F1800 X-21.375 Y-.444 E56.69186
G0 F3600 X-20.825 Y-.461
G1 F1800 X-18.879 Y1.485 E56.82916
G0 F3600 X-18.879 Y0.919
G1 F1800 X-20.412 Y-.613 E56.93729
G0 F3600 X-20.057 Y-.823
G1 F1800 X-18.878 Y0.354 E57.02041
G0 F3600 X-18.88 Y-.212
G1 F1800 X-19.48 Y-.812 E57.06274
G1 X-19.55 Y-.882
G0 F3600 X-19.64 Y1.289
G1 F1800 X-18.876 Y2.053 E57.11664
G0 F3600 X-18.915 Y2.58
G1 F1800 X-19.465 Y2.03 E57.15545
G0 F3600 X-19.55 Y2.511
G1 F1800 X-18.55 Y3.51 E57.22597
G1 X-18.48 Y3.58
G0 F3600 X-17.069 Y3.337
G0 X-15.595 Y1.941
G1 F1800 X-14.889 Y2.646 E57.27575
G0 F3600 X-14.943 Y2.027
G1 F1800 X-15.602 Y1.368 E57.32224
G0 F3600 X-15.599 Y0.805
G1 F1800 X-14.864 Y1.54 E57.3741
G0 F3600 X-14.65 Y1.188
G1 F1800 X-15.599 Y0.239 E57.44106
G0 F3600 X-15.599 Y-.325
G1 F1800 X-14.381 Y0.891 E57.52692
G0 F3600 X-14.027 Y0.68
G1 F1800 X-15.537 Y-.83 E57.63346
G0 F3600 X-15.011 Y-.869
G1 F1800 X-14.285 Y-.143 E57.68468
G0 F3600 X-14.231 Y-.654
G1 F1800 X-14.596 Y-1.02 E57.71047
G0 F3600 X-16.437 Y2.853
G0 X-17.477 Y3.334
G0 X-21.209 Y-1.161
G0 X-20.279 Y-1.769
G0 X-20.573 Y-2.881
G0 X-21.608 Y-3.476
G0 X-22.825 Y-3.542
G0 X-23.995 Y-3.128
G0 X-24.796 Y-2.32
G0 X-25.256 Y-1.424
G0 X-25.195 Y-1.437
;TYPE:SKIN
G1 F1800 X-25.358 Y-1.317 E57.71658
G1 X-25.404 Y0.333 E57.7664
G1 X-25.351 Y1.234 E57.79363
G0 F3600 X-25.444 Y1.425
G1 F1800 X-25.501 Y1.368 E57.79565
;MESH:NONMESH
G0 F600 X-25.501 Y1.368 Z0.6
G0 F3600 X-25.397 Y1.368
G0 X-24.761 Y2.326
G0 X-23.771 Y3.186
G0 X-22.676 Y3.486
G0 X-11.853 Y3.473
G0 X-6.455 Y3.279
G0 X-5.289 Y2.893
G0 X-4.14 Y1.241
G0 X-1.619 Y-1.598
G0 X-.903 Y-1.963
G0 X9.871 Y-1.959
G0 X12.602 Y-.307
G0 X12.832 Y-.395
;TIME_ELAPSED:47.832535
;LAYER:1
M106 S255
;TYPE:WALL-INNER
;MESH:benchy.stl
G1 F2700 X12.935 Y-.126 E57.81002
G1 X12.944 Y0.056 E57.81911
G1 X12.876 Y0.31 E57.83223
G1 X12.622 Y0.745 E57.85736
G1 X12.486 Y0.96 E57.87005
G1 X12.144 Y1.474 E57.90085
G1 X11.838 Y1.894 E57.92678
G1 X11.545 Y2.267 E57.95044
G1 X11.049 Y2.848 E57.98855
G1 X10.369 Y3.555 E58.03749
G1 X10.003 Y3.901 E58.06262
G1 X9.611 Y4.244 E58.0886
G1 X9.192 Y4.584 E58.11553
G1 X8.788 Y4.89 E58.14081
G1 X8.282 Y5.244 E58.17162
G1 X7.818 Y5.546 E58.19924
G1 X7.395 Y5.796 E58.22375
G1 X6.708 Y6.166 E58.26268
G1 X6.247 Y6.389 E58.28823
G1 X5.649 Y6.649 E58.32076
G1 X5.169 Y6.836 E58.34646
G1 X4.604 Y7.028 E58.37624
G1 X3.919 Y7.234 E58.41192
G1 X3.396 Y7.366 E58.43883
G1 X2.864 Y7.479 E58.46597
G1 X2.311 Y7.577 E58.49399
G1 X1.561 Y7.673 E58.53171
G1 X0.877 Y7.728 E58.56594
G1 X0.257 Y7.751 E58.5969
G1 X-.342 Y7.747 E58.62678
G1 X-.92 Y7.721 E58.65565
G1 X-3.489 Y7.555 E58.78408
G1 X-9.159 Y7.196 E59.06753
G1 X-9.275 Y7.187 E59.07333
G1 X-9.923 Y7.149 E59.10572
G1 X-10.032 Y7.139 E59.11118
G1 X-18.027 Y6.637 E59.51083
G1 X-18.505 Y6.605 E59.53474
G1 X-24.328 Y6.238 E59.82582
G1 X-24.683 Y6.169 E59.84386
G1 X-24.977 Y6.02 E59.86031
G1 X-25.186 Y5.817 E59.87484
G1 X-25.34 Y5.547 E59.89035
G1 X-25.427 Y5.19 E59.90868
G1 X-25.438 Y4.866 E59.92486
G1 X-25.44 Y2.149 E60.06041
G1 X-25.439 Y-5.004 E60.41727
G1 X-25.395 Y-5.382 E60.43626
G1 X-25.266 Y-5.699 E60.45333
G1 X-25.087 Y-5.927 E60.4678
G1 X-24.83 Y-6.109 E60.48351
G1 X-24.346 Y-6.237 E60.50848
G1 X-2.618 Y-7.611 E61.59466
G1 X-1.501 Y-7.684 E61.65051
G1 X-.772 Y-7.729 E61.68695
G1 X-0.005 Y-7.752 E61.72523
G1 X0.585 Y-7.742 E61.75467
G1 X1.297 Y-7.698 E61.79026
G1 X2.03 Y-7.617 E61.82705
G1 X2.716 Y-7.508 E61.86171
G1 X3.506 Y-7.339 E61.90201
G1 X4.18 Y-7.16 E61.9368
G1 X4.928 Y-6.92 E61.976
G1 X5.42 Y-6.741 E62.00212
G1 X6.015 Y-6.492 E62.0343
G1 X6.637 Y-6.201 E62.06856
G1 X7.108 Y-5.954 E62.09509
G1 X7.71 Y-5.611 E62.12966
G1 X8.139 Y-5.341 E62.15494
G1 X8.576 Y-5.044 E62.18131
G1 X9.045 Y-4.701 E62.21029
G1 X9.614 Y-4.241 E62.2468
G1 X9.994 Y-3.908 E62.272
G1 X10.466 Y-3.46 E62.30447
G1 X10.821 Y-3.093 E62.32995
G1 X11.268 Y-2.597 E62.36326
G1 X11.571 Y-2.233 E62.38689
G1 X12.019 Y-1.648 E62.42365
G1 X12.411 Y-1.079 E62.45812
G1 X12.832 Y-.395 E62.49819
G0 F5400 X13.193 Y-.573
;TYPE:WALL-OUTER
G1 F1800 X13.332 Y-.209 E62.51763
G1 X13.347 Y0.096 E62.53286
G1 X13.248 Y0.466 E62.55197
G1 X12.96 Y0.959 E62.58046
G1 X12.819 Y1.182 E62.59362
G1 X12.475 Y1.699 E62.6246
G1 X12.161 Y2.13 E62.65121
G1 X11.849 Y2.527 E62.6764
G1 X11.351 Y3.11 E62.71465
G1 X10.997 Y3.491 E62.7406
G1 X10.644 Y3.846 E62.76557
G1 X10.278 Y4.192 E62.7907
G1 X9.863 Y4.555 E62.81821
G1 X9.434 Y4.903 E62.84577
G1 X9.03 Y5.209 E62.87105
G1 X8.511 Y5.572 E62.90265
G1 X8.034 Y5.883 E62.93106
G1 X7.585 Y6.148 E62.95707
G1 X6.893 Y6.521 E62.99629
G1 X6.406 Y6.756 E63.02327
G1 X5.794 Y7.022 E63.05656
G1 X5.302 Y7.213 E63.08289
G1 X4.733 Y7.407 E63.11288
G1 X4.017 Y7.622 E63.15018
G1 X3.494 Y7.754 E63.17709
G1 X2.934 Y7.873 E63.20565
G1 X2.369 Y7.973 E63.23428
G1 X1.602 Y8.071 E63.27285
G1 X0.901 Y8.128 E63.30794
G1 X0.269 Y8.151 E63.33949
G1 X-.36 Y8.147 E63.37088
G1 X-.938 Y8.121 E63.39974
G1 X-3.515 Y7.954 E63.52858
G1 X-5.51 Y7.829 E63.62831
G1 X-9.191 Y7.595 E63.81232
G1 X-9.303 Y7.586 E63.81793
G1 X-9.949 Y7.548 E63.85021
G1 X-10.062 Y7.538 E63.85587
G1 X-18.054 Y7.036 E64.25538
G1 X-18.531 Y7.004 E64.27923
G1 X-24.383 Y6.635 E64.57177
G1 X-24.813 Y6.552 E64.59362
G1 X-25.213 Y6.348 E64.61602
G1 X-25.506 Y6.065 E64.63634
G1 X-25.716 Y5.696 E64.65752
G1 X-25.826 Y5.245 E64.68068
G1 X-25.838 Y4.866 E64.6996
G1 X-25.84 Y2.149 E64.83515
G1 X-25.839 Y-5.025 E65.19307
G1 X-25.785 Y-5.485 E65.21617
G1 X-25.616 Y-5.901 E65.23857
G1 X-25.366 Y-6.22 E65.25879
G1 X-25.014 Y-6.469 E65.28031
G1 X-24.6 Y-6.609 E65.30211
G1 X-24.382 Y-6.635 E65.31306
G1 X-9.2 Y-7.594 E66.072
G1 X-2.643 Y-8.01 E66.39979
G1 X-1.526 Y-8.083 E66.45564
G1 X-.784 Y-8.129 E66.49273
G1 X-0.01 Y-8.152 E66.53136
G1 X0.594 Y-8.142 E66.5615
G1 X1.341 Y-8.096 E66.59884
G1 X2.074 Y-8.015 E66.63563
G1 X2.784 Y-7.902 E66.6715
G1 X3.609 Y-7.726 E66.71358
G1 X4.283 Y-7.547 E66.74837
G1 X5.061 Y-7.298 E66.78913
G1 X5.557 Y-7.117 E66.81547
G1 X6.179 Y-6.857 E66.8491
G1 X6.807 Y-6.563 E66.8837
G1 X7.306 Y-6.302 E66.91179
G1 X7.915 Y-5.955 E66.94676
G1 X8.352 Y-5.68 E66.97252
G1 X8.801 Y-5.375 E66.9996
G1 X9.297 Y-5.012 E67.03027
G1 X9.878 Y-4.542 E67.06755
G1 X10.258 Y-4.209 E67.09276
G1 X10.754 Y-3.738 E67.12688
G1 X11.109 Y-3.371 E67.15236
G1 X11.565 Y-2.865 E67.18634
G1 X11.889 Y-2.476 E67.2116
G1 X12.337 Y-1.891 E67.24836
G1 X12.752 Y-1.289 E67.28484
G1 X13.193 Y-.573 E67.32679
G0 F5400 X13.264 Y-.386
G0 X12.48 Y-.222
;TYPE:SKIN
G1 F1800 X12.552 Y0.017 E67.33924
G1 X12.514 Y0.156 E67.34643
G1 X12.161 Y0.744 E67.38065
G1 X11.828 Y1.244 E67.41062
G1 X11.526 Y1.659 E67.43623
G1 X11.248 Y2.014 E67.45872
G1 X10.768 Y2.577 E67.49563
G1 X10.094 Y3.278 E67.54415
G1 X9.76 Y3.595 E67.56712
G1 X9.359 Y3.946 E67.59371
G1 X8.956 Y4.273 E67.6196
G1 X8.558 Y4.574 E67.6445
G1 X8.064 Y4.92 E67.67459
G1 X7.612 Y5.214 E67.70149
G1 X7.203 Y5.457 E67.72522
G1 X6.532 Y5.818 E67.76324
G1 X6.076 Y6.038 E67.78849
G1 X5.507 Y6.286 E67.81946
G1 X5.038 Y6.469 E67.84458
G1 X4.522 Y6.644 E67.87176
G1 X3.806 Y6.86 E67.90907
G1 X3.315 Y6.984 E67.93434
G1 X2.781 Y7.097 E67.96157
G1 X2.243 Y7.193 E67.98883
G1 X1.524 Y7.285 E68.025
G1 X0.863 Y7.338 E68.05808
G1 X0.245 Y7.361 E68.08893
G1 X-.324 Y7.357 E68.11732
G1 X-.895 Y7.331 E68.14584
G1 X-3.464 Y7.165 E68.27427
G1 X-9.194 Y6.802 E68.56072
G1 X-9.247 Y6.797 E68.56337
G1 X-9.9 Y6.76 E68.59601
G1 X-10.003 Y6.751 E68.60116
G1 X-18.002 Y6.247 E69.00103
G1 X-18.48 Y6.215 E69.02493
G1 X-24.283 Y5.849 E69.31502
G1 X-24.556 Y5.796 E69.32889
G1 X-24.751 Y5.697 E69.3398
G1 X-24.873 Y5.58 E69.34823
G1 X-24.974 Y5.401 E69.35849
G1 X-25.039 Y5.137 E69.37205
G1 X-25.048 Y4.866 E69.38558
G1 X-25.05 Y2.149 E69.52113
G1 X-25.049 Y-4.977 E69.87665
G1 X-25.013 Y-5.287 E69.89222
G1 X-24.926 Y-5.5 E69.9037
G1 X-24.815 Y-5.642 E69.91269
G1 X-24.662 Y-5.751 E69.92206
G1 X-24.289 Y-5.849 E69.9413
G1 X-2.593 Y-7.221 E71.02588
G1 X-1.476 Y-7.294 E71.08173
G1 X-.747 Y-7.339 E71.11817
G1 X0.001 Y-7.362 E71.1555
G1 X0.561 Y-7.352 E71.18345
G1 X1.271 Y-7.308 E71.21894
G1 X1.969 Y-7.231 E71.25397
G1 X2.646 Y-7.123 E71.28817
G1 X3.432 Y-6.955 E71.32827
G1 X4.076 Y-6.784 E71.36152
G1 X4.795 Y-6.553 E71.39919
G1 X5.287 Y-6.375 E71.4253
G1 X5.849 Y-6.139 E71.45571
G1 X6.471 Y-5.848 E71.48997
G1 X6.915 Y-5.615 E71.51498
G1 X7.51 Y-5.276 E71.54915
G1 X7.925 Y-5.015 E71.5736
G1 X8.351 Y-4.726 E71.59929
G1 X8.781 Y-4.412 E71.62585
G1 X9.363 Y-3.942 E71.66317
G1 X9.725 Y-3.625 E71.68718
G1 X10.185 Y-3.189 E71.7188
G1 X10.535 Y-2.827 E71.74392
G1 X10.968 Y-2.347 E71.77617
G1 X11.261 Y-1.995 E71.79902
G1 X11.709 Y-1.41 E71.83578
G1 X12.084 Y-.866 E71.86875
G1 X12.48 Y-.222 E71.90646
G0 F5400 X9.026 Y3.984
G1 F1800 X11.094 Y1.916 E72.05237
G1 X11.164 Y1.846
G0 F5400 X12.326 Y0.118
G1 F1800 X7.189 Y5.255 E72.41481
G1 X7.119 Y5.325
G0 F5400 X6.008 Y5.871
G1 F1800 X12.203 Y-.324 E72.85191
G0 F5400 X11.988 Y-.675
G1 F1800 X5.038 Y6.275 E73.34227
G1 X4.968 Y6.345
G0 F5400 X4.193 Y6.554
G1 F1800 X11.762 Y-1.013 E73.87623
G0 F5400 X11.529 Y-1.347
G1 F1800 X3.408 Y6.773 E74.44917
G0 F5400 X2.686 Y6.93
G1 F1800 X11.284 Y-1.667 E75.05577
G0 F5400 X11.034 Y-1.983
G1 F1800 X2.009 Y7.041 E75.6925
G0 F5400 X1.368 Y7.117
G1 F1800 X10.775 Y-2.29 E76.35622
G0 F5400 X10.506 Y-2.587
G1 F1800 X0.758 Y7.161 E77.04399
G0 F5400 X0.173 Y7.18
G1 F1800 X10.233 Y-2.879 E77.75374
G0 F5400 X9.951 Y-3.162
G1 F1800 X-.385 Y7.173 E78.48297
G0 F5400 X-.925 Y7.148
G1 F1800 X9.66 Y-3.437 E79.2298
G0 F5400 X9.361 Y-3.704
G1 F1800 X-1.456 Y7.113 E79.99299
G0 F5400 X-1.988 Y7.079
G1 F1800 X9.052 Y-3.961 E80.77193
G0 F5400 X8.739 Y-4.213
G1 F1800 X-2.519 Y7.044 E81.5662
G0 F5400 X-3.051 Y7.01
G1 F1800 X8.415 Y-4.455 E82.37516
G0 F5400 X8.083 Y-4.689
G1 F1800 X-3.582 Y6.977 E83.19822
G0 F5400 X-4.114 Y6.943
G1 F1800 X7.744 Y-4.916 E84.0349
G0 F5400 X7.396 Y-5.133
G1 F1800 X-4.647 Y6.909 E84.88456
G0 F5400 X-5.178 Y6.875
G1 F1800 X7.036 Y-5.339 E85.74633
G0 F5400 X6.671 Y-5.54
G1 F1800 X-5.71 Y6.841 E86.61987
G0 F5400 X-6.243 Y6.808
G1 F1800 X6.296 Y-5.731 E87.50457
G0 F5400 X5.911 Y-5.911
G1 F1800 X-6.774 Y6.774 E88.39956
G0 F5400 X-7.306 Y6.74
G1 F1800 X5.517 Y-6.083 E89.3043
G0 F5400 X5.114 Y-6.245
G1 F1800 X-7.838 Y6.707 E90.21813
G0 F5400 X-8.37 Y6.673
G1 F1800 X4.698 Y-6.395 E91.14015
G0 F5400 X4.27 Y-6.532
G1 F1800 X-8.903 Y6.64 E92.06954
G0 F5400 X-9.434 Y6.606
G1 F1800 X3.833 Y-6.662 E93.00563
G0 F5400 X3.387 Y-6.781
G1 F1800 X-9.968 Y6.573 E93.94786
G0 F5400 X-10.499 Y6.54
G1 F1800 X2.919 Y-6.879 E94.89461
G0 F5400 X2.446 Y-6.972
G1 F1800 X-11.031 Y6.506 E95.84552
G0 F5400 X-11.564 Y6.472
G1 F1800 X1.958 Y-7.049 E96.79954
G0 F5400 X1.449 Y-7.106
G1 F1800 X-12.095 Y6.438 E97.75514
G0 F5400 X-12.628 Y6.405
G1 F1800 X0.925 Y-7.148 E98.71138
G0 F5400 X0.386 Y-7.175
G1 F1800 X-13.159 Y6.371 E99.66709
G0 F5400 X-13.692 Y6.338
G1 F1800 X-.178 Y-7.175 E100.62054
G0 F5400 X-.762 Y-7.156
G1 F1800 X-14.224 Y6.304 E101.57028
G0 F5400 X-14.756 Y6.271
G1 F1800 X-1.365 Y-7.119 E102.51505
G0 F5400 X-1.97 Y-7.08
G1 F1800 X-15.289 Y6.238 E103.45475
G0 F5400 X-15.82 Y6.204
G1 F1800 X-2.575 Y-7.04 E104.38922
G0 F5400 X-3.179 Y-7.002
G1 F1800 X-16.353 Y6.17 E105.31864
G0 F5400 X-16.885 Y6.136
G1 F1800 X-3.783 Y-6.964 E106.24299
G0 F5400 X-4.387 Y-6.926
G1 F1800 X-17.417 Y6.103 E107.16229
G0 F5400 X-17.949 Y6.069
G1 F1800 X-4.991 Y-6.887 E108.07648
G0 F5400 X-5.595 Y-6.849
G1 F1800 X-18.479 Y6.034 E108.98548
G0 F5400 X-19.011 Y6.001
G1 F1800 X-6.199 Y-6.811 E109.88943
G0 F5400 X-6.803 Y-6.773
G1 F1800 X-19.543 Y5.967 E110.78831
G0 F5400 X-20.076 Y5.934
G1 F1800 X-7.406 Y-6.735 E111.68221
G0 F5400 X-8.01 Y-6.697
G1 F1800 X-20.607 Y5.9 E112.571
G0 F5400 X-21.14 Y5.866
G1 F1800 X-8.614 Y-6.658 E113.4547
G0 F5400 X-9.217 Y-6.621
G1 F1800 X-21.672 Y5.832 E114.3334
G0 F5400 X-22.204 Y5.799
G1 F1800 X-9.821 Y-6.583 E115.20705
G0 F5400 X-10.425 Y-6.544
G1 F1800 X-22.736 Y5.765 E116.07559
G0 F5400 X-23.268 Y5.732
G1 F1800 X-11.029 Y-6.506 E116.93908
G0 F5400 X-11.633 Y-6.468
G1 F1800 X-23.8 Y5.698 E117.7975
G0 F5400 X-24.325 Y5.657
G1 F1800 X-12.237 Y-6.43 E118.65033
G0 F5400 X-12.841 Y-6.392
G1 F1800 X-24.715 Y5.482 E119.48811
G0 F5400 X-24.86 Y5.061
G1 F1800 X-13.444 Y-6.354 E120.29353
G0 F5400 X-14.048 Y-6.315
G1 F1800 X-24.866 Y4.502 E121.05677
G0 F5400 X-24.867 Y3.937
G1 F1800 X-14.652 Y-6.277 E121.77745
G0 F5400 X-15.256 Y-6.239
G1 F1800 X-24.868 Y3.372 E122.4556
G0 F5400 X-24.868 Y2.807
G1 F1800 X-15.86 Y-6.201 E123.09116
G0 F5400 X-16.464 Y-6.163
G1 F1800 X-24.868 Y2.241 E123.68411
G0 F5400 X-24.868 Y1.675
G1 F1800 X-17.068 Y-6.124 E124.23441
G0 F5400 X-17.672 Y-6.086
G1 F1800 X-24.868 Y1.11 E124.74212
G0 F5400 X-24.868 Y0.544
G1 F1800 X-18.275 Y-6.048 E125.20726
G0 F5400 X-18.879 Y-6.01
G1 F1800 X-24.868 Y-0.021 E125.62982
G0 F5400 X-24.868 Y-.586
G1 F1800 X-19.483 Y-5.972 E126.00979
G0 F5400 X-20.086 Y-5.934
G1 F1800 X-24.868 Y-1.152 E126.34719
G0 F5400 X-24.868 Y-1.718
G1 F1800 X-20.69 Y-5.896 E126.64197
G0 F5400 X-21.294 Y-5.858
G1 F1800 X-24.868 Y-2.284 E126.89413
G0 F5400 X-24.868 Y-2.85
G1 F1800 X-21.898 Y-5.82 E127.10368
G0 F5400 X-22.502 Y-5.782
G1 F1800 X-24.868 Y-3.416 E127.27062
G0 F5400 X-24.868 Y-3.981
G1 F1800 X-23.106 Y-5.743 E127.39493
G0 F5400 X-23.709 Y-5.705
G1 F1800 X-24.868 Y-4.547 E127.47667
G0 F5400 X-24.848 Y-5.132
G1 F1800 X-24.328 Y-5.653 E127.5134
;MESH:NONMESH
G0 F600 X-24.328 Y-5.653 Z0.9
G0 F5400 X-20.225 Y-1.125
;TIME_ELAPSED:95.274959
;LAYER:2
;TYPE:WALL-INNER
;MESH:benchy.stl
G1 F3600 X-25.581 Y-1.127 E127.78061
G1 X-25.581 Y-5.182 E127.98291
G1 X-25.536 Y-5.543 E128.00106
G1 X-25.417 Y-5.84 E128.01703
G1 X-25.223 Y-6.089 E128.03277
G1 X-24.977 Y-6.263 E128.04781
G1 X-24.485 Y-6.394 E128.07321
G1 X-8.565 Y-7.433 E128.86915
G1 X-.697 Y-7.952 E129.26254
G1 X-0.075 Y-7.969 E129.29358
G1 X0.532 Y-7.96 E129.32387
G1 X1.115 Y-7.93 E129.35299
G1 X1.841 Y-7.86 E129.38938
G1 X2.715 Y-7.73 E129.43347
G1 X3.251 Y-7.623 E129.46073
G1 X3.816 Y-7.488 E129.48972
G1 X4.328 Y-7.349 E129.51618
G1 X4.852 Y-7.185 E129.54358
G1 X5.503 Y-6.952 E129.57807
G1 X5.985 Y-6.758 E129.604
G1 X6.589 Y-6.486 E129.63704
G1 X7.095 Y-6.234 E129.66525
G1 X7.534 Y-5.993 E129.69023
G1 X7.983 Y-5.732 E129.71614
G1 X8.529 Y-5.383 E129.74847
G1 X8.932 Y-5.104 E129.77292
G1 X9.56 Y-4.627 E129.81227
G1 X9.962 Y-4.295 E129.83828
G1 X10.421 Y-3.883 E129.86905
G1 X10.898 Y-3.419 E129.90225
G1 X11.238 Y-3.06 E129.92692
G1 X11.592 Y-2.662 E129.95349
G1 X11.922 Y-2.266 E129.97921
G1 X12.234 Y-1.864 E130.0046
G1 X12.619 Y-1.326 E130.0376
G1 X12.907 Y-.886 E130.06384
G1 X13.206 Y-.392 E130.09265
G1 X13.291 Y-.19 E130.10358
G1 X13.314 Y0.063 E130.11626
G1 X13.249 Y0.302 E130.12861
G1 X12.904 Y0.888 E130.16254
G1 X12.633 Y1.306 E130.18739
G1 X12.332 Y1.733 E130.21346
G1 X12.01 Y2.154 E130.2399
G1 X11.599 Y2.657 E130.27231
G1 X11.155 Y3.149 E130.30537
G1 X10.795 Y3.52 E130.33116
G1 X10.408 Y3.893 E130.35798
G1 X9.971 Y4.285 E130.38726
G1 X9.463 Y4.705 E130.42015
G1 X9.062 Y5.009 E130.44525
G1 X8.639 Y5.308 E130.4711
G1 X8.2 Y5.597 E130.49732
G1 X7.74 Y5.875 E130.52413
G1 X7.188 Y6.183 E130.55567
G1 X6.494 Y6.532 E130.59443
G1 X6.011 Y6.747 E130.6208
G1 X5.502 Y6.952 E130.64818
G1 X5.002 Y7.135 E130.67474
G1 X4.199 Y7.387 E130.71673
G1 X3.544 Y7.557 E130.75049
G1 X2.989 Y7.677 E130.77882
G1 X2.296 Y7.798 E130.81392
G1 X1.704 Y7.876 E130.84371
G1 X1.131 Y7.93 E130.87242
G1 X0.541 Y7.961 E130.9019
G1 X-0.066 Y7.969 E130.93218
G1 X-.687 Y7.951 E130.96318
G1 X-1.529 Y7.899 E131.00526
G1 X-2.762 Y7.815 E131.06692
G1 X-3.5 Y7.768 E131.10382
G1 X-9.255 Y7.386 E131.39157
G1 X-9.321 Y7.384 E131.39486
G1 X-17.073 Y6.877 E131.78243
G1 X-17.327 Y6.862 E131.79513
G1 X-20.219 Y6.672 E131.93972
G1 X-20.471 Y6.657 E131.95232
G1 X-21.781 Y6.57 E132.01782
G1 X-24.498 Y6.393 E132.15366
G1 X-24.825 Y6.327 E132.1703
G1 X-25.098 Y6.19 E132.18554
G1 X-25.328 Y5.975 E132.20125
G1 X-25.483 Y5.702 E132.21691
G1 X-25.582 Y5.182 E132.24332
G1 X-25.58 Y1.128 E132.44557
G1 X-20.225 Y1.126 E132.71273
G1 X-20.225 Y-1.125 E132.82504
G0 F7200 X-20.625 Y-.725
;TYPE:WALL-OUTER
G1 F1800 X-25.981 Y-.727 E133.09225
G1 X-25.981 Y-5.207 E133.31576
G1 X-25.927 Y-5.641 E133.33758
G1 X-25.766 Y-6.044 E133.35923
G1 X-25.505 Y-6.379 E133.38041
G1 X-25.161 Y-6.623 E133.40145
G1 X-24.749 Y-6.764 E133.42318
G1 X-24.528 Y-6.792 E133.43429
G1 X-8.591 Y-7.832 E134.23108
G1 X-.708 Y-8.352 E134.62522
G1 X-0.08 Y-8.369 E134.65657
G1 X0.538 Y-8.36 E134.6874
G1 X1.15 Y-8.328 E134.71798
G1 X1.9 Y-8.256 E134.75557
G1 X2.774 Y-8.126 E134.79965
G1 X3.344 Y-8.012 E134.82865
G1 X3.917 Y-7.875 E134.85804
G1 X4.448 Y-7.731 E134.88549
G1 X4.98 Y-7.564 E134.91331
G1 X5.638 Y-7.329 E134.94817
G1 X6.141 Y-7.126 E134.97523
G1 X6.763 Y-6.847 E135.00924
G1 X7.274 Y-6.592 E135.03773
G1 X7.735 Y-6.339 E135.06397
G1 X8.184 Y-6.078 E135.08988
G1 X8.744 Y-5.72 E135.12304
G1 X9.174 Y-5.423 E135.14911
G1 X9.802 Y-4.946 E135.18845
G1 X10.229 Y-4.593 E135.2161
G1 X10.7 Y-4.17 E135.24768
G1 X11.177 Y-3.706 E135.28088
G1 X11.537 Y-3.326 E135.30699
G1 X11.891 Y-2.928 E135.33357
G1 X12.238 Y-2.511 E135.36063
G1 X12.559 Y-2.097 E135.38677
G1 X12.954 Y-1.545 E135.42063
G1 X13.242 Y-1.105 E135.44687
G1 X13.564 Y-.573 E135.47789
G1 X13.683 Y-.288 E135.4933
G1 X13.718 Y0.098 E135.51264
G1 X13.621 Y0.46 E135.53134
G1 X13.249 Y1.091 E135.56788
G1 X12.96 Y1.536 E135.59435
G1 X12.65 Y1.976 E135.6212
G1 X12.32 Y2.407 E135.64829
G1 X11.904 Y2.916 E135.68108
G1 X11.452 Y3.417 E135.71475
G1 X11.073 Y3.808 E135.74191
G1 X10.684 Y4.183 E135.76887
G1 X10.226 Y4.594 E135.79957
G1 X9.718 Y5.013 E135.83242
G1 X9.293 Y5.336 E135.85906
G1 X8.867 Y5.637 E135.88508
G1 X8.417 Y5.933 E135.91195
G1 X7.935 Y6.224 E135.94004
G1 X7.384 Y6.532 E135.97153
G1 X6.657 Y6.897 E136.01212
G1 X6.161 Y7.118 E136.03921
G1 X5.646 Y7.326 E136.06692
G1 X5.126 Y7.516 E136.09454
G1 X4.318 Y7.769 E136.13678
G1 X3.633 Y7.947 E136.17209
G1 X3.069 Y8.069 E136.20088
G1 X2.348 Y8.195 E136.2374
G1 X1.756 Y8.273 E136.26719
G1 X1.164 Y8.328 E136.29685
G1 X0.546 Y8.361 E136.32772
G1 X-0.072 Y8.369 E136.35856
G1 X-.698 Y8.351 E136.3898
G1 X-1.556 Y8.298 E136.43269
G1 X-2.788 Y8.214 E136.4943
G1 X-3.525 Y8.167 E136.53114
G1 X-9.274 Y7.786 E136.81859
G1 X-9.334 Y7.784 E136.82159
G1 X-17.098 Y7.276 E137.20976
G1 X-17.353 Y7.261 E137.2225
G1 X-20.244 Y7.071 E137.36705
G1 X-20.498 Y7.056 E137.37974
G1 X-21.806 Y6.969 E137.44514
G1 X-22.059 Y6.954 E137.45779
G1 X-24.551 Y6.79 E137.58238
G1 X-24.958 Y6.708 E137.6031
G1 X-25.328 Y6.523 E137.62373
G1 X-25.647 Y6.223 E137.64558
G1 X-25.857 Y5.854 E137.66676
G1 X-25.968 Y5.404 E137.68989
G1 X-25.982 Y5.193 E137.70044
G1 X-25.98 Y1.303 E137.89451
G1 X-25.98 Y0.728 E137.9232
G1 X-20.625 Y0.726 E138.19036
G1 X-20.625 Y-.725 E138.26275
G0 F7200 X-20.825 Y-.725
G0 X-20.824 Y-1.225
G0 X-19.835 Y-1.515
;TYPE:SKIN
G1 F1800 X-25.191 Y-1.517 E138.52996
G1 X-25.191 Y-5.157 E138.71156
G1 X-25.155 Y-5.443 E138.72594
G1 X-25.075 Y-5.644 E138.73674
G1 X-24.949 Y-5.806 E138.74698
G1 X-24.81 Y-5.904 E138.75546
G1 X-24.425 Y-6.006 E138.77533
G1 X-8.54 Y-7.043 E139.56952
G1 X-.672 Y-7.562 E139.96291
G1 X-0.071 Y-7.579 E139.99291
G1 X0.512 Y-7.57 E140.022
G1 X1.095 Y-7.54 E140.05112
G1 X1.784 Y-7.474 E140.08565
G1 X2.658 Y-7.344 E140.12974
G1 X3.161 Y-7.243 E140.15533
G1 X3.726 Y-7.108 E140.18432
G1 X4.211 Y-6.977 E140.20938
G1 X4.728 Y-6.815 E140.23641
G1 X5.348 Y-6.594 E140.26925
G1 X5.855 Y-6.39 E140.29651
G1 X6.415 Y-6.137 E140.32717
G1 X6.915 Y-5.888 E140.35504
G1 X7.315 Y-5.669 E140.37779
G1 X7.779 Y-5.399 E140.40457
G1 X8.34 Y-5.041 E140.43777
G1 X8.696 Y-4.794 E140.45939
G1 X9.324 Y-4.317 E140.49873
G1 X9.701 Y-4.005 E140.52315
G1 X10.182 Y-3.573 E140.5554
G1 X10.615 Y-3.15 E140.5856
G1 X10.955 Y-2.791 E140.61027
G1 X11.292 Y-2.412 E140.63557
G1 X11.614 Y-2.026 E140.66065
G1 X11.921 Y-1.631 E140.68561
G1 X12.293 Y-1.112 E140.71747
G1 X12.573 Y-.684 E140.74298
G1 X12.859 Y-.211 E140.77056
G1 X12.92 Y0.028 E140.78287
G1 X12.887 Y0.149 E140.78912
G1 X12.583 Y0.666 E140.81905
G1 X12.293 Y1.112 E140.84559
G1 X12.032 Y1.482 E140.86818
G1 X11.708 Y1.907 E140.89484
G1 X11.303 Y2.403 E140.92679
G1 X10.875 Y2.878 E140.95869
G1 X10.524 Y3.239 E140.98381
G1 X10.142 Y3.607 E141.01027
G1 X9.716 Y3.99 E141.03885
G1 X9.227 Y4.395 E141.07053
G1 X8.425 Y4.982 E141.12011
G1 X7.992 Y5.267 E141.14597
G1 X7.55 Y5.534 E141.17173
G1 X7.005 Y5.838 E141.20287
G1 X6.327 Y6.179 E141.24073
G1 X5.859 Y6.387 E141.26628
G1 X5.356 Y6.59 E141.29334
G1 X4.879 Y6.765 E141.31869
G1 X4.101 Y7.009 E141.35937
G1 X3.432 Y7.183 E141.39386
G1 X2.915 Y7.294 E141.42024
G1 X2.227 Y7.414 E141.45508
G1 X1.667 Y7.488 E141.48326
G1 X1.111 Y7.54 E141.51112
G1 X0.521 Y7.571 E141.5406
G1 X-0.06 Y7.579 E141.56959
G1 X-.663 Y7.561 E141.59968
G1 X-1.502 Y7.509 E141.64162
G1 X-2.735 Y7.425 E141.70328
G1 X-3.473 Y7.378 E141.74017
G1 X-9.236 Y6.996 E142.02832
G1 X-9.296 Y6.994 E142.03132
G1 X-17.049 Y6.487 E142.41894
G1 X-17.302 Y6.472 E142.43159
G1 X-24.453 Y6.005 E142.78911
G1 X-24.695 Y5.955 E142.80144
G1 X-24.873 Y5.867 E142.81135
G1 X-25.019 Y5.73 E142.82133
G1 X-25.113 Y5.565 E142.83081
G1 X-25.192 Y5.147 E142.85203
G1 X-25.19 Y1.518 E143.03308
G1 X-19.835 Y1.516 E143.30025
G1 X-19.835 Y-1.515 E143.45146
G0 F7200 X-20.197 Y1.154
G0 X-25.011 Y4.969
G1 F1800 X-24.136 Y5.844 E143.5132
G0 F7200 X-23.531 Y5.884
G1 F1800 X-25.011 Y4.403 E143.61766
G0 F7200 X-25.011 Y3.838
G1 F1800 X-22.926 Y5.923 E143.76476
G0 F7200 X-22.321 Y5.963
G1 F1800 X-25.011 Y3.273 E143.95456
G0 F7200 X-25.01 Y2.708
G1 F1800 X-21.715 Y6.002 E144.187
G0 F7200 X-21.11 Y6.042
G1 F1800 X-25.01 Y2.142 E144.46217
G0 F7200 X-24.889 Y1.697
G1 F1800 X-20.505 Y6.081 E144.77148
G0 F7200 X-19.9 Y6.121
G1 F1800 X-24.323 Y1.697 E145.08359
G0 F7200 X-23.758 Y1.697
G1 F1800 X-19.295 Y6.16 E145.39847
G0 F7200 X-18.69 Y6.199
G1 F1800 X-23.192 Y1.697 E145.71611
G0 F7200 X-22.626 Y1.697
G1 F1800 X-18.084 Y6.239 E146.03658
G0 F7200 X-17.479 Y6.279
G1 F1800 X-22.061 Y1.697 E146.35986
G0 F7200 X-21.496 Y1.697
G1 F1800 X-16.875 Y6.317 E146.68586
G0 F7200 X-16.27 Y6.356
G1 F1800 X-20.93 Y1.697 E147.01462
G0 F7200 X-20.364 Y1.697
G1 F1800 X-15.665 Y6.396 E147.34616
G0 F7200 X-15.059 Y6.436
G1 F1800 X-19.798 Y1.697 E147.68052
G0 F7200 X-19.654 Y1.276
G1 F1800 X-14.454 Y6.475 E148.04737
G0 F7200 X-13.849 Y6.515
G1 F1800 X-19.654 Y0.71 E148.45694
G0 F7200 X-19.654 Y0.144
G1 F1800 X-13.244 Y6.554 E148.90921
G0 F7200 X-12.638 Y6.594
G1 F1800 X-19.654 Y-.42 E149.40415
G0 F7200 X-19.654 Y-.986
G1 F1800 X-12.033 Y6.634 E149.94182
G0 F7200 X-11.428 Y6.673
G1 F1800 X-19.654 Y-1.552 E150.52217
G0 F7200 X-19.797 Y-1.695
G1 F1800 X-23.956 Y-5.854 E150.81561
G0 F7200 X-24.473 Y-5.806
G1 F1800 X-20.363 Y-1.695 E151.10563
G0 F7200 X-20.928 Y-1.695
G1 F1800 X-24.86 Y-5.627 E151.38305
G0 F7200 X-25.004 Y-5.205
G1 F1800 X-21.495 Y-1.696 E151.63063
G0 F7200 X-22.061 Y-1.696
G1 F1800 X-25.01 Y-4.645 E151.8387
G0 F7200 X-25.01 Y-4.08
G1 F1800 X-22.626 Y-1.696 E152.0069
G0 F7200 X-23.192 Y-1.696
G1 F1800 X-25.01 Y-3.514 E152.13517
G0 F7200 X-25.01 Y-2.948
G1 F1800 X-23.758 Y-1.697 E152.22347
G0 F7200 X-24.324 Y-1.697
G1 F1800 X-25.01 Y-2.382 E152.27184
G0 F7200 X-25.01 Y-1.817
G1 F1800 X-24.89 Y-1.697 E152.28031
G0 F7200 X-23.425 Y-5.889
G1 F1800 X-10.822 Y6.713 E153.16948
G0 F7200 X-10.217 Y6.752
G1 F1800 X-22.894 Y-5.924 E154.06388
G0 F7200 X-22.363 Y-5.958
G1 F1800 X-9.612 Y6.792 E154.96349
G0 F7200 X-9.008 Y6.83
G1 F1800 X-21.833 Y-5.994 E155.86833
G0 F7200 X-21.302 Y-6.028
G1 F1800 X-8.402 Y6.87 E156.77843
G0 F7200 X-7.797 Y6.91
G1 F1800 X-20.771 Y-6.063 E157.69378
G0 F7200 X-20.24 Y-6.098
G1 F1800 X-7.191 Y6.95 E158.61442
G0 F7200 X-6.585 Y6.99
G1 F1800 X-19.709 Y-6.132 E159.54032
G0 F7200 X-19.178 Y-6.167
G1 F1800 X-5.98 Y7.03 E160.47147
G0 F7200 X-5.374 Y7.071
G1 F1800 X-18.647 Y-6.202 E161.40795
G0 F7200 X-18.116 Y-6.236
G1 F1800 X-4.768 Y7.11 E162.34966
G0 F7200 X-4.162 Y7.15
G1 F1800 X-17.585 Y-6.271 E163.29665
G0 F7200 X-17.054 Y-6.305
G1 F1800 X-3.557 Y7.19 E164.24887
G0 F7200 X-2.952 Y7.229
G1 F1800 X-16.522 Y-6.34 E165.20627
G0 F7200 X-15.991 Y-6.375
G1 F1800 X-2.346 Y7.269 E166.16896
G0 F7200 X-1.74 Y7.31
G1 F1800 X-15.46 Y-6.409 E167.13695
G0 F7200 X-14.929 Y-6.444
G1 F1800 X-1.135 Y7.349 E168.11015
G0 F7200 X-.535 Y7.383
G1 F1800 X-14.398 Y-6.479 E169.08823
G0 F7200 X-13.867 Y-6.513
G1 F1800 X0.043 Y7.397 E170.06965
G0 F7200 X0.597 Y7.385
G1 F1800 X-13.336 Y-6.548 E171.0527
G0 F7200 X-12.805 Y-6.583
G1 F1800 X1.133 Y7.356 E172.03614
G0 F7200 X1.651 Y7.307
G1 F1800 X-12.274 Y-6.617 E173.01859
G0 F7200 X-11.743 Y-6.652
G1 F1800 X2.151 Y7.242 E173.99888
G0 F7200 X2.633 Y7.159
G1 F1800 X-11.212 Y-6.687 E174.97576
G0 F7200 X-10.681 Y-6.721
G1 F1800 X3.107 Y7.066 E175.94854
G0 F7200 X3.565 Y6.96
G1 F1800 X-10.151 Y-6.757 E176.91631
G0 F7200 X-9.62 Y-6.791
G1 F1800 X4.015 Y6.844 E177.87834
G0 F7200 X4.447 Y6.71
G1 F1800 X-9.089 Y-6.826 E178.83337
G0 F7200 X-8.558 Y-6.861
G1 F1800 X4.876 Y6.573 E179.78121
G0 F7200 X5.291 Y6.422
G1 F1800 X-8.027 Y-6.895 E180.72084
G0 F7200 X-7.496 Y-6.931
G1 F1800 X5.692 Y6.258 E181.65136
G0 F7200 X6.086 Y6.086
G1 F1800 X-6.965 Y-6.965 E182.57217
G0 F7200 X-6.434 Y-7
G1 F1800 X6.47 Y5.904 E183.48262
G0 F7200 X6.846 Y5.714
G1 F1800 X-5.904 Y-7.035 E184.38217
G0 F7200 X-5.373 Y-7.07
G1 F1800 X7.212 Y5.515 E185.27011
G0 F7200 X7.572 Y5.309
G1 F1800 X-4.842 Y-7.105 E186.14598
G0 F7200 X-4.311 Y-7.14
G1 F1800 X7.923 Y5.095 E187.00919
G0 F7200 X8.265 Y4.871
G1 F1800 X-3.781 Y-7.175 E187.8591
G0 F7200 X-3.25 Y-7.21
G1 F1800 X8.594 Y4.634 E188.69476
G0 F7200 X8.92 Y4.395
G1 F1800 X-2.72 Y-7.245 E189.51603
G0 F7200 X-2.189 Y-7.28
G1 F1800 X9.24 Y4.149 E190.3224
G0 F7200 X9.549 Y3.892
G1 F1800 X-1.658 Y-7.315 E191.11312
G0 F7200 X-1.127 Y-7.35
G1 F1800 X9.849 Y3.626 E191.88753
G0 F7200 X10.142 Y3.354
G1 F1800 X-.594 Y-7.382 E192.64502
G0 F7200 X-0.043 Y-7.397
G1 F1800 X10.43 Y3.076 E193.38394
G0 F7200 X10.709 Y2.79
G1 F1800 X0.532 Y-7.387 E194.10199
G0 F7200 X1.129 Y-7.355
G1 F1800 X10.978 Y2.493 E194.79685
G0 F7200 X11.242 Y2.192
G1 F1800 X1.755 Y-7.295 E195.46621
G0 F7200 X2.419 Y-7.196
G1 F1800 X11.497 Y1.88 E196.10664
G0 F7200 X11.744 Y1.561
G1 F1800 X3.114 Y-7.068 E196.7155
G0 F7200 X3.865 Y-6.882
G1 F1800 X11.984 Y1.236 E197.2883
G0 F7200 X12.215 Y0.901
G1 F1800 X4.67 Y-6.643 E197.82061
G1 X4.6 Y-6.713
G0 F7200 X5.569 Y-6.31
G1 F1800 X12.438 Y0.558 E198.30522
G0 F7200 X12.647 Y0.202
G1 F1800 X6.603 Y-5.841 E198.73162
G1 X6.533 Y-5.911
G0 F7200 X7.911 Y-5.099
G1 F1800 X12.418 Y-.592 E199.04961
G1 X12.488 Y-.522
;MESH:NONMESH
G0 F600 X12.488 Y-.522 Z1.2
G0 F7200 X-20.225 Y-1.434
;TIME_ELAPSED:143.806909
;LAYER:3
;TYPE:WALL-INNER
;MESH:benchy.stl
G1 F3600 X-25.724 Y-1.435 E199.32396
G1 X-25.724 Y-5.314 E199.51748
G1 X-25.68 Y-5.692 E199.53647
G1 X-25.548 Y-6.015 E199.55388
G1 X-25.373 Y-6.238 E199.56802
G1 X-25.109 Y-6.424 E199.58413
G1 X-24.627 Y-6.55 E199.60899
G1 X-6.478 Y-7.774 E200.5165
G1 X-.933 Y-8.156 E200.7938
G1 X-.29 Y-8.182 E200.8259
G1 X0.307 Y-8.182 E200.85569
G1 X0.926 Y-8.158 E200.88659
G1 X1.673 Y-8.098 E200.92398
G1 X2.265 Y-8.022 E200.95376
G1 X3.118 Y-7.874 E200.99695
G1 X3.651 Y-7.756 E201.02419
G1 X4.377 Y-7.567 E201.06161
G1 X5.175 Y-7.314 E201.10338
G1 X5.659 Y-7.135 E201.12912
G1 X6.33 Y-6.861 E201.16528
G1 X6.817 Y-6.637 E201.19203
G1 X7.476 Y-6.301 E201.22893
G1 X7.933 Y-6.045 E201.25506
G1 X8.402 Y-5.76 E201.28244
G1 X8.85 Y-5.467 E201.30915
G1 X9.243 Y-5.192 E201.33308
G1 X9.71 Y-4.842 E201.3622
G1 X10.183 Y-4.453 E201.39275
G1 X10.589 Y-4.095 E201.41976
G1 X11.064 Y-3.645 E201.4524
G1 X11.537 Y-3.154 E201.48641
G1 X11.89 Y-2.76 E201.51281
G1 X12.385 Y-2.157 E201.55173
G1 X12.714 Y-1.718 E201.5791
G1 X13.1 Y-1.162 E201.61287
G1 X13.44 Y-.62 E201.64479
G1 X13.651 Y-.218 E201.66744
G1 X13.687 Y0.029 E201.67989
G1 X13.658 Y0.199 E201.68849
G1 X13.365 Y0.744 E201.71936
G1 X12.97 Y1.356 E201.7557
G1 X12.574 Y1.91 E201.78968
G1 X12.161 Y2.438 E201.82312
G1 X11.811 Y2.85 E201.85009
G1 X11.455 Y3.242 E201.87651
G1 X11.072 Y3.636 E201.90392
G1 X10.606 Y4.082 E201.93611
G1 X10.214 Y4.427 E201.96216
G1 X9.752 Y4.804 E201.99191
G1 X9.297 Y5.152 E202.02049
G1 X8.817 Y5.491 E202.0498
G1 X8.418 Y5.751 E202.07356
G1 X7.923 Y6.051 E202.10244
G1 X7.472 Y6.304 E202.12824
G1 X6.954 Y6.571 E202.15731
G1 X6.478 Y6.795 E202.18356
G1 X5.833 Y7.07 E202.21854
G1 X5.18 Y7.312 E202.25328
G1 X4.665 Y7.48 E202.28031
G1 X3.964 Y7.68 E202.31668
G1 X3.411 Y7.813 E202.34505
G1 X2.86 Y7.924 E202.3731
G1 X2.121 Y8.043 E202.41044
G1 X1.542 Y8.11 E202.43952
G1 X0.938 Y8.157 E202.46974
G1 X0.369 Y8.179 E202.49815
G1 X-.449 Y8.179 E202.53896
G1 X-1.248 Y8.135 E202.57889
G1 X-2.704 Y8.033 E202.6517
G1 X-4.491 Y7.912 E202.74106
G1 X-5.02 Y7.874 E202.76752
G1 X-5.924 Y7.814 E202.81272
G1 X-6.466 Y7.775 E202.83983
G1 X-7.392 Y7.714 E202.88613
G1 X-9.446 Y7.573 E202.98885
G1 X-10.403 Y7.51 E203.03669
G1 X-20.354 Y6.838 E203.53428
G1 X-21.333 Y6.774 E203.58323
G1 X-21.916 Y6.733 E203.61239
G1 X-22.888 Y6.669 E203.66099
G1 X-23.909 Y6.598 E203.71205
G1 X-24.624 Y6.552 E203.74779
G1 X-24.975 Y6.482 E203.76565
G1 X-25.259 Y6.332 E203.78167
G1 X-25.472 Y6.127 E203.79642
G1 X-25.627 Y5.856 E203.812
G1 X-25.725 Y5.332 E203.83859
G1 X-25.723 Y1.435 E204.03301
G1 X-20.225 Y1.435 E204.30731
G1 X-20.225 Y-1.434 E204.45045
G0 F7200 X-20.625 Y-1.034
;TYPE:WALL-OUTER
G1 F1800 X-26.124 Y-1.035 E204.72479
G1 X-26.124 Y-5.334 E204.93927
G1 X-26.071 Y-5.792 E204.96227
G1 X-25.897 Y-6.218 E204.98523
G1 X-25.65 Y-6.532 E205.00516
G1 X-25.29 Y-6.785 E205.02711
G1 X-24.896 Y-6.919 E205.04788
G1 X-24.674 Y-6.948 E205.05905
G1 X-6.505 Y-8.173 E205.96756
G1 X-.949 Y-8.556 E206.24541
G1 X-.306 Y-8.582 E206.27751
G1 X0.322 Y-8.582 E206.30884
G1 X0.95 Y-8.558 E206.3402
G1 X1.711 Y-8.496 E206.37829
G1 X2.318 Y-8.419 E206.40881
G1 X3.204 Y-8.265 E206.45368
G1 X3.737 Y-8.147 E206.48092
G1 X4.484 Y-7.952 E206.51943
G1 X5.308 Y-7.691 E206.56255
G1 X5.798 Y-7.51 E206.58862
G1 X6.488 Y-7.228 E206.6258
G1 X6.999 Y-6.993 E206.65386
G1 X7.658 Y-6.657 E206.69077
G1 X8.141 Y-6.387 E206.71838
G1 X8.61 Y-6.102 E206.74576
G1 X9.069 Y-5.802 E206.77311
G1 X9.484 Y-5.512 E206.79837
G1 X9.95 Y-5.161 E206.82748
G1 X10.448 Y-4.753 E206.8596
G1 X10.854 Y-4.395 E206.8866
G1 X11.352 Y-3.923 E206.92083
G1 X11.825 Y-3.432 E206.95485
G1 X12.188 Y-3.027 E206.98198
G1 X12.705 Y-2.397 E207.02264
G1 X13.043 Y-1.946 E207.05076
G1 X13.439 Y-1.375 E207.08543
G1 X13.784 Y-.825 E207.11782
G1 X14.037 Y-.343 E207.14498
G1 X14.092 Y0.033 E207.16393
G1 X14.041 Y0.33 E207.17897
G1 X13.707 Y0.952 E207.21419
G1 X13.302 Y1.58 E207.25147
G1 X12.897 Y2.145 E207.28615
G1 X12.466 Y2.697 E207.32109
G1 X12.115 Y3.111 E207.34817
G1 X11.742 Y3.521 E207.37583
G1 X11.359 Y3.915 E207.40324
G1 X10.87 Y4.382 E207.43697
G1 X10.467 Y4.737 E207.46377
G1 X9.995 Y5.122 E207.49416
G1 X9.528 Y5.479 E207.52348
G1 X9.048 Y5.818 E207.5528
G1 X8.625 Y6.093 E207.57797
G1 X8.119 Y6.4 E207.6075
G1 X7.661 Y6.657 E207.6337
G1 X7.137 Y6.927 E207.66311
G1 X6.635 Y7.163 E207.69078
G1 X5.984 Y7.44 E207.72608
G1 X5.317 Y7.688 E207.76158
G1 X4.775 Y7.865 E207.79003
G1 X4.074 Y8.065 E207.8264
G1 X3.499 Y8.203 E207.8559
G1 X2.924 Y8.319 E207.88516
G1 X2.185 Y8.438 E207.92251
G1 X1.573 Y8.509 E207.95324
G1 X0.959 Y8.557 E207.98397
G1 X0.384 Y8.579 E208.01268
G1 X-.453 Y8.579 E208.05444
G1 X-1.214 Y8.537 E208.09246
G1 X-1.264 Y8.535 E208.09496
G1 X-2.732 Y8.432 E208.16838
G1 X-4.519 Y8.311 E208.25773
G1 X-5.047 Y8.273 E208.28414
G1 X-5.953 Y8.213 E208.32944
G1 X-6.494 Y8.174 E208.3565
G1 X-7.419 Y8.113 E208.40275
G1 X-9.473 Y7.972 E208.50547
G1 X-10.429 Y7.909 E208.55327
G1 X-12.542 Y7.765 E208.65893
G1 X-20.38 Y7.237 E209.05085
G1 X-21.361 Y7.173 E209.0999
G1 X-21.943 Y7.132 E209.12901
G1 X-22.916 Y7.068 E209.17766
G1 X-23.936 Y6.997 E209.22867
G1 X-24.675 Y6.949 E209.26562
G1 X-25.112 Y6.862 E209.28784
G1 X-25.495 Y6.66 E209.30945
G1 X-25.79 Y6.377 E209.32984
G1 X-26.002 Y6.007 E209.35112
G1 X-26.111 Y5.577 E209.37325
G1 X-26.125 Y5.332 E209.38549
G1 X-26.123 Y1.035 E209.59987
G1 X-20.625 Y1.035 E209.87417
G1 X-20.625 Y-1.034 E209.97739
G0 F7200 X-20.825 Y-1.034
G0 X-20.824 Y-1.534
G0 X-19.835 Y-1.824
;TYPE:SKIN
G1 F1800 X-25.334 Y-1.825 E210.25174
G1 X-25.334 Y-5.29 E210.4246
G1 X-25.298 Y-5.596 E210.43998
G1 X-25.206 Y-5.821 E210.4521
G1 X-25.101 Y-5.954 E210.46056
G1 X-24.944 Y-6.064 E210.47012
G1 X-24.57 Y-6.162 E210.48941
G1 X-6.452 Y-7.384 E211.39538
G1 X-.907 Y-7.766 E211.67267
G1 X-.274 Y-7.792 E211.70428
G1 X0.292 Y-7.792 E211.73252
G1 X0.911 Y-7.768 E211.76342
G1 X1.636 Y-7.71 E211.79971
G1 X2.199 Y-7.638 E211.82803
G1 X3.043 Y-7.491 E211.87077
G1 X3.541 Y-7.381 E211.89621
G1 X4.276 Y-7.19 E211.9341
G1 X5.04 Y-6.948 E211.97408
G1 X5.518 Y-6.771 E211.99951
G1 X6.167 Y-6.506 E212.03448
G1 X6.654 Y-6.282 E212.06123
G1 X7.292 Y-5.957 E212.09695
G1 X7.736 Y-5.708 E212.12235
G1 X8.22 Y-5.414 E212.1506
G1 X8.604 Y-5.163 E212.17349
G1 X9.019 Y-4.872 E212.19877
G1 X9.469 Y-4.535 E212.22682
G1 X9.93 Y-4.156 E212.2566
G1 X10.32 Y-3.812 E212.28254
G1 X10.783 Y-3.374 E212.31434
G1 X11.251 Y-2.888 E212.348
G1 X11.588 Y-2.512 E212.37319
G1 X12.083 Y-1.909 E212.41211
G1 X12.398 Y-1.49 E212.43826
G1 X12.775 Y-.947 E212.47124
G1 X13.102 Y-.426 E212.50193
G1 X13.275 Y-0.097 E212.52048
G1 X13.284 Y0.071 E212.52887
G1 X13.031 Y0.542 E212.55554
G1 X12.652 Y1.13 E212.59045
G1 X12.266 Y1.67 E212.62356
G1 X11.84 Y2.214 E212.65803
G1 X11.522 Y2.588 E212.68252
G1 X11.172 Y2.976 E212.70859
G1 X10.803 Y3.355 E212.73498
G1 X10.348 Y3.789 E212.76635
G1 X9.962 Y4.13 E212.79205
G1 X9.515 Y4.494 E212.82081
G1 X9.045 Y4.853 E212.85032
G1 X8.618 Y5.155 E212.87641
G1 X8.21 Y5.421 E212.90071
G1 X7.726 Y5.714 E212.92894
G1 X7.287 Y5.96 E212.95404
G1 X6.781 Y6.221 E212.98245
G1 X6.318 Y6.439 E213.00798
G1 X5.701 Y6.702 E213.04144
G1 X5.038 Y6.948 E213.07672
G1 X4.544 Y7.109 E213.10264
G1 X3.861 Y7.304 E213.13808
G1 X3.328 Y7.432 E213.16543
G1 X2.791 Y7.54 E213.19275
G1 X2.08 Y7.655 E213.22869
G1 X1.47 Y7.726 E213.25933
G1 X0.923 Y7.767 E213.28669
G1 X0.354 Y7.789 E213.3151
G1 X-.428 Y7.789 E213.35411
G1 X-1.221 Y7.745 E213.39374
G1 X-2.677 Y7.643 E213.46656
G1 X-4.464 Y7.522 E213.55591
G1 X-4.993 Y7.484 E213.58237
G1 X-5.897 Y7.424 E213.62757
G1 X-6.439 Y7.385 E213.65468
G1 X-7.365 Y7.324 E213.70098
G1 X-9.419 Y7.183 E213.8037
G1 X-10.376 Y7.12 E213.85155
G1 X-20.327 Y6.448 E214.34914
G1 X-21.306 Y6.384 E214.39808
G1 X-21.889 Y6.343 E214.42724
G1 X-22.861 Y6.279 E214.47584
G1 X-23.883 Y6.208 E214.52695
G1 X-24.583 Y6.163 E214.56194
G1 X-24.841 Y6.112 E214.57506
G1 X-25.027 Y6.014 E214.58555
G1 X-25.16 Y5.885 E214.5948
G1 X-25.255 Y5.72 E214.6043
G1 X-25.335 Y5.292 E214.62602
G1 X-25.333 Y1.825 E214.79899
G1 X-19.835 Y1.825 E215.07328
G1 X-19.835 Y-1.824 E215.25533
G0 F7200 X-24.571 Y-5.975
G1 F1800 X-25.137 Y-5.409 E215.29527
G0 F7200 X-25.153 Y-4.828
G1 F1800 X-23.958 Y-6.022 E215.37955
G0 F7200 X-23.352 Y-6.063
G1 F1800 X-25.153 Y-4.262 E215.50662
G0 F7200 X-25.153 Y-3.696
G1 F1800 X-22.745 Y-6.104 E215.67651
G0 F7200 X-22.138 Y-6.145
G1 F1800 X-25.153 Y-3.131 E215.8892
G0 F7200 X-25.153 Y-2.565
G1 F1800 X-21.532 Y-6.186 E216.14469
G0 F7200 X-20.926 Y-6.226
G1 F1800 X-25.148 Y-2.004 E216.44257
G0 F7200 X-24.582 Y-2.004
G1 F1800 X-20.319 Y-6.267 E216.74335
G0 F7200 X-19.712 Y-6.308
G1 F1800 X-24.016 Y-2.004 E217.04702
G0 F7200 X-23.451 Y-2.004
G1 F1800 X-19.106 Y-6.349 E217.35358
G0 F7200 X-18.499 Y-6.39
G1 F1800 X-22.885 Y-2.004 E217.66304
G0 F7200 X-22.32 Y-2.003
G1 F1800 X-17.892 Y-6.431 E217.97546
G0 F7200 X-17.286 Y-6.472
G1 F1800 X-21.754 Y-2.003 E218.29073
G0 F7200 X-21.189 Y-2.003
G1 F1800 X-16.679 Y-6.513 E218.60894
G0 F7200 X-16.073 Y-6.554
G1 F1800 X-20.623 Y-2.003 E218.93
G0 F7200 X-20.057 Y-2.003
G1 F1800 X-15.466 Y-6.595 E219.25396
G0 F7200 X-14.859 Y-6.636
G1 F1800 X-19.654 Y-1.842 E219.59223
G0 F7200 X-19.654 Y-1.276
G1 F1800 X-14.253 Y-6.677 E219.9733
G0 F7200 X-13.647 Y-6.717
G1 F1800 X-19.654 Y-.71 E220.39713
G0 F7200 X-19.654 Y-.144
G1 F1800 X-13.04 Y-6.758 E220.86378
G0 F7200 X-12.433 Y-6.799
G1 F1800 X-19.654 Y0.42 E221.37319
G0 F7200 X-19.654 Y0.986
G1 F1800 X-11.827 Y-6.84 E221.92539
G0 F7200 X-11.22 Y-6.881
G1 F1800 X-19.654 Y1.552 E222.52042
G0 F7200 X-20.106 Y2.004
G1 F1800 X-24.114 Y6.012 E222.80321
G0 F7200 X-24.637 Y5.969
G1 F1800 X-20.672 Y2.004 E223.08296
G0 F7200 X-21.237 Y2.004
G1 F1800 X-25.011 Y5.777 E223.3492
G0 F7200 X-25.14 Y5.341
G1 F1800 X-21.803 Y2.004 E223.58465
G0 F7200 X-22.369 Y2.004
G1 F1800 X-25.153 Y4.788 E223.78107
G0 F7200 X-25.153 Y4.222
G1 F1800 X-22.935 Y2.004 E223.93756
G0 F7200 X-23.5 Y2.004
G1 F1800 X-25.153 Y3.657 E224.05419
G0 F7200 X-25.152 Y3.09
G1 F1800 X-24.066 Y2.004 E224.13082
G0 F7200 X-24.632 Y2.004
G1 F1800 X-25.152 Y2.525 E224.16754
G0 F7200 X-23.584 Y6.047
G1 F1800 X-10.613 Y-6.922 E225.08264
G0 F7200 X-10.007 Y-6.962
G1 F1800 X-23.055 Y6.084 E226.00318
G0 F7200 X-22.525 Y6.12
G1 F1800 X-9.4 Y-7.003 E226.92915
G0 F7200 X-8.794 Y-7.044
G1 F1800 X-21.994 Y6.155 E227.86044
G0 F7200 X-21.465 Y6.192
G1 F1800 X-8.187 Y-7.085 E228.79724
G0 F7200 X-7.58 Y-7.126
G1 F1800 X-20.935 Y6.227 E229.73944
G0 F7200 X-20.404 Y6.262
G1 F1800 X-6.974 Y-7.167 E230.68696
G0 F7200 X-6.368 Y-7.208
G1 F1800 X-19.874 Y6.298 E231.63989
G0 F7200 X-19.344 Y6.333
G1 F1800 X-5.76 Y-7.25 E232.59828
G0 F7200 X-5.152 Y-7.292
G1 F1800 X-18.814 Y6.369 E233.56217
G0 F7200 X-18.284 Y6.404
G1 F1800 X-4.545 Y-7.334 E234.53149
G0 F7200 X-3.937 Y-7.375
G1 F1800 X-17.754 Y6.441 E235.50632
G0 F7200 X-17.225 Y6.477
G1 F1800 X-3.33 Y-7.417 E236.48665
G0 F7200 X-2.723 Y-7.459
G1 F1800 X-16.694 Y6.512 E237.47238
G0 F7200 X-16.165 Y6.548
G1 F1800 X-2.114 Y-7.501 E238.46369
G0 F7200 X-1.507 Y-7.543
G1 F1800 X-15.635 Y6.584 E239.46046
G0 F7200 X-15.105 Y6.619
G1 F1800 X-.9 Y-7.585 E240.46266
G0 F7200 X-.309 Y-7.609
G1 F1800 X-14.575 Y6.655 E241.46914
G0 F7200 X-14.045 Y6.692
G1 F1800 X0.257 Y-7.611 E242.47825
G0 F7200 X0.803 Y-7.591
G1 F1800 X-13.515 Y6.727 E243.48847
G0 F7200 X-12.986 Y6.763
G1 F1800 X1.331 Y-7.554 E244.49861
G0 F7200 X1.844 Y-7.501
G1 F1800 X-12.455 Y6.798 E245.50748
G0 F7200 X-11.926 Y6.834
G1 F1800 X2.339 Y-7.43 E246.51392
G0 F7200 X2.821 Y-7.346
G1 F1800 X-11.396 Y6.87 E247.51697
G0 F7200 X-10.866 Y6.906
G1 F1800 X3.292 Y-7.252 E248.51589
G0 F7200 X3.746 Y-7.14
G1 F1800 X-10.336 Y6.942 E249.50945
G0 F7200 X-9.805 Y6.977
G1 F1800 X4.195 Y-7.024 E250.49726
G0 F7200 X4.626 Y-6.889
G1 F1800 X-9.274 Y7.011 E251.47798
G0 F7200 X-8.745 Y7.048
G1 F1800 X5.053 Y-6.75 E252.45151
G0 F7200 X5.466 Y-6.598
G1 F1800 X-8.215 Y7.084 E253.41681
G0 F7200 X-7.686 Y7.121
G1 F1800 X5.868 Y-6.433 E254.37312
G0 F7200 X6.263 Y-6.263
G1 F1800 X-7.156 Y7.156 E255.3199
G0 F7200 X-6.625 Y7.191
G1 F1800 X6.648 Y-6.082 E256.25638
G0 F7200 X7.023 Y-5.892
G1 F1800 X-6.096 Y7.228 E257.18203
G0 F7200 X-5.567 Y7.264
G1 F1800 X7.392 Y-5.695 E258.09636
G0 F7200 X7.75 Y-5.487
G1 F1800 X-5.037 Y7.3 E258.99855
G0 F7200 X-4.509 Y7.337
G1 F1800 X8.102 Y-5.274 E259.88833
G0 F7200 X8.446 Y-5.052
G1 F1800 X-3.979 Y7.373 E260.76498
G0 F7200 X-3.449 Y7.409
G1 F1800 X8.779 Y-4.819 E261.62773
G0 F7200 X9.106 Y-4.581
G1 F1800 X-2.919 Y7.445 E262.47619
G0 F7200 X-2.39 Y7.481
G1 F1800 X9.427 Y-4.336 E263.30995
G0 F7200 X9.737 Y-4.08
G1 F1800 X-1.861 Y7.518 E264.12825
G0 F7200 X-1.333 Y7.556
G1 F1800 X10.04 Y-3.818 E264.93071
G0 F7200 X10.337 Y-3.548
G1 F1800 X-.799 Y7.587 E265.71638
G0 F7200 X-.254 Y7.608
G1 F1800 X10.627 Y-3.273 E266.48409
G0 F7200 X10.905 Y-2.985
G1 F1800 X0.311 Y7.608 E267.23152
G0 F7200 X0.898 Y7.587
G1 F1800 X11.18 Y-2.694 E267.95694
G0 F7200 X11.447 Y-2.396
G1 F1800 X1.511 Y7.539 E268.65794
G0 F7200 X2.155 Y7.461
G1 F1800 X11.702 Y-2.085 E269.3315
G0 F7200 X11.957 Y-1.774
G1 F1800 X2.834 Y7.347 E269.9751
G0 F7200 X3.556 Y7.191
G1 F1800 X12.2 Y-1.452 E270.58495
G0 F7200 X12.434 Y-1.12
G1 F1800 X4.331 Y6.982 E271.15663
G1 X4.261 Y7.052
G0 F7200 X5.176 Y6.703
G1 F1800 X12.663 Y-.784 E271.68487
G0 F7200 X12.881 Y-.436
G1 F1800 X6.115 Y6.33 E272.16225
G1 X6.045 Y6.4
G0 F7200 X7.22 Y5.79
G1 F1800 X13.082 Y-0.072 E272.57585
G1 X13.152 Y-.142
G0 F7200 X12.387 Y1.188
G1 F1800 X8.698 Y4.878 E272.83616
G1 X8.628 Y4.948
;MESH:NONMESH
G0 F600 X8.628 Y4.948 Z1.5
G0 F7200 X-20.225 Y-1.567
;TIME_ELAPSED:193.787654
;LAYER:4
;TYPE:WALL-INNER
;MESH:benchy.stl
G1 F3600 X-25.865 Y-1.568 E273.11754
G1 X-25.866 Y-5.469 E273.31216
G1 X-25.819 Y-5.862 E273.33191
G1 X-25.697 Y-6.161 E273.34802
G1 X-25.507 Y-6.402 E273.36333
G1 X-25.262 Y-6.575 E273.3783
G1 X-24.784 Y-6.705 E273.40301
G1 X-5.152 Y-8.073 E274.38483
G1 X-1.014 Y-8.369 E274.5918
G1 X-.205 Y-8.399 E274.63219
G1 X0.57 Y-8.391 E274.67086
G1 X1.491 Y-8.333 E274.7169
G1 X2.232 Y-8.247 E274.75411
G1 X2.841 Y-8.149 E274.78489
G1 X3.552 Y-8.006 E274.82107
G1 X4.417 Y-7.786 E274.8656
G1 X4.956 Y-7.624 E274.89368
G1 X5.639 Y-7.386 E274.92976
G1 X6.31 Y-7.121 E274.96576
G1 X6.812 Y-6.899 E274.99314
G1 X7.501 Y-6.558 E275.03149
G1 X7.995 Y-6.288 E275.05958
G1 X8.662 Y-5.887 E275.09841
G1 X9.214 Y-5.521 E275.13145
G1 X9.794 Y-5.1 E275.16721
G1 X10.323 Y-4.68 E275.20091
G1 X10.944 Y-4.138 E275.24203
G1 X11.333 Y-3.766 E275.26888
G1 X11.821 Y-3.263 E275.30385
G1 X12.16 Y-2.885 E275.32918
G1 X12.545 Y-2.429 E275.35895
G1 X12.879 Y-2.002 E275.386
G1 X13.126 Y-1.663 E275.40692
G1 X13.419 Y-1.24 E275.4326
G1 X13.827 Y-.595 E275.47067
G1 X14.004 Y-.269 E275.48918
G1 X14.054 Y-0.014 E275.50214
G1 X14.02 Y0.211 E275.5135
G1 X13.679 Y0.835 E275.54897
G1 X13.384 Y1.29 E275.57603
G1 X13.061 Y1.755 E275.60427
G1 X12.647 Y2.3 E275.63842
G1 X12.314 Y2.705 E275.66458
G1 X11.73 Y3.36 E275.70836
G1 X11.361 Y3.738 E275.73471
G1 X10.877 Y4.196 E275.76796
G1 X10.457 Y4.564 E275.79582
G1 X10.002 Y4.942 E275.82533
G1 X9.576 Y5.265 E275.852
G1 X9.008 Y5.662 E275.88657
G1 X8.545 Y5.96 E275.91404
G1 X7.881 Y6.353 E275.95254
G1 X7.402 Y6.609 E275.97963
G1 X6.56 Y7.012 E276.0262
G1 X6.048 Y7.229 E276.05395
G1 X5.375 Y7.483 E276.08984
G1 X4.846 Y7.659 E276.11765
G1 X4.364 Y7.799 E276.14269
G1 X3.855 Y7.935 E276.16898
G1 X3.136 Y8.093 E276.2057
G1 X2.543 Y8.2 E276.23577
G1 X1.959 Y8.282 E276.26519
G1 X1.059 Y8.366 E276.31028
G1 X0.262 Y8.399 E276.35008
G1 X-.347 Y8.397 E276.38046
G1 X-1.002 Y8.369 E276.41317
G1 X-8.219 Y7.858 E276.77413
G1 X-18.779 Y7.122 E277.30225
G1 X-19.067 Y7.104 E277.31664
G1 X-23.611 Y6.788 E277.54389
G1 X-23.726 Y6.782 E277.54964
G1 X-24.762 Y6.708 E277.60146
G1 X-25.123 Y6.634 E277.61984
G1 X-25.393 Y6.495 E277.63499
G1 X-25.617 Y6.281 E277.65045
G1 X-25.769 Y6.008 E277.66604
G1 X-25.867 Y5.488 E277.69244
G1 X-25.865 Y4.061 E277.76363
G1 X-25.866 Y1.569 E277.88796
G1 X-24.226 Y1.567 E277.96978
G1 X-20.225 Y1.568 E278.16939
G1 X-20.225 Y-1.567 E278.32579
G0 F7200 X-20.625 Y-1.167
;TYPE:WALL-OUTER
G1 F1800 X-26.265 Y-1.168 E278.60717
G1 X-26.266 Y-5.492 E278.8229
G1 X-26.209 Y-5.964 E278.84662
G1 X-26.047 Y-6.364 E278.86815
G1 X-25.786 Y-6.695 E278.88918
G1 X-25.445 Y-6.935 E278.90998
G1 X-25.049 Y-7.073 E278.9309
G1 X-24.817 Y-7.104 E278.94258
G1 X-8.116 Y-8.266 E279.77781
G1 X-5.18 Y-8.472 E279.92465
G1 X-1.029 Y-8.769 E280.13227
G1 X-.216 Y-8.799 E280.17286
G1 X0.58 Y-8.791 E280.21258
G1 X1.524 Y-8.731 E280.25977
G1 X2.296 Y-8.642 E280.29854
G1 X2.905 Y-8.544 E280.32931
G1 X3.651 Y-8.394 E280.36727
G1 X4.516 Y-8.174 E280.4118
G1 X5.083 Y-8.003 E280.44135
G1 X5.777 Y-7.762 E280.478
G1 X6.457 Y-7.493 E280.51449
G1 X6.981 Y-7.262 E280.54306
G1 X7.693 Y-6.909 E280.5827
G1 X8.195 Y-6.635 E280.61124
G1 X8.868 Y-6.23 E280.65042
G1 X9.449 Y-5.845 E280.6852
G1 X10.029 Y-5.424 E280.72095
G1 X10.572 Y-4.993 E280.75554
G1 X11.207 Y-4.439 E280.79758
G1 X11.62 Y-4.045 E280.82606
G1 X12.108 Y-3.542 E280.86102
G1 X12.466 Y-3.143 E280.88777
G1 X12.851 Y-2.687 E280.91754
G1 X13.202 Y-2.238 E280.94597
G1 X13.455 Y-1.891 E280.9674
G1 X13.748 Y-1.468 E280.99307
G1 X14.172 Y-.796 E281.03271
G1 X14.384 Y-.407 E281.05481
G1 X14.46 Y-0.021 E281.07444
G1 X14.406 Y0.34 E281.09265
G1 X14.023 Y1.039 E281.13242
G1 X13.713 Y1.518 E281.16088
G1 X13.39 Y1.983 E281.18913
G1 X12.956 Y2.554 E281.22491
G1 X12.613 Y2.971 E281.25185
G1 X12.029 Y3.626 E281.29563
G1 X11.636 Y4.029 E281.32371
G1 X11.141 Y4.497 E281.3577
G1 X10.721 Y4.865 E281.38556
G1 X10.255 Y5.251 E281.41575
G1 X9.805 Y5.593 E281.44395
G1 X9.232 Y5.993 E281.47881
G1 X8.756 Y6.3 E281.50707
G1 X8.077 Y6.702 E281.54643
G1 X7.575 Y6.97 E281.57483
G1 X6.733 Y7.373 E281.6214
G1 X6.197 Y7.6 E281.65044
G1 X5.516 Y7.857 E281.68675
G1 X4.958 Y8.043 E281.7161
G1 X4.467 Y8.186 E281.74161
G1 X3.953 Y8.323 E281.76815
G1 X3.215 Y8.486 E281.80585
G1 X2.614 Y8.594 E281.83632
G1 X2.007 Y8.679 E281.8669
G1 X1.076 Y8.766 E281.91355
G1 X0.278 Y8.799 E281.95339
G1 X-.364 Y8.797 E281.98542
G1 X-1.019 Y8.769 E282.01813
G1 X-6.763 Y8.362 E282.30542
G1 X-8.247 Y8.257 E282.37964
G1 X-18.806 Y7.521 E282.90771
G1 X-19.095 Y7.503 E282.92216
G1 X-23.634 Y7.187 E283.14916
G1 X-23.744 Y7.182 E283.15465
G1 X-24.819 Y7.105 E283.20842
G1 X-25.257 Y7.015 E283.23073
G1 X-25.625 Y6.826 E283.25137
G1 X-25.937 Y6.528 E283.27289
G1 X-26.145 Y6.155 E283.2942
G1 X-26.253 Y5.731 E283.31603
G1 X-26.267 Y5.487 E283.32822
G1 X-26.265 Y4.06 E283.39941
G1 X-26.266 Y1.777 E283.51331
G1 X-26.265 Y1.169 E283.54365
G1 X-24.226 Y1.167 E283.64537
G1 X-20.625 Y1.168 E283.82503
G1 X-20.625 Y-1.167 E283.94152
G0 F7200 X-20.825 Y-1.167
G0 X-20.824 Y-1.667
G0 X-19.835 Y-1.957
;TYPE:SKIN
G1 F1800 X-25.475 Y-1.958 E284.2229
G1 X-25.476 Y-5.438 E284.39652
G1 X-25.437 Y-5.766 E284.413
G1 X-25.357 Y-5.963 E284.42361
G1 X-25.235 Y-6.118 E284.43345
G1 X-25.094 Y-6.217 E284.44204
G1 X-24.726 Y-6.317 E284.46107
G1 X-5.125 Y-7.683 E285.44134
G1 X-.987 Y-7.979 E285.64831
G1 X-.195 Y-8.009 E285.68785
G1 X0.545 Y-8.001 E285.72477
G1 X1.46 Y-7.943 E285.77052
G1 X2.193 Y-7.859 E285.80732
G1 X2.772 Y-7.766 E285.83658
G1 X3.456 Y-7.628 E285.87139
G1 X4.304 Y-7.412 E285.91505
G1 X4.843 Y-7.251 E285.94312
G1 X5.503 Y-7.02 E285.978
G1 X6.159 Y-6.761 E286.01319
G1 X6.654 Y-6.542 E286.04019
G1 X7.321 Y-6.212 E286.07732
G1 X7.794 Y-5.954 E286.1042
G1 X8.438 Y-5.567 E286.14168
G1 X8.991 Y-5.2 E286.1748
G1 X9.558 Y-4.789 E286.20973
G1 X10.073 Y-4.38 E286.24255
G1 X10.687 Y-3.844 E286.28321
G1 X11.053 Y-3.495 E286.30844
G1 X11.531 Y-3.002 E286.3427
G1 X11.862 Y-2.633 E286.36743
G1 X12.237 Y-2.189 E286.39642
G1 X12.563 Y-1.772 E286.42283
G1 X13.09 Y-1.031 E286.46819
G1 X13.497 Y-.386 E286.50624
G1 X13.634 Y-.134 E286.52055
G1 X13.644 Y0.083 E286.53139
G1 X13.338 Y0.644 E286.56327
G1 X13.06 Y1.073 E286.58878
G1 X12.751 Y1.519 E286.61585
G1 X12.346 Y2.052 E286.64924
G1 X12.018 Y2.451 E286.67501
G1 X11.451 Y3.087 E286.71752
G1 X11.087 Y3.46 E286.74352
G1 X10.614 Y3.908 E286.77603
G1 X10.204 Y4.267 E286.80321
G1 X9.759 Y4.637 E286.83209
G1 X9.352 Y4.945 E286.85755
G1 X8.79 Y5.338 E286.89177
G1 X8.346 Y5.624 E286.91811
G1 X7.689 Y6.013 E286.95621
G1 X7.221 Y6.264 E286.9827
G1 X6.408 Y6.653 E287.02767
G1 X5.91 Y6.864 E287.05465
G1 X5.245 Y7.115 E287.09011
G1 X4.721 Y7.289 E287.11766
G1 X4.259 Y7.423 E287.14166
G1 X3.759 Y7.557 E287.16748
G1 X3.059 Y7.71 E287.20323
G1 X2.473 Y7.816 E287.23294
G1 X1.91 Y7.896 E287.26131
G1 X1.043 Y7.976 E287.30475
G1 X0.248 Y8.009 E287.34444
G1 X-.33 Y8.007 E287.37328
G1 X-.975 Y7.979 E287.40549
G1 X-8.192 Y7.468 E287.76645
G1 X-18.753 Y6.732 E288.29462
G1 X-19.04 Y6.714 E288.30897
G1 X-23.588 Y6.398 E288.53641
G1 X-23.736 Y6.391 E288.5438
G1 X-24.71 Y6.32 E288.59253
G1 X-24.99 Y6.263 E288.60678
G1 X-25.166 Y6.173 E288.61664
G1 X-25.304 Y6.041 E288.62617
G1 X-25.397 Y5.874 E288.63571
G1 X-25.477 Y5.448 E288.65733
G1 X-25.475 Y4.061 E288.72653
G1 X-25.476 Y1.959 E288.8314
G1 X-24.226 Y1.957 E288.89376
G1 X-19.835 Y1.958 E289.11283
G1 X-19.835 Y-1.957 E289.30815
G0 F7200 X-20.197 Y1.596
G0 X-25.296 Y5.25
G1 F1800 X-24.383 Y6.163 E289.37257
G0 F7200 X-23.772 Y6.209
G1 F1800 X-25.295 Y4.685 E289.48006
G0 F7200 X-25.294 Y4.121
G1 F1800 X-23.169 Y6.246 E289.62999
G0 F7200 X-22.561 Y6.288
G1 F1800 X-25.294 Y3.555 E289.82282
G0 F7200 X-25.295 Y2.988
G1 F1800 X-21.953 Y6.33 E290.05861
G0 F7200 X-21.345 Y6.373
G1 F1800 X-25.295 Y2.423 E290.33731
G0 F7200 X-25.013 Y2.138
G1 F1800 X-20.738 Y6.414 E290.63897
G0 F7200 X-20.129 Y6.457
G1 F1800 X-24.449 Y2.137 E290.94377
G0 F7200 X-23.883 Y2.137
G1 F1800 X-19.521 Y6.499 E291.25153
G0 F7200 X-18.915 Y6.54
G1 F1800 X-23.318 Y2.137 E291.56218
G0 F7200 X-22.752 Y2.137
G1 F1800 X-18.308 Y6.581 E291.87573
G0 F7200 X-17.7 Y6.624
G1 F1800 X-22.186 Y2.137 E292.19228
G0 F7200 X-21.621 Y2.137
G1 F1800 X-17.092 Y6.666 E292.51182
G0 F7200 X-16.484 Y6.709
G1 F1800 X-21.055 Y2.137 E292.83437
G0 F7200 X-20.489 Y2.137
G1 F1800 X-15.875 Y6.751 E293.15991
G0 F7200 X-15.268 Y6.793
G1 F1800 X-19.924 Y2.137 E293.48842
G0 F7200 X-19.654 Y1.841
G1 F1800 X-14.66 Y6.835 E293.84077
G0 F7200 X-14.052 Y6.878
G1 F1800 X-19.654 Y1.275 E294.23606
G0 F7200 X-19.654 Y0.709
G1 F1800 X-13.444 Y6.92 E294.67424
G0 F7200 X-12.836 Y6.962
G1 F1800 X-19.654 Y0.144 E295.15529
G0 F7200 X-19.654 Y-.421
G1 F1800 X-12.227 Y7.005 E295.67927
G0 F7200 X-11.619 Y7.047
G1 F1800 X-19.654 Y-.987 E296.24615
G0 F7200 X-19.654 Y-1.552
G1 F1800 X-11.012 Y7.089 E296.85585
G0 F7200 X-10.404 Y7.131
G1 F1800 X-19.654 Y-2.118 E297.50845
G1 X-19.673 Y-2.137
G1 X-23.741 Y-6.204 E297.79544
G0 F7200 X-24.27 Y-6.168
G1 F1800 X-20.239 Y-2.137 E298.07985
G0 F7200 X-20.805 Y-2.137
G1 F1800 X-24.782 Y-6.115 E298.36048
G0 F7200 X-25.157 Y-5.924
G1 F1800 X-21.37 Y-2.137 E298.62767
G0 F7200 X-21.936 Y-2.137
G1 F1800 X-25.288 Y-5.489 E298.86417
G0 F7200 X-25.295 Y-4.93
G1 F1800 X-22.502 Y-2.138 E299.0612
G0 F7200 X-23.068 Y-2.138
G1 F1800 X-25.295 Y-4.364 E299.21829
G0 F7200 X-25.295 Y-3.799
G1 F1800 X-23.634 Y-2.138 E299.33548
G0 F7200 X-24.2 Y-2.138
G1 F1800 X-25.295 Y-3.233 E299.41274
G0 F7200 X-25.295 Y-2.667
G1 F1800 X-24.765 Y-2.138 E299.4501
G0 F7200 X-23.212 Y-6.241
G1 F1800 X-9.796 Y7.174 E300.39664
G0 F7200 X-9.188 Y7.216
G1 F1800 X-22.683 Y-6.278 E301.34875
G0 F7200 X-22.154 Y-6.315
G1 F1800 X-8.58 Y7.259 E302.30647
G0 F7200 X-7.971 Y7.301
G1 F1800 X-21.625 Y-6.351 E303.26976
G0 F7200 X-21.096 Y-6.388
G1 F1800 X-7.363 Y7.344 E304.23866
G0 F7200 X-6.754 Y7.387
G1 F1800 X-20.567 Y-6.425 E305.21321
G0 F7200 X-20.038 Y-6.462
G1 F1800 X-6.145 Y7.43 E306.1934
G0 F7200 X-5.536 Y7.474
G1 F1800 X-19.509 Y-6.499 E307.17927
G0 F7200 X-18.981 Y-6.536
G1 F1800 X-4.927 Y7.517 E308.17082
G0 F7200 X-4.319 Y7.56
G1 F1800 X-18.452 Y-6.573 E309.16798
G0 F7200 X-17.923 Y-6.61
G1 F1800 X-3.71 Y7.603 E310.17078
G0 F7200 X-3.102 Y7.645
G1 F1800 X-17.394 Y-6.646 E311.17913
G0 F7200 X-16.865 Y-6.683
G1 F1800 X-2.493 Y7.689 E312.19315
G0 F7200 X-1.884 Y7.732
G1 F1800 X-16.336 Y-6.72 E313.21281
G0 F7200 X-15.808 Y-6.757
G1 F1800 X-1.275 Y7.775 E314.23816
G0 F7200 X-.675 Y7.809
G1 F1800 X-15.279 Y-6.793 E315.26848
G0 F7200 X-14.75 Y-6.83
G1 F1800 X-0.092 Y7.826 E316.30261
G0 F7200 X0.465 Y7.819
G1 F1800 X-14.221 Y-6.867 E317.33879
G0 F7200 X-13.692 Y-6.904
G1 F1800 X1.008 Y7.796 E318.37595
G0 F7200 X1.527 Y7.749
G1 F1800 X-13.163 Y-6.94 E319.41238
G0 F7200 X-12.635 Y-6.978
G1 F1800 X2.038 Y7.695 E320.44764
G0 F7200 X2.53 Y7.621
G1 F1800 X-12.106 Y-7.015 E321.48029
G0 F7200 X-11.577 Y-7.051
G1 F1800 X3.01 Y7.535 E322.50944
G0 F7200 X3.474 Y7.434
G1 F1800 X-11.048 Y-7.088 E323.53405
G0 F7200 X-10.519 Y-7.125
G1 F1800 X3.93 Y7.324 E324.5535
G0 F7200 X4.372 Y7.201
G1 F1800 X-9.99 Y-7.162 E325.56685
G0 F7200 X-9.461 Y-7.199
G1 F1800 X4.806 Y7.068 E326.57347
G0 F7200 X5.23 Y6.927
G1 F1800 X-8.932 Y-7.235 E327.57267
G0 F7200 X-8.403 Y-7.272
G1 F1800 X5.64 Y6.771 E328.56348
G0 F7200 X6.044 Y6.61
G1 F1800 X-7.875 Y-7.309 E329.54554
G0 F7200 X-7.346 Y-7.346
G1 F1800 X6.438 Y6.438 E330.51808
G0 F7200 X6.82 Y6.255
G1 F1800 X-6.817 Y-7.383 E331.48028
G0 F7200 X-6.289 Y-7.42
G1 F1800 X7.201 Y6.069 E332.43204
G0 F7200 X7.568 Y5.871
G1 F1800 X-5.76 Y-7.457 E333.3724
G0 F7200 X-5.231 Y-7.493
G1 F1800 X7.925 Y5.663 E334.30062
G0 F7200 X8.28 Y5.451
G1 F1800 X-4.702 Y-7.531 E335.21658
G0 F7200 X-4.174 Y-7.568
G1 F1800 X8.623 Y5.229 E336.11947
G0 F7200 X8.958 Y4.998
G1 F1800 X-3.647 Y-7.607 E337.00882
G0 F7200 X-3.119 Y-7.644
G1 F1800 X9.29 Y4.765 E337.88435
G0 F7200 X9.611 Y4.52
G1 F1800 X-2.591 Y-7.682 E338.74526
G0 F7200 X-2.063 Y-7.72
G1 F1800 X9.922 Y4.265 E339.59087
G0 F7200 X10.227 Y4.005
G1 F1800 X-1.535 Y-7.758 E340.42078
G0 F7200 X-1.007 Y-7.795
G1 F1800 X10.528 Y3.739 E341.2346
G0 F7200 X10.818 Y3.464
G1 F1800 X-.463 Y-7.817 E342.03053
G0 F7200 X0.094 Y-7.824
G1 F1800 X11.103 Y3.184 E342.80724
G0 F7200 X11.38 Y2.895
G1 F1800 X0.673 Y-7.811 E343.56264
G0 F7200 X1.278 Y-7.772
G1 F1800 X11.647 Y2.596 E344.2942
G0 F7200 X11.912 Y2.295
G1 F1800 X1.907 Y-7.708 E345.00003
G0 F7200 X2.566 Y-7.616
G1 F1800 X12.167 Y1.985 E345.67744
G0 F7200 X12.413 Y1.665
G1 F1800 X3.265 Y-7.482 E346.32284
G0 F7200 X4.014 Y-7.298
G1 F1800 X12.655 Y1.341 E346.93244
G0 F7200 X12.886 Y1.006
G1 F1800 X4.807 Y-7.071 E347.50239
G1 X4.737 Y-7.141
G0 F7200 X5.694 Y-6.75
G1 F1800 X13.109 Y0.664 E348.02552
G0 F7200 X13.316 Y0.305
G1 F1800 X6.687 Y-6.323 E348.4932
G1 X6.617 Y-6.393
G0 F7200 X7.891 Y-5.685
G1 F1800 X13.41 Y-.166 E348.88259
G1 X13.48 Y-0.096
G0 F7200 X12.2 Y-1.941
G1 F1800 X9.685 Y-4.456 E349.06004
G1 X9.615 Y-4.526
;MESH:NONMESH
G0 F600 X9.615 Y-4.526 Z1.8
G0 F7200 X-20.155 Y-1.637
G0 X-20.225 Y-1.598
;TIME_ELAPSED:245.452820
;LAYER:5
;TYPE:WALL-INNER
;MESH:benchy.stl
G1 F3600 X-26.006 Y-1.599 E349.34845
G1 X-26.008 Y-5.631 E349.54961
G1 X-25.96 Y-6.005 E349.56842
G1 X-25.842 Y-6.309 E349.58469
G1 X-25.652 Y-6.553 E349.60012
G1 X-25.41 Y-6.727 E349.61499
G1 X-24.918 Y-6.862 E349.64044
G1 X-19.065 Y-7.283 E349.93321
G1 X-11.263 Y-7.838 E350.32343
G1 X-3.841 Y-8.377 E350.69469
G1 X-1.76 Y-8.532 E350.7988
G1 X-1.083 Y-8.581 E350.83267
G1 X-.608 Y-8.606 E350.8564
G1 X0.348 Y-8.613 E350.90409
G1 X1.192 Y-8.572 E350.94625
G1 X1.924 Y-8.504 E350.98293
G1 X2.527 Y-8.422 E351.01329
G1 X3.118 Y-8.319 E351.04322
G1 X4.027 Y-8.118 E351.08966
G1 X4.585 Y-7.969 E351.11848
G1 X5.297 Y-7.747 E351.15569
G1 X5.985 Y-7.499 E351.19217
G1 X6.532 Y-7.277 E351.22162
G1 X7.177 Y-6.984 E351.25697
G1 X7.832 Y-6.652 E351.2936
G1 X8.432 Y-6.315 E351.32794
G1 X8.91 Y-6.022 E351.35591
G1 X9.421 Y-5.684 E351.38647
G1 X9.87 Y-5.364 E351.41398
G1 X10.342 Y-5.003 E351.44363
G1 X10.846 Y-4.583 E351.47636
G1 X11.394 Y-4.087 E351.51323
G1 X12.01 Y-3.471 E351.5567
G1 X12.459 Y-2.979 E351.58993
G1 X12.838 Y-2.532 E351.61917
G1 X13.297 Y-1.941 E351.6565
G1 X13.685 Y-1.394 E351.68996
G1 X14.101 Y-.75 E351.72821
G1 X14.353 Y-.31 E351.7535
G1 X14.419 Y-0.06 E351.7664
G1 X14.398 Y0.186 E351.77872
G1 X14.304 Y0.408 E351.79075
G1 X13.959 Y0.979 E351.82403
G1 X13.65 Y1.444 E351.85189
G1 X13.132 Y2.158 E351.89589
G1 X12.784 Y2.598 E351.92388
G1 X12.599 Y2.817 E351.93818
G1 X12.206 Y3.261 E351.96777
G1 X11.632 Y3.857 E352.00905
G1 X11.209 Y4.259 E352.03816
G1 X10.789 Y4.632 E352.06619
G1 X10.357 Y4.99 E352.09418
G1 X9.889 Y5.35 E352.12364
G1 X9.425 Y5.682 E352.1521
G1 X8.985 Y5.974 E352.17845
G1 X8.746 Y6.126 E352.19258
G1 X8.242 Y6.426 E352.22184
G1 X7.583 Y6.782 E352.25921
G1 X6.943 Y7.095 E352.29475
G1 X6.418 Y7.326 E352.32337
G1 X5.866 Y7.544 E352.35298
G1 X5.019 Y7.838 E352.39771
G1 X4.463 Y8.004 E352.42666
G1 X3.882 Y8.154 E352.45659
G1 X3.004 Y8.34 E352.50137
G1 X2.229 Y8.465 E352.54053
G1 X1.628 Y8.535 E352.57072
G1 X0.687 Y8.601 E352.61778
G1 X0.174 Y8.615 E352.64338
G1 X-.454 Y8.609 E352.67472
G1 X-1.081 Y8.581 E352.70603
G1 X-5.262 Y8.271 E352.91519
G1 X-7.559 Y8.106 E353.03009
G1 X-8.214 Y8.057 E353.06285
G1 X-9.059 Y7.999 E353.10511
G1 X-9.724 Y7.949 E353.13838
G1 X-13.482 Y7.678 E353.32636
G1 X-19.061 Y7.282 E353.60539
G1 X-19.749 Y7.231 E353.63981
G1 X-20.629 Y7.17 E353.68382
G1 X-24.904 Y6.863 E353.89765
G1 X-25.286 Y6.78 E353.91715
G1 X-25.535 Y6.649 E353.93119
G1 X-25.752 Y6.442 E353.94615
G1 X-25.911 Y6.16 E353.9623
G1 X-26.008 Y5.654 E353.98801
G1 X-26.006 Y1.599 E354.19031
G1 X-20.225 Y1.598 E354.47873
G1 X-20.225 Y-1.598 E354.63818
G0 F7200 X-20.625 Y-1.198
;TYPE:WALL-OUTER
G1 F1800 X-26.406 Y-1.199 E354.92659
G1 X-26.408 Y-5.657 E355.149
G1 X-26.351 Y-6.105 E355.17153
G1 X-26.193 Y-6.51 E355.19322
G1 X-25.934 Y-6.843 E355.21427
G1 X-25.597 Y-7.085 E355.23497
G1 X-25.184 Y-7.232 E355.25684
G1 X-24.956 Y-7.26 E355.2683
G1 X-19.094 Y-7.682 E355.56151
G1 X-11.292 Y-8.237 E355.95174
G1 X-3.87 Y-8.776 E356.323
G1 X-1.789 Y-8.931 E356.42711
G1 X-1.711 Y-8.935 E356.43101
G1 X-1.113 Y-8.98 E356.46092
G1 X-.611 Y-9.006 E356.486
G1 X0.364 Y-9.013 E356.53465
G1 X1.211 Y-8.972 E356.57695
G1 X1.968 Y-8.901 E356.61489
G1 X2.592 Y-8.816 E356.64631
G1 X3.204 Y-8.71 E356.67729
G1 X4.113 Y-8.509 E356.72374
G1 X4.704 Y-8.351 E356.75426
G1 X5.416 Y-8.129 E356.79147
G1 X6.135 Y-7.87 E356.82959
G1 X6.682 Y-7.648 E356.85905
G1 X7.358 Y-7.341 E356.89609
G1 X8.021 Y-7.005 E356.93317
G1 X8.628 Y-6.664 E356.9679
G1 X9.131 Y-6.356 E356.99733
G1 X9.642 Y-6.018 E357.0279
G1 X10.113 Y-5.682 E357.05676
G1 X10.585 Y-5.321 E357.08641
G1 X11.115 Y-4.879 E357.12084
G1 X11.677 Y-4.37 E357.15867
G1 X12.293 Y-3.754 E357.20213
G1 X12.764 Y-3.238 E357.23698
G1 X13.143 Y-2.791 E357.26622
G1 X13.613 Y-2.186 E357.30444
G1 X14.021 Y-1.611 E357.33962
