;FLAVOR:Marlin
;TIME:9895
;Filament used: 9.69624m
;Layer height: 0.2
;MINX:-24.204
;MINY:-18.596
;MINZ:0.3
;MAXX:24.191
;MAXY:18.59
;MAXZ:47.7
;Generated with Cura_SteamEngine 4.13.1
M104 S200
M105
M109 S200
M82 ;absolute extrusion mode

G92 E0
G92 E0
;LAYER_COUNT:239
;LAYER:0
M107
;MESH:bunny.stl
G0 F3600 X-10.477 Y1.308 Z0.3
;TYPE:WALL-INNER
G1 F1722 X-10.003 Y2.356 E0.05738
G1 X-9.437 Y3.321 E0.1132
G1 X-9.342 Y3.673 E0.13139
G1 X-9.968 Y2.606 E0.1681
G1 X-11.505 Y2.104 E0.24877
G1 X-11.951 Y1.977 E0.27191
G1 X-12.792 Y1.429 E0.32199
G1 X-13.246 Y0.994 E0.35335
G1 X-13.29 Y-.289 E0.4174
G1 X-13.954 Y-1.437 E0.48357
G1 X-14.218 Y-2.15 E0.5215
G1 X-13.583 Y-4.506 E0.64323
G1 X-13.284 Y-5.455 E0.69287
G1 X-13.049 Y-5.842 E0.71546
G1 X-11.332 Y-6.466 E0.8066
G1 X-11.112 Y-5.601 E0.85113
G1 X-11.368 Y-5.257 E0.87253
G1 X-11.67 Y-4.776 E0.90086
G1 X-11.652 Y-4.127 E0.93325
G1 X-11.652 Y-3.484 E0.96533
G1 X-11.217 Y-2.57 E1.01583
G1 X-10.87 Y-2.041 E1.0474
G1 X-10.252 Y-2.029 E1.07823
G1 X-9 Y-2.087 E1.14076
G1 X-8.628 Y-2.051 E1.15941
G1 X-7.702 Y-2.068 E1.20562
G1 X-6.779 Y-1.999 E1.25179
G1 X-7.19 Y-1.376 E1.28903
G1 X-7.936 Y-.776 E1.33679
G1 X-9.366 Y0.29 E1.42578
G1 X-10.477 Y1.308 E1.50095
G0 F3600 X-9.993 Y1.407
;TYPE:WALL-OUTER
G1 F1722 X-9.647 Y2.172 E1.54284
G1 X-9.065 Y3.166 E1.60031
G1 X-8.632 Y4.763 E1.68286
G1 X-8.58 Y5.34 E1.71176
G1 X-9.057 Y5.115 E1.73807
G1 X-9.416 Y4.337 E1.78082
G1 X-10.236 Y2.939 E1.86168
G1 X-11.622 Y2.487 E1.93441
G1 X-12.117 Y2.346 E1.96009
G1 X-13.044 Y1.742 E2.01529
G1 X-13.64 Y1.17 E2.0565
G1 X-13.686 Y-.175 E2.12364
G1 X-14.318 Y-1.268 E2.18663
G1 X-14.637 Y-2.131 E2.23254
G1 X-13.965 Y-4.626 E2.36145
G1 X-13.652 Y-5.621 E2.41349
G1 X-13.379 Y-6.069 E2.43966
G1 X-13.33 Y-6.266 E2.44979
G1 X-13.151 Y-6.23 E2.4589
G1 X-11.053 Y-6.993 E2.57028
G1 X-10.677 Y-5.515 E2.64636
G1 X-11.038 Y-5.031 E2.67649
G1 X-11.267 Y-4.666 E2.69798
G1 X-11.252 Y-4.127 E2.72488
G1 X-11.252 Y-3.574 E2.75247
G1 X-10.868 Y-2.767 E2.79706
G1 X-10.651 Y-2.437 E2.81676
G1 X-10.257 Y-2.429 E2.83643
G1 X-8.994 Y-2.488 E2.89951
G1 X-8.612 Y-2.451 E2.91865
G1 X-7.69 Y-2.468 E2.96466
G1 X-6.62 Y-2.388 E3.01819
G1 X-6.11 Y-3.146 E3.06377
G1 X-5.884 Y-3.404 E3.08088
G1 X-5.709 Y-3.868 E3.10562
G1 X-5.565 Y-4.08 E3.11841
G1 X-5.245 Y-4.064 E3.13439
G1 X-4.887 Y-4.558 E3.16483
G1 X-4.9 Y-4.186 E3.17062
G1 X-5.069 Y-3.608 E3.20066
G1 X-6.607 Y-1.562 E3.32836
G1 X-6.886 Y-1.107 E3.35499
G1 X-7.686 Y-.463 E3.40622
G1 X-9.111 Y0.599 E3.49489
G1 X-9.993 Y1.407 E3.55457
G0 F3600 X-9.911 Y1.589
G0 X-10.597 Y1.99
;TYPE:SKIN
G1 F1722 X-11.391 Y1.731 E3.59623
G1 X-11.786 Y1.619 E3.61672
G1 X-12.554 Y1.118 E3.66246
G1 X-12.862 Y0.824 E3.68371
G1 X-12.904 Y-.4 E3.74481
G1 X-13.598 Y-1.599 E3.81392
G1 X-13.809 Y-2.17 E3.8443
G1 X-13.211 Y-4.389 E3.95895
G1 X-12.926 Y-5.293 E4.00624
G1 X-12.787 Y-5.522 E4.0196
G1 X-11.603 Y-5.952 E4.08245
G1 X-11.535 Y-5.684 E4.09624
G1 X-11.69 Y-5.478 E4.10911
G1 X-12.064 Y-4.883 E4.14417
G1 X-12.042 Y-4.127 E4.1819
G1 X-12.042 Y-3.396 E4.21837
G1 X-11.558 Y-2.379 E4.27456
G1 X-11.083 Y-1.655 E4.31776
G1 X-10.246 Y-1.639 E4.35953
G1 X-9.005 Y-1.695 E4.4215
G1 X-8.643 Y-1.661 E4.43964
G1 X-7.703 Y-1.678 E4.48655
G1 X-7.482 Y-1.642 E4.49772
G1 X-8.17 Y-1.088 E4.54179
G1 X-9.615 Y-0.011 E4.6317
G1 X-10.949 Y1.211 E4.72196
G1 X-10.597 Y1.99 E4.76461
G0 F3600 X-12.699 Y0.311
G1 F1722 X-11.496 Y1.513 E4.84945
G0 F3600 X-11.073 Y1.371
G1 F1722 X-12.72 Y-.275 E4.96562
G1 X-12.79 Y-.345
G0 F3600 X-13.267 Y-1.388
G1 F1722 X-10.929 Y0.949 E5.13054
G0 F3600 X-10.634 Y0.678
G1 F1722 X-13.592 Y-2.279 E5.33921
G0 F3600 X-13.472 Y-2.724
G1 F1722 X-10.339 Y0.408 E5.56022
G0 F3600 X-10.043 Y0.138
G1 F1722 X-13.352 Y-3.169 E5.79362
G0 F3600 X-13.232 Y-3.615
G1 F1722 X-11.344 Y-1.728 E5.92679
G0 F3600 X-11.091 Y-1.475
G1 F1722 X-9.748 Y-.132 E6.02155
G0 F3600 X-9.426 Y-.375
G1 F1722 X-10.515 Y-1.464 E6.09838
G0 F3600 X-9.956 Y-1.471
G1 F1722 X-9.101 Y-.616 E6.15871
G0 F3600 X-8.778 Y-.858
G1 F1722 X-9.415 Y-1.495 E6.20365
G0 F3600 X-8.852 Y-1.499
G1 F1722 X-8.454 Y-1.1 E6.23177
G0 F3600 X-8.134 Y-1.346
G1 F1722 X-8.275 Y-1.487 E6.24172
G0 F3600 X-10.78 Y-2.204
G0 X-12.052 Y-3.001
G1 F1722 X-13.112 Y-4.061 E6.31651
G0 F3600 X-12.986 Y-4.5
G1 F1722 X-12.221 Y-3.736 E6.37045
G0 F3600 X-12.226 Y-4.306
G1 F1722 X-12.85 Y-4.931 E6.41451
G0 F3600 X-12.689 Y-5.335
G1 F1722 X-12.243 Y-4.889 E6.44598
G0 F3600 X-12.042 Y-5.254
G1 F1722 X-12.295 Y-5.507 E6.46383
G0 F3600 X-11.881 Y-5.658
G1 F1722 X-11.822 Y-5.6 E6.46795
;MESH:NONMESH
G0 F600 X-11.822 Y-5.6 Z0.5
G0 F3600 X-11.491 Y-3.521
G0 X-11.075 Y-2.646
G0 X-7.055 Y-1.253
G0 X-6.374 Y-.409
G0 X-.372 Y6.426
;TIME_ELAPSED:6.037206
;LAYER:1
M106 S255
;TYPE:WALL-INNER
;MESH:bunny.stl
G1 F2700 X-.372 Y6.42 E6.46815
G1 X3.029 Y5.93 E6.58244
G1 X3.711 Y5.819 E6.60542
G1 X6.142 Y5.472 E6.6871
G1 X6.937 Y5.061 E6.71686
G1 X6.659 Y5.317 E6.72943
G1 X6.502 Y5.372 E6.73386
G1 X2.954 Y6.57 E6.85841
G1 X2.117 Y6.736 E6.8868
G1 X-.419 Y7.309 E6.97327
G1 X-2.366 Y7.798 E7.04004
G1 X-2.818 Y7.888 E7.05537
G1 X-4.623 Y8.167 E7.11611
G1 X-5.426 Y8.119 E7.14287
G1 X-6.121 Y8.099 E7.166
G1 X-6.314 Y7.643 E7.18246
G1 X-6.61 Y7.302 E7.19748
G1 X-6.954 Y7.091 E7.21091
G1 X-7.514 Y7.058 E7.22956
G1 X-8.076 Y6.605 E7.25357
G1 X-8.293 Y6.188 E7.26921
G1 X-8.714 Y5.487 E7.2964
G1 X-9.354 Y4.313 E7.34088
G1 X-9.859 Y3.351 E7.37701
G1 X-10.444 Y3.161 E7.39747
G1 X-10.916 Y3.027 E7.41379
G1 X-12.629 Y2.134 E7.47804
G1 X-14.118 Y1.134 E7.5377
G1 X-14.784 Y0.738 E7.56347
G1 X-15.126 Y0.674 E7.57504
G1 X-15.41 Y0.698 E7.58452
G1 X-15.552 Y0.539 E7.59161
G1 X-15.733 Y0.167 E7.60537
G1 X-15.994 Y-.327 E7.62395
G1 X-16.1 Y-.643 E7.63504
G1 X-16.198 Y-2.185 E7.68643
G1 X-16.171 Y-2.359 E7.69229
G1 X-15.331 Y-3.976 E7.75289
G1 X-14.859 Y-4.732 E7.78254
G1 X-14.21 Y-5.628 E7.81933
G1 X-13.641 Y-6.509 E7.85422
G1 X-13.374 Y-8.093 E7.90764
G1 X-13.312 Y-9.822 E7.96519
G1 X-13.348 Y-10.278 E7.9804
G1 X-13.259 Y-10.33 E7.98383
G1 X-12.618 Y-10.875 E8.01181
G1 X-12.522 Y-11.164 E8.02194
G1 X-12.391 Y-11.157 E8.0263
G1 X-11.69 Y-11.541 E8.05289
G1 X-9.848 Y-11.834 E8.11492
G1 X-9.009 Y-12.258 E8.14619
G1 X-6.375 Y-12.514 E8.23421
G1 X-5.479 Y-12.464 E8.26406
G1 X-5.06 Y-12.433 E8.27803
G1 X-3.115 Y-5.813 E8.50752
G1 X-3.309 Y-4.833 E8.54075
G1 X-4.783 Y-4.213 E8.59393
G1 X-6.536 Y-1.881 E8.69097
G1 X-7.039 Y-.964 E8.72575
G1 X-7.249 Y-.644 E8.73848
G1 X-7.847 Y0.512 E8.78177
G1 X-8.14 Y0.766 E8.79467
G1 X-8.704 Y1.38 E8.8224
G1 X-8.326 Y2.158 E8.85117
G1 X-8.027 Y3.351 E8.89208
G1 X-7.191 Y4.934 E8.95162
G1 X-7.113 Y5.204 E8.96096
G1 X-6.884 Y5.537 E8.97441
G1 X-6.635 Y5.654 E8.98356
G1 X-5.936 Y6.018 E9.00977
G1 X-5.188 Y6.5 E9.03937
G1 X-3.973 Y6.546 E9.07981
G1 X-2.619 Y6.657 E9.12499
G1 X-2.385 Y6.702 E9.13292
G1 X-1.784 Y6.695 E9.15291
G1 X-1.1 Y6.611 E9.17583
G1 X-.372 Y6.426 E9.20081
G0 F5400 X6.093 Y5.316
G0 X7.194 Y4.732
G0 X9.159 Y2.977
G0 X9.39 Y1.758
G1 F2700 X9.509 Y2.071 E9.21195
G1 X9.313 Y2.692 E9.23361
G1 X9.275 Y2.786 E9.23698
G1 X9.108 Y2.375 E9.24715
G1 X8.565 Y1.069 E9.29419
G1 X8.145 Y0.221 E9.32566
G1 X7.704 Y-.773 E9.36183
G1 X8.363 Y-.648 E9.38414
G1 X9.99 Y-.409 E9.43884
G1 X10.415 Y-.335 E9.45319
G1 X10.412 Y-.154 E9.45921
G1 X10.05 Y0.648 E9.48847
G1 X9.716 Y1.469 E9.51795
G1 X9.39 Y1.758 E9.53244
G0 F5400 X7.548 Y-.982
G0 X6.894 Y-2.124
G0 X6.768 Y-3.298
G1 F2700 X6.685 Y-2.335 E9.56459
G1 X6.69 Y-2.295 E9.56593
G1 X6.609 Y-2.417 E9.56817
G1 X6.446 Y-3.074 E9.58067
G1 X6.292 Y-3.754 E9.60386
G1 X6.228 Y-4.092 E9.6153
G1 X6.339 Y-4.52 E9.63
G1 X6.494 Y-5.021 E9.64745
G1 X7.089 Y-4.819 E9.66834
G1 X7.11 Y-4.686 E9.67282
G1 X7.455 Y-4.207 E9.69246
G1 X6.768 Y-3.298 E9.73035
G0 F5400 X6.761 Y-1.874
G0 X7.25 Y-.862
G0 X8.419 Y1.135
G0 X9.159 Y2.977
G0 X7.194 Y4.732
G0 X6.093 Y5.316
G0 X-1.795 Y6.534
G0 X-2.597 Y6.497
G0 X-5.138 Y6.34
G0 X-6.774 Y5.409
G0 X-7.876 Y3.291
G0 X-8.503 Y1.411
G0 X-4.384 Y-5.754
G0 X-6.503 Y-8.69
G1 F2700 X-7.532 Y-8.447 E9.76552
G1 X-7.922 Y-8.213 E9.78065
G1 X-8.679 Y-7.269 E9.82089
G1 X-8.893 Y-7.377 E9.82887
G1 X-9.495 Y-6.892 E9.85458
G1 X-9.362 Y-6.369 E9.87253
G1 X-10.35 Y-5.037 E9.92769
G1 X-10.381 Y-4.942 E9.93101
G1 X-10.894 Y-4.017 E9.96619
G1 X-10.667 Y-3.228 E9.9935
G1 X-10.274 Y-2.442 E10.02272
G1 X-9.099 Y-2.431 E10.06181
G1 X-8.459 Y-2.449 E10.0831
G1 X-7.637 Y-2.625 E10.11106
G1 X-6.944 Y-2.86 E10.1354
G1 X-6.297 Y-3.178 E10.15938
G1 X-5.742 Y-3.743 E10.18572
G1 X-5.548 Y-3.964 E10.1955
G1 X-5.166 Y-4.787 E10.22568
G1 X-5.241 Y-5.616 E10.25336
G1 X-5.395 Y-6.562 E10.28524
G1 X-5.45 Y-6.735 E10.29128
G1 X-5.827 Y-7.578 E10.32199
G1 X-6.503 Y-8.69 E10.36528
G0 F5400 X-6.694 Y-8.234
;TYPE:WALL-OUTER
G1 F1800 X-7.38 Y-8.072 E10.38872
G1 X-7.655 Y-7.907 E10.39939
G1 X-8.57 Y-6.766 E10.44803
G1 X-8.843 Y-6.904 E10.45821
G1 X-9.044 Y-6.742 E10.46679
G1 X-8.927 Y-6.284 E10.48252
G1 X-9.989 Y-4.853 E10.54179
G1 X-10.011 Y-4.783 E10.54423
G1 X-10.464 Y-3.968 E10.57524
G1 X-10.293 Y-3.374 E10.5958
G1 X-10.026 Y-2.84 E10.61566
G1 X-9.103 Y-2.831 E10.64636
G1 X-8.507 Y-2.848 E10.66619
G1 X-7.743 Y-3.011 E10.69217
G1 X-7.097 Y-3.23 E10.71486
G1 X-6.535 Y-3.507 E10.7357
G1 X-6.035 Y-4.016 E10.75943
G1 X-5.886 Y-4.185 E10.76692
G1 X-5.574 Y-4.858 E10.79159
G1 X-5.638 Y-5.566 E10.81524
G1 X-5.785 Y-6.469 E10.84567
G1 X-5.824 Y-6.592 E10.84996
G1 X-6.182 Y-7.392 E10.87911
G1 X-6.694 Y-8.234 E10.91189
G0 F5400 X-6.888 Y-8.188
G0 X-6.955 Y-8.48
G0 X-3.164 Y-4.715
G0 X-4.679 Y-4.08
G0 X-6.4 Y-1.794
G0 X-8.503 Y1.411
G0 X-7.876 Y3.291
G0 X-6.967 Y5.133
G0 X-5.138 Y6.34
G0 X-2.369 Y6.541
G0 X-1.133 Y6.453
G0 X6.093 Y5.316
G0 X7.194 Y4.732
G0 X9.159 Y2.977
G0 X8.419 Y1.135
G0 X7.384 Y-1.047
G0 X7.122 Y-1.244
G1 F1800 X8.135 Y-1.124 E10.94581
G1 X8.445 Y-1.04 E10.9565
G1 X10.048 Y-.805 E11.01038
G1 X10.531 Y-.721 E11.02669
G1 X10.958 Y-1.239 E11.04902
G1 X11.323 Y-1.624 E11.06666
G1 X11.748 Y-2.071 E11.08718
G1 X11.667 Y-1.753 E11.08983
G1 X11.509 Y-1.448 E11.09698
G1 X11.273 Y-1.052 E11.10866
G1 X10.814 Y-.282 E11.13848
G1 X10.81 Y-0.064 E11.14573
G1 X10.418 Y0.806 E11.17747
G1 X10.05 Y1.707 E11.20984
G1 X9.862 Y1.874 E11.2182
G1 X9.932 Y2.059 E11.22478
G1 X9.691 Y2.825 E11.25149
G1 X9.598 Y3.055 E11.25974
G1 X7.366 Y5.21 E11.36293
G1 X6.952 Y5.59 E11.38162
G1 X6.877 Y5.664 E11.38513
G1 X6.63 Y5.751 E11.39384
G1 X3.06 Y6.957 E11.51917
G1 X2.2 Y7.127 E11.54832
G1 X-.326 Y7.698 E11.63446
G1 X-2.273 Y8.187 E11.70123
G1 X-2.748 Y8.282 E11.71734
G1 X-4.604 Y8.568 E11.7798
G1 X-5.443 Y8.519 E11.80775
G1 X-6.269 Y8.495 E11.83524
G1 X-6.394 Y8.481 E11.83942
G1 X-6.658 Y7.857 E11.86195
G1 X-6.872 Y7.611 E11.8728
G1 X-7.078 Y7.484 E11.88085
G1 X-7.666 Y7.449 E11.90044
G1 X-8.39 Y6.866 E11.93136
G1 X-8.642 Y6.384 E11.94945
G1 X-9.057 Y5.693 E11.97626
G1 X-9.705 Y4.505 E12.02127
G1 X-10.137 Y3.681 E12.05221
G1 X-10.56 Y3.544 E12.067
G1 X-11.065 Y3.401 E12.08445
G1 X-12.831 Y2.48 E12.1507
G1 X-14.332 Y1.472 E12.21084
G1 X-14.927 Y1.118 E12.23386
G1 X-15.146 Y1.077 E12.24127
G1 X-15.575 Y1.114 E12.2556
G1 X-15.888 Y0.764 E12.27121
G1 X-16.09 Y0.348 E12.28659
G1 X-16.363 Y-.17 E12.30607
G1 X-16.496 Y-.564 E12.3199
G1 X-16.6 Y-2.203 E12.37452
G1 X-16.556 Y-2.488 E12.38411
G1 X-16.381 Y-2.82 E12.3966
G1 X-15.679 Y-4.174 E12.44732
G1 X-15.188 Y-4.961 E12.47818
G1 X-14.54 Y-5.854 E12.51487
G1 X-14.022 Y-6.657 E12.54666
G1 X-13.773 Y-8.134 E12.59647
G1 X-13.713 Y-9.814 E12.65239
G1 X-13.766 Y-10.497 E12.67517
G1 X-13.491 Y-10.658 E12.68577
G1 X-12.962 Y-11.107 E12.70885
G1 X-12.805 Y-11.581 E12.72546
G1 X-12.483 Y-11.563 E12.73618
G1 X-11.822 Y-11.925 E12.76125
G1 X-9.973 Y-12.219 E12.82352
G1 X-9.122 Y-12.649 E12.85523
G1 X-6.385 Y-12.915 E12.94669
G1 X-5.449 Y-12.863 E12.97787
G1 X-4.928 Y-12.824 E12.99525
G1 X-4.768 Y-12.858 E13.00069
G1 X-2.704 Y-5.833 E13.24422
G1 X-2.958 Y-4.546 E13.28785
G1 X-4.528 Y-3.886 E13.3445
G1 X-6.199 Y-1.663 E13.43699
G1 X-6.698 Y-.754 E13.47148
G1 X-6.903 Y-.442 E13.4839
G1 X-7.528 Y0.765 E13.52911
G1 X-7.861 Y1.053 E13.54375
G1 X-8.225 Y1.45 E13.56166
G1 X-7.949 Y2.019 E13.5827
G1 X-7.651 Y3.207 E13.62343
G1 X-6.819 Y4.781 E13.68265
G1 X-6.747 Y5.031 E13.6913
G1 X-6.616 Y5.221 E13.69898
G1 X-6.45 Y5.299 E13.70508
G1 X-5.743 Y5.667 E13.73159
G1 X-5.064 Y6.104 E13.75845
G1 X-3.947 Y6.146 E13.79562
G1 X-2.566 Y6.26 E13.84171
G1 X-2.349 Y6.302 E13.84906
G1 X-1.811 Y6.295 E13.86696
G1 X-1.174 Y6.217 E13.8883
G1 X-.749 Y6.109 E13.90289
G1 X-.746 Y6.07 E13.90419
G1 X2.968 Y5.535 E14.02899
G1 X3.646 Y5.424 E14.05184
G1 X6.018 Y5.086 E14.13153
G1 X7.052 Y4.551 E14.17025
G1 X7.393 Y4.401 E14.18265
G1 X8.366 Y3.471 E14.22741
G1 X8.854 Y3.039 E14.24909
G1 X8.905 Y2.937 E14.25288
G1 X8.738 Y2.527 E14.26761
G1 X8.201 Y1.235 E14.31414
G1 X7.779 Y0.383 E14.34577
G1 X7.234 Y-.846 E14.39048
G1 X7.002 Y-1.182 E14.40406
G1 X6.308 Y-2.14 E14.44341
G1 X6.235 Y-2.263 E14.44816
G1 X6.058 Y-2.978 E14.47266
G1 X5.899 Y-3.679 E14.49657
G1 X5.818 Y-4.106 E14.51103
G1 X5.957 Y-4.639 E14.52935
G1 X6.145 Y-5.244 E14.55042
G1 X6.115 Y-5.463 E14.55777
G1 X6.265 Y-5.631 E14.56526
G1 X6.302 Y-5.51 E14.56554
G1 X7.446 Y-5.12 E14.60574
G1 X7.49 Y-4.843 E14.61506
G1 X7.85 Y-4.343 E14.63556
G1 X7.986 Y-4.247 E14.64109
G1 X7.157 Y-3.149 E14.68685
G1 X7.087 Y-2.344 E14.71373
G1 X7.152 Y-1.852 E14.73023
G1 X7.122 Y-1.244 E14.75048
G0 F5400 X7.32 Y-1.221
G0 X7.308 Y-1.122
G0 X8.361 Y-.255
;TYPE:SKIN
G1 F1800 X9.926 Y-0.024 E14.8031
G1 X9.691 Y0.494 E14.82202
G1 X9.389 Y1.237 E14.84869
G1 X9.147 Y1.452 E14.85946
G1 X8.92 Y0.907 E14.87909
G1 X8.498 Y0.055 E14.91072
G1 X8.361 Y-.255 E14.92199
G0 F5400 X8.797 Y0.253
G1 F1800 X9.026 Y0.024 E14.93276
G0 F5400 X9.519 Y0.097
G1 F1800 X8.985 Y0.631 E14.95788
G0 F5400 X9.363 Y0.818
G1 F1800 X9.161 Y1.02 E14.96738
G0 F5400 X7.6 Y-.972
G0 X6.894 Y-2.124
G0 X6.676 Y-3.827
G1 F1800 X6.628 Y-4.079 E14.97591
G1 X6.748 Y-4.522 E14.99118
G1 X6.97 Y-4.213 E15.00383
G1 X6.676 Y-3.827 E15.01997
G0 F5400 X6.761 Y-1.874
G0 X7.25 Y-.862
G0 X8.419 Y1.135
G0 X9.159 Y2.977
G0 X7.194 Y4.732
G0 X6.093 Y5.316
G0 X-1.795 Y6.534
G0 X-2.597 Y6.497
G0 X-5.138 Y6.34
G0 X-6.774 Y5.409
G0 X-7.876 Y3.291
G0 X-8.503 Y1.411
G0 X-6.801 Y-1.184
G0 X-3.516 Y-5.794
G1 F1800 X-3.65 Y-5.112 E15.04309
G1 X-4.812 Y-4.623 E15.08502
G1 X-4.768 Y-4.718 E15.0885
G1 X-4.853 Y-5.665 E15.12013
G1 X-5.015 Y-6.653 E15.15343
G1 X-5.085 Y-6.874 E15.16114
G1 X-5.481 Y-7.759 E15.19338
G1 X-6.317 Y-9.135 E15.24693
G1 X-7.68 Y-8.812 E15.29352
G1 X-8.183 Y-8.511 E15.31302
G1 X-8.785 Y-7.76 E15.34503
G1 X-8.942 Y-7.839 E15.35088
G1 X-9.934 Y-7.038 E15.39329
G1 X-9.785 Y-6.453 E15.41336
G1 X-10.701 Y-5.218 E15.46451
G1 X-10.741 Y-5.097 E15.46874
G1 X-11.313 Y-4.064 E15.50802
G1 X-11.032 Y-3.086 E15.54186
G1 X-10.516 Y-2.054 E15.58024
G1 X-9.095 Y-2.041 E15.6275
G1 X-8.412 Y-2.061 E15.65023
G1 X-7.533 Y-2.249 E15.68013
G1 X-6.794 Y-2.499 E15.70607
G1 X-6.42 Y-2.683 E15.71994
G1 X-6.864 Y-2.093 E15.7445
G1 X-7.37 Y-1.17 E15.77951
G1 X-7.586 Y-.841 E15.7926
G1 X-8.16 Y0.267 E15.8341
G1 X-8.413 Y0.485 E15.84521
G1 X-9.17 Y1.312 E15.8825
G1 X-8.694 Y2.293 E15.91876
G1 X-8.394 Y3.491 E15.95984
G1 X-7.554 Y5.083 E16.01971
G1 X-7.47 Y5.373 E16.02975
G1 X-7.145 Y5.845 E16.04881
G1 X-6.808 Y6.004 E16.0612
G1 X-6.132 Y6.355 E16.08654
G1 X-5.309 Y6.886 E16.11911
G1 X-3.988 Y6.936 E16.16308
G1 X-2.679 Y7.042 E16.20676
G1 X-2.42 Y7.092 E16.21554
G1 X-1.758 Y7.085 E16.23755
G1 X-1.028 Y6.995 E16.26202
G1 X-.239 Y6.795 E16.28909
G1 X0.656 Y6.666 E16.31917
G1 X-.509 Y6.929 E16.35889
G1 X-2.457 Y7.419 E16.4257
G1 X-2.878 Y7.502 E16.43997
G1 X-4.642 Y7.775 E16.49934
G1 X-5.409 Y7.729 E16.5249
G1 X-5.86 Y7.716 E16.5399
G1 X-5.979 Y7.434 E16.55008
G1 X-6.355 Y7.001 E16.56916
G1 X-6.833 Y6.707 E16.58782
G1 X-7.367 Y6.676 E16.60561
G1 X-7.768 Y6.352 E16.62276
G1 X-7.952 Y5.997 E16.63606
G1 X-8.365 Y5.311 E16.66269
G1 X-9.011 Y4.126 E16.70758
G1 X-9.588 Y3.029 E16.74881
G1 X-10.331 Y2.788 E16.77479
G1 X-10.775 Y2.662 E16.79014
G1 X-12.419 Y1.804 E16.85181
G1 X-13.909 Y0.804 E16.9115
G1 X-14.644 Y0.367 E16.93994
G1 X-15.106 Y0.28 E16.95558
G1 X-15.238 Y0.292 E16.95998
G1 X-15.386 Y-0.009 E16.97114
G1 X-15.633 Y-.478 E16.98877
G1 X-15.714 Y-.718 E16.99719
G1 X-15.806 Y-2.168 E17.04552
G1 X-15.795 Y-2.238 E17.04788
G1 X-14.992 Y-3.782 E17.10576
G1 X-14.528 Y-4.525 E17.13489
G1 X-13.888 Y-5.408 E17.17117
G1 X-13.27 Y-6.365 E17.20906
G1 X-12.986 Y-8.054 E17.26602
G1 X-12.922 Y-9.83 E17.32513
G1 X-12.942 Y-10.087 E17.3337
G1 X-12.283 Y-10.649 E17.36251
G1 X-12.233 Y-10.798 E17.36774
G1 X-11.564 Y-11.165 E17.39312
G1 X-9.727 Y-11.458 E17.45499
G1 X-8.895 Y-11.878 E17.48599
G1 X-6.372 Y-12.122 E17.57029
G1 X-5.421 Y-12.07 E17.60197
G1 X-5.358 Y-12.065 E17.60407
G1 X-3.516 Y-5.794 E17.82146
G0 F5400 X-6.583 Y-8.498
G0 X-12.744 Y-9.882
G1 F1800 X-11.792 Y-10.834 E17.86624
G1 X-11.722 Y-10.904
G0 F5400 X-10.987 Y-11.074
G1 F1800 X-12.76 Y-9.301 E17.94963
G0 F5400 X-12.78 Y-8.715
G1 F1800 X-10.313 Y-11.182 E18.06567
G0 F5400 X-9.619 Y-11.31
G1 F1800 X-12.802 Y-8.128 E18.21537
G0 F5400 X-12.901 Y-7.462
G1 F1800 X-8.642 Y-11.722 E18.41572
G0 F5400 X-8.016 Y-11.782
G1 F1800 X-13.016 Y-6.782 E18.65091
G1 X-13.086 Y-6.712
G0 F5400 X-13.396 Y-5.837
G1 F1800 X-7.39 Y-11.842 E18.93339
G0 F5400 X-6.764 Y-11.902
G1 F1800 X-14.601 Y-4.065 E19.30202
G1 X-14.671 Y-3.995
G0 F5400 X-15.296 Y-2.805
G1 F1800 X-6.172 Y-11.929 E19.73118
G0 F5400 X-5.635 Y-11.9
G1 F1800 X-15.609 Y-1.926 E20.20033
G0 F5400 X-15.575 Y-1.395
G1 F1800 X-10.081 Y-6.889 E20.45875
G0 F5400 X-10.17 Y-6.234
G1 F1800 X-15.541 Y-.863 E20.71138
G0 F5400 X-15.405 Y-.433
G1 F1800 X-11.199 Y-4.639 E20.90922
G1 X-11.129 Y-4.709
G0 F5400 X-11.435 Y-3.838
G1 F1800 X-15.211 Y-0.062 E21.08683
G0 F5400 X-14.852 Y0.144
G1 F1800 X-11.309 Y-3.398 E21.25346
G0 F5400 X-11.173 Y-2.968
G1 F1800 X-14.427 Y0.285 E21.4065
G0 F5400 X-14.073 Y0.497
G1 F1800 X-10.985 Y-2.59 E21.55172
G0 F5400 X-10.796 Y-2.213
G1 F1800 X-13.723 Y0.712 E21.68935
G0 F5400 X-13.384 Y0.939
G1 F1800 X-10.569 Y-1.875 E21.82174
G0 F5400 X-10.009 Y-1.869
G1 F1800 X-13.046 Y1.166 E21.96454
G0 F5400 X-12.708 Y1.394
G1 F1800 X-9.449 Y-1.864 E22.11781
G0 F5400 X-8.88 Y-1.867
G1 F1800 X-12.369 Y1.621 E22.2819
G0 F5400 X-12.001 Y1.819
G1 F1800 X-8.275 Y-1.906 E22.45714
G0 F5400 X-7.556 Y-2.059
G1 F1800 X-11.629 Y2.013 E22.64869
G0 F5400 X-11.258 Y2.207
G1 F1800 X-7.201 Y-1.849 E22.8395
G1 X-7.131 Y-1.919
G0 F5400 X-7.942 Y-.542
G1 F1800 X-10.886 Y2.401 E22.97795
G0 F5400 X-10.479 Y2.559
G1 F1800 X-9.324 Y1.405 E23.03226
G0 F5400 X-9.14 Y1.786
G1 F1800 X-10.045 Y2.691 E23.07483
G0 F5400 X-9.618 Y2.83
G1 F1800 X-8.954 Y2.166 E23.10606
G0 F5400 X-8.806 Y2.583
G1 F1800 X-9.338 Y3.116 E23.1311
G0 F5400 X-9.142 Y3.486
G1 F1800 X-8.693 Y3.036 E23.15225
G0 F5400 X-8.58 Y3.488
G1 F1800 X-8.947 Y3.856 E23.16953
G0 F5400 X-8.75 Y4.224
G1 F1800 X-8.396 Y3.87 E23.18619
G0 F5400 X-8.201 Y4.241
G1 F1800 X-8.551 Y4.591 E23.20265
G0 F5400 X-8.351 Y4.957
G1 F1800 X-8.005 Y4.611 E23.21892
G0 F5400 X-7.809 Y4.981
G1 F1800 X-8.148 Y5.32 E23.23487
G0 F5400 X-7.935 Y5.673
G1 F1800 X-7.651 Y5.388 E23.24825
G0 F5400 X-7.436 Y5.739
G1 F1800 X-7.729 Y6.032 E23.26203
G0 F5400 X-7.482 Y6.351
G1 F1800 X-7.165 Y6.033 E23.27697
G0 F5400 X-6.783 Y6.218
G1 F1800 X-7.078 Y6.513 E23.29084
G0 F5400 X-6.624 Y6.624
G1 F1800 X-6.411 Y6.411 E23.30086
G0 F5400 X-6.052 Y6.618
G1 F1800 X-6.273 Y6.839 E23.31126
G0 F5400 X-6.001 Y7.132
G1 F1800 X-5.709 Y6.84 E23.32499
G0 F5400 X-5.364 Y7.061
G1 F1800 X-5.769 Y7.466 E23.34404
G0 F5400 X-5.292 Y7.555
G1 F1800 X-4.82 Y7.083 E23.36624
G0 F5400 X-4.758 Y7.587
G1 F1800 X-4.275 Y7.104 E23.38896
G0 F5400 X-4.116 Y7.51
G1 F1800 X-3.741 Y7.135 E23.4066
G0 F5400 X-3.447 Y7.406
G1 F1800 X-3.218 Y7.177 E23.41737
G0 F5400 X-2.771 Y7.296
G1 F1800 X-2.695 Y7.22 E23.42095
G0 F5400 X-5.138 Y6.34
G0 X-6.774 Y5.409
G0 X-7.876 Y3.291
G0 X-8.503 Y1.411
G0 X-4.611 Y-5.005
G1 F1800 X-3.731 Y-5.885 E23.46234
G0 F5400 X-3.859 Y-6.322
G1 F1800 X-4.658 Y-5.523 E23.49992
G0 F5400 X-4.727 Y-6.02
G1 F1800 X-3.988 Y-6.759 E23.53468
G0 F5400 X-4.116 Y-7.196
G1 F1800 X-4.807 Y-6.506 E23.56716
G0 F5400 X-4.924 Y-6.955
G1 F1800 X-4.244 Y-7.634 E23.59912
G0 F5400 X-4.373 Y-8.071
G1 F1800 X-5.098 Y-7.346 E23.63322
G0 F5400 X-5.273 Y-7.737
G1 F1800 X-4.501 Y-8.509 E23.66954
G0 F5400 X-4.63 Y-8.946
G1 F1800 X-5.476 Y-8.099 E23.70935
G0 F5400 X-5.69 Y-8.451
G1 F1800 X-4.758 Y-9.383 E23.75319
G0 F5400 X-4.886 Y-9.821
G1 F1800 X-5.904 Y-8.803 E23.80108
G0 F5400 X-6.117 Y-9.155
G1 F1800 X-5.015 Y-10.257 E23.85291
G0 F5400 X-5.143 Y-10.695
G1 F1800 X-6.581 Y-9.257 E23.92055
G0 F5400 X-7.324 Y-9.08
G1 F1800 X-5.272 Y-11.132 E24.01707
G0 F5400 X-5.4 Y-11.569
G1 F1800 X-8.933 Y-8.036 E24.18325
G1 X-9.003 Y-7.966
G0 F5400 X-6.583 Y-8.498
G0 X-5.968 Y-7.499
G0 X-5.553 Y-6.526
G0 X-5.331 Y-4.817
G0 X-8.503 Y1.411
G0 X-7.876 Y3.291
G0 X-6.967 Y5.133
G0 X-5.138 Y6.34
G0 X-2.369 Y6.541
G0 X0.943 Y6.41
;TYPE:SKIN
G1 F1800 X0.828 Y6.525 E24.18596
G0 F5400 X0.872 Y6.764
G1 F1800 X1.273 Y6.363 E24.19539
G0 F5400 X1.604 Y6.315
G1 F1800 X1.151 Y6.767 E24.20603
G0 F5400 X1.516 Y6.685
G1 F1800 X1.934 Y6.267 E24.21586
G0 F5400 X2.264 Y6.22
G1 F1800 X1.881 Y6.603 E24.22487
G0 F5400 X2.24 Y6.527
G1 F1800 X2.595 Y6.173 E24.2332
G0 F5400 X2.593 Y6.457
G1 F1800 X2.925 Y6.125 E24.24101
G0 F5400 X2.954 Y6.379
G1 F1800 X3.26 Y6.073 E24.24821
G0 F5400 X3.381 Y6.235
G1 F1800 X3.598 Y6.018 E24.25331
G0 F5400 X3.807 Y6.091
G1 F1800 X3.93 Y5.968 E24.2562
G0 F5400 X5.681 Y5.441
G0 X7.034 Y4.897
G0 X7.017 Y4.862
G1 F1800 X7.165 Y4.714 E24.25969
G0 F5400 X7.133 Y5.028
G1 F1800 X8.935 Y3.226 E24.30207
G0 F5400 X9.019 Y3.142
G1 F1800 X9.196 Y2.965 E24.30623
G0 F5400 X9.182 Y2.902
;MESH:NONMESH
G0 F600 X9.182 Y2.902 Z0.7
G0 F5400 X9.209 Y2.892
G0 X7.194 Y4.732
G0 X6.093 Y5.316
G0 X-1.795 Y6.534
G0 X-2.597 Y6.497
G0 X-5.138 Y6.34
G0 X-6.774 Y5.409
G0 X-7.876 Y3.291
G0 X-8.503 Y1.411
G0 X-6.4 Y-1.794
G0 X-4.679 Y-4.08
G0 X-6.076 Y-7.793
G0 X-6.199 Y-7.72
;TIME_ELAPSED:27.635343
;LAYER:2
;TYPE:WALL-INNER
;MESH:bunny.stl
G1 F3600 X-7.363 Y-6.846 E24.35464
G1 X-7.633 Y-6.678 E24.36522
G1 X-7.768 Y-6.39 E24.3758
G1 X-7.975 Y-5.806 E24.39641
G1 X-8.562 Y-5.472 E24.41887
G1 X-9.177 Y-5.014 E24.44437
G1 X-9.731 Y-3.748 E24.49034
G1 X-9.924 Y-3.419 E24.50302
G1 X-9.522 Y-2.8 E24.52757
G1 X-7.369 Y-3.026 E24.59957
G1 X-7.088 Y-3.117 E24.6094
G1 X-6.06 Y-3.62 E24.64746
G1 X-5.682 Y-4.054 E24.6666
G1 X-5.435 Y-4.564 E24.68545
G1 X-5.503 Y-5.438 E24.71461
G1 X-5.653 Y-6.089 E24.73683
G1 X-6.199 Y-7.72 E24.79403
G0 F7200 X-3.371 Y-12.196
G1 F3600 X-1.796 Y-6.834 E24.97991
G1 X-2.254 Y-4.522 E25.0583
G1 X-5.225 Y-3.273 E25.16549
G1 X-6.212 Y-1.961 E25.2201
G1 X-7.052 Y-.422 E25.27842
G1 X-7.34 Y0.147 E25.29963
G1 X-7.796 Y1.066 E25.33375
G1 X-7.941 Y1.579 E25.35148
G1 X-7.793 Y2.276 E25.37518
G1 X-7.611 Y3.366 E25.41194
G1 X-7.176 Y4.237 E25.44432
G1 X-6.897 Y4.849 E25.46669
G1 X-6.67 Y5.171 E25.47979
G1 X-6.315 Y5.501 E25.49591
G1 X-5.619 Y5.81 E25.52124
G1 X-4.917 Y6.26 E25.54897
G1 X-3.501 Y6.315 E25.59611
G1 X-2.524 Y6.433 E25.62884
G1 X-1.861 Y6.401 E25.65091
G1 X-1.363 Y6.359 E25.66754
G1 X-.453 Y6.209 E25.69821
G1 X1.861 Y5.804 E25.77635
G1 X2.556 Y5.685 E25.7998
G1 X4.753 Y5.385 E25.87355
G1 X6.341 Y5.147 E25.92696
G1 X7.109 Y4.769 E25.95543
G1 X7.722 Y4.35 E25.98012
G1 X7.943 Y4.216 E25.98872
G1 X8.583 Y3.632 E26.01753
G1 X8.885 Y3.389 E26.03043
G1 X9.056 Y2.966 E26.0456
G1 X8.964 Y2.377 E26.06543
G1 X8.543 Y1.51 E26.09749
G1 X8.085 Y0.677 E26.1291
G1 X7.839 Y0.288 E26.14441
G1 X7.501 Y-.474 E26.17214
G1 X7.06 Y-1.134 E26.19854
G1 X6.563 Y-1.841 E26.22728
G1 X6.467 Y-1.973 E26.23271
G1 X5.989 Y-3.049 E26.27187
G1 X5.927 Y-3.409 E26.28402
G1 X5.923 Y-3.891 E26.30005
G1 X6.048 Y-4.293 E26.31406
G1 X6.071 Y-5.071 E26.33994
G1 X5.812 Y-5.839 E26.3669
G1 X5.461 Y-6.618 E26.39532
G1 X6.141 Y-7.393 E26.42961
G1 X6.406 Y-7.691 E26.44287
G1 X8.141 Y-8.878 E26.51279
G1 X8.392 Y-7.085 E26.57301
G1 X9.301 Y-6.968 E26.60349
G1 X10.528 Y-9.915 E26.70967
G1 X10.748 Y-9.417 E26.72777
G1 X10.929 Y-8.61 E26.75528
G1 X11.173 Y-8.43 E26.76537
G1 X12.682 Y-6.832 E26.83847
G1 X12.924 Y-5.828 E26.87282
G1 X13.824 Y-5.378 E26.90629
G1 X13.936 Y-5.256 E26.91179
G1 X14.836 Y-3.468 E26.97837
G1 X11.457 Y-.136 E27.13621
G1 X11.265 Y-0.071 E27.14295
G1 X11.017 Y0.212 E27.15547
G1 X10.931 Y0.621 E27.16937
G1 X10.582 Y1.374 E27.19697
G1 X9.726 Y3.2 E27.26405
G1 X8.765 Y4.081 E27.30741
G1 X8.027 Y5.153 E27.3507
G1 X7.504 Y5.604 E27.37366
G1 X7.521 Y5.692 E27.37665
G1 X6.438 Y5.955 E27.41371
G1 X5.801 Y6.178 E27.43616
G1 X3.912 Y6.515 E27.49998
G1 X2.107 Y6.872 E27.56118
G1 X0.764 Y7.174 E27.60696
G1 X-.263 Y7.433 E27.64219
G1 X-2.193 Y7.85 E27.70786
G1 X-4.18 Y8.223 E27.77511
G1 X-4.803 Y8.319 E27.79607
G1 X-5.367 Y8.294 E27.81485
G1 X-6.204 Y8.197 E27.84287
G1 X-6.624 Y7.714 E27.86416
G1 X-7.129 Y7.402 E27.88391
G1 X-7.745 Y7.366 E27.90443
G1 X-7.808 Y7.333 E27.90679
G1 X-8.007 Y7.01 E27.91941
G1 X-8.325 Y6.306 E27.94511
G1 X-8.518 Y5.783 E27.96365
G1 X-9.473 Y4.189 E28.02545
G1 X-9.712 Y3.633 E28.04558
G1 X-10.496 Y3.311 E28.07377
G1 X-11.744 Y2.722 E28.11967
G1 X-13.023 Y2.054 E28.16766
G1 X-13.48 Y1.748 E28.18595
G1 X-14.84 Y0.938 E28.2386
G1 X-15.381 Y0.838 E28.2569
G1 X-15.661 Y0.843 E28.26622
G1 X-16.004 Y0.342 E28.28641
G1 X-16.144 Y-.25 E28.30664
G1 X-16.314 Y-.786 E28.32535
G1 X-16.597 Y-1.422 E28.3485
G1 X-16.672 Y-1.763 E28.36011
G1 X-16.646 Y-1.986 E28.36758
G1 X-16.537 Y-2.489 E28.3847
G1 X-16.522 Y-2.528 E28.38609
G1 X-15.887 Y-3.458 E28.42354
G1 X-15.384 Y-4.185 E28.45294
G1 X-14.861 Y-5.059 E28.48682
G1 X-14.144 Y-6.224 E28.53232
G1 X-13.885 Y-6.573 E28.54677
G1 X-13.765 Y-6.924 E28.55911
G1 X-13.839 Y-7.227 E28.56949
G1 X-13.961 Y-7.414 E28.57691
G1 X-14.246 Y-8.384 E28.61054
G1 X-14.421 Y-9.187 E28.63787
G1 X-14.521 Y-10.065 E28.66726
G1 X-14.592 Y-10.619 E28.68584
G1 X-14.378 Y-11.492 E28.71574
G1 X-14.222 Y-12.026 E28.73424
G1 X-14.106 Y-12.363 E28.74609
G1 X-13.848 Y-12.689 E28.75992
G1 X-13.116 Y-12.907 E28.78533
G1 X-12.516 Y-13.078 E28.80608
G1 X-12.264 Y-13.298 E28.8172
G1 X-11.074 Y-13.523 E28.85748
G1 X-10.557 Y-13.633 E28.87506
G1 X-8.769 Y-13.43 E28.93491
G1 X-7.649 Y-13.275 E28.97252
G1 X-6.355 Y-13.17 E29.0157
G1 X-5.118 Y-13.432 E29.05776
G1 X-4.549 Y-13.83 E29.08085
G1 X-4.117 Y-14.541 E29.10852
G1 X-4.092 Y-14.949 E29.12212
G1 X-4.001 Y-15.009 E29.12574
G1 X-2.965 Y-15.483 E29.16364
G1 X-2.603 Y-15.604 E29.17633
G1 X-1.699 Y-15.629 E29.20641
G1 X-1.375 Y-15.607 E29.21721
G1 X-.176 Y-15.257 E29.25875
G1 X2.105 Y-14.475 E29.33896
G1 X3.769 Y-14.11 E29.39562
G1 X3.895 Y-14.077 E29.39995
G1 X6.654 Y-13.173 E29.49651
G1 X8.481 Y-12.563 E29.56058
G1 X9.052 Y-12.369 E29.58063
G1 X9.456 Y-12.145 E29.596
G1 X9.913 Y-11.202 E29.63085
G1 X10.047 Y-11.004 E29.6388
G1 X10.504 Y-9.97 E29.6764
G1 X9.869 Y-10.474 E29.68767
G1 X9.12 Y-11.07 E29.71951
G1 X7.22 Y-12.187 E29.79282
G1 X0.8 Y-14.296 E30.01757
G1 X-3.371 Y-12.196 E30.17289
G0 F7200 X0.814 Y-14.119
G0 X7.152 Y-12.04
G0 X9.03 Y-10.935
G0 X10.335 Y-9.89
G0 X11.476 Y-7.158
G1 F3600 X10.599 Y-6.469 E30.20998
G1 X9.281 Y-5.055 E30.27428
G1 X8.853 Y-4.534 E30.2967
G1 X8.798 Y-4.438 E30.30038
G1 X8.221 Y-4.006 E30.32436
G1 X7.113 Y-2.538 E30.38553
G1 X7.078 Y-2.124 E30.39935
G1 X7.165 Y-1.479 E30.42099
G1 X8.125 Y-1.234 E30.45395
G1 X9.282 Y-.918 E30.49384
G1 X9.487 Y-.858 E30.50094
G1 X10.665 Y-.686 E30.54054
G1 X11.39 Y-1.45 E30.57557
G1 X11.923 Y-2.095 E30.6034
G1 X13.083 Y-4.242 E30.68457
G1 X12.836 Y-5.431 E30.72496
G1 X12.78 Y-5.603 E30.73097
G1 X11.476 Y-7.158 E30.79847
G0 F7200 X11.418 Y-6.604
;TYPE:WALL-OUTER
G1 F1800 X10.87 Y-6.174 E30.82164
G1 X9.582 Y-4.792 E30.88447
G1 X9.184 Y-4.307 E30.90534
G1 X9.105 Y-4.168 E30.91066
G1 X8.506 Y-3.72 E30.93554
G1 X7.502 Y-2.389 E30.99099
G1 X7.48 Y-2.134 E30.9995
G1 X7.525 Y-1.8 E31.01071
G1 X8.224 Y-1.622 E31.0347
G1 X9.388 Y-1.303 E31.07484
G1 X9.572 Y-1.25 E31.08121
G1 X10.518 Y-1.112 E31.11301
G1 X11.09 Y-1.715 E31.14065
G1 X11.59 Y-2.32 E31.16676
G1 X12.662 Y-4.304 E31.24176
G1 X12.449 Y-5.328 E31.27655
G1 X12.424 Y-5.405 E31.27924
G1 X11.418 Y-6.604 E31.3313
G0 F7200 X11.261 Y-6.481
G0 X11.078 Y-6.716
G0 X8.334 Y-3.89
G0 X7.271 Y-2.478
G0 X7.316 Y-1.613
G0 X8.809 Y2.427
G0 X7.646 Y5.811
G0 X7.94 Y5.756
G1 F1800 X7.985 Y5.991 E31.33926
G1 X6.552 Y6.339 E31.3883
G1 X5.904 Y6.566 E31.41114
G1 X3.986 Y6.908 E31.47594
G1 X2.19 Y7.263 E31.53683
G1 X0.857 Y7.563 E31.58227
G1 X-.17 Y7.822 E31.6175
G1 X-2.106 Y8.241 E31.68338
G1 X-4.106 Y8.616 E31.75106
G1 X-4.785 Y8.721 E31.77392
G1 X-5.388 Y8.694 E31.79399
G1 X-6.44 Y8.572 E31.82922
G1 X-6.47 Y8.501 E31.83178
G1 X-6.886 Y8.022 E31.85288
G1 X-7.253 Y7.795 E31.86723
G1 X-7.852 Y7.76 E31.88719
G1 X-8.091 Y7.638 E31.89612
G1 X-8.362 Y7.198 E31.9133
G1 X-8.69 Y6.471 E31.93983
G1 X-8.88 Y5.957 E31.95806
G1 X-9.828 Y4.375 E32.0194
G1 X-10.015 Y3.941 E32.03512
G1 X-10.664 Y3.675 E32.05844
G1 X-11.921 Y3.081 E32.10469
G1 X-13.22 Y2.403 E32.15342
G1 X-13.694 Y2.086 E32.17239
G1 X-14.983 Y1.318 E32.22229
G1 X-15.4 Y1.241 E32.2364
G1 X-15.759 Y1.273 E32.24838
G1 X-15.956 Y1.12 E32.25668
G1 X-16.376 Y0.507 E32.2814
G1 X-16.53 Y-.143 E32.30361
G1 X-16.689 Y-.644 E32.3211
G1 X-16.98 Y-1.298 E32.3449
G1 X-17.077 Y-1.742 E32.36002
G1 X-17.04 Y-2.056 E32.37054
G1 X-16.922 Y-2.6 E32.38905
G1 X-16.881 Y-2.711 E32.39299
G1 X-16.216 Y-3.686 E32.43224
G1 X-15.72 Y-4.402 E32.46121
G1 X-15.202 Y-5.269 E32.4948
G1 X-14.478 Y-6.446 E32.54076
G1 X-14.243 Y-6.762 E32.55386
G1 X-14.181 Y-6.943 E32.56022
G1 X-14.211 Y-7.065 E32.5644
G1 X-14.329 Y-7.246 E32.57159
G1 X-14.634 Y-8.283 E32.60754
G1 X-14.815 Y-9.116 E32.63589
G1 X-14.918 Y-10.017 E32.66605
G1 X-14.998 Y-10.642 E32.68701
G1 X-14.767 Y-11.587 E32.71937
G1 X-14.606 Y-12.138 E32.73846
G1 X-14.461 Y-12.559 E32.75327
G1 X-14.084 Y-13.036 E32.77349
G1 X-13.225 Y-13.292 E32.8033
G1 X-12.712 Y-13.438 E32.82104
G1 X-12.445 Y-13.671 E32.83283
G1 X-11.153 Y-13.915 E32.87656
G1 X-10.577 Y-14.037 E32.89614
G1 X-8.714 Y-13.826 E32.9585
G1 X-7.605 Y-13.673 E32.99574
G1 X-6.381 Y-13.573 E33.03659
G1 X-5.281 Y-13.806 E33.07398
G1 X-4.847 Y-14.11 E33.09161
G1 X-4.51 Y-14.664 E33.11317
G1 X-4.479 Y-15.173 E33.13014
G1 X-4.195 Y-15.36 E33.14144
G1 X-3.115 Y-15.854 E33.18095
G1 X-2.672 Y-16.002 E33.19648
G1 X-1.694 Y-16.029 E33.22902
G1 X-1.304 Y-16.003 E33.24202
G1 X-0.064 Y-15.641 E33.28499
G1 X2.213 Y-14.861 E33.36504
G1 X3.855 Y-14.5 E33.42096
G1 X4.015 Y-14.459 E33.42645
G1 X6.779 Y-13.552 E33.5232
G1 X8.609 Y-12.942 E33.58736
G1 X9.214 Y-12.737 E33.60861
G1 X9.761 Y-12.432 E33.62944
G1 X10.261 Y-11.402 E33.66752
G1 X10.399 Y-11.197 E33.67574
G1 X11.129 Y-9.545 E33.73581
G1 X11.248 Y-9.056 E33.75255
G1 X11.291 Y-8.84 E33.75987
G1 X11.442 Y-8.729 E33.76611
G1 X13.046 Y-7.03 E33.84382
G1 X13.269 Y-6.103 E33.87553
G1 X14.003 Y-5.736 E33.90283
G1 X14.178 Y-5.635 E33.90955
G1 X14.288 Y-5.447 E33.91679
G1 X15.318 Y-3.4 E33.99301
G1 X15.238 Y-3.302 E33.99722
G1 X11.673 Y0.213 E34.16373
G1 X11.495 Y0.273 E34.16998
G1 X11.387 Y0.397 E34.17545
G1 X11.312 Y0.749 E34.18742
G1 X10.944 Y1.544 E34.21656
G1 X10.055 Y3.441 E34.28624
G1 X9.069 Y4.345 E34.33073
G1 X8.327 Y5.423 E34.37425
G1 X7.94 Y5.756 E34.39123
G0 F7200 X7.977 Y5.952
G0 X7.67 Y5.789
G0 X-2.521 Y6.272
G0 X-4.866 Y6.1
G0 X-6.227 Y5.364
G0 X-7.456 Y3.317
G0 X-7.774 Y1.585
G0 X-6.077 Y-1.874
G0 X-5.122 Y-3.14
G0 X-3.011 Y-4.024
G0 X-6.289 Y-7.432
G0 X-6.402 Y-7.067
G1 F1800 X-7.135 Y-6.517 E34.42171
G1 X-7.321 Y-6.401 E34.42901
G1 X-7.397 Y-6.238 E34.43499
G1 X-7.648 Y-5.531 E34.45994
G1 X-8.343 Y-5.136 E34.48653
G1 X-8.853 Y-4.756 E34.50768
G1 X-9.374 Y-3.567 E34.55086
G1 X-9.454 Y-3.43 E34.55613
G1 X-9.32 Y-3.223 E34.56434
G1 X-7.453 Y-3.419 E34.62677
G1 X-7.239 Y-3.489 E34.63426
G1 X-6.308 Y-3.944 E34.66873
G1 X-6.019 Y-4.276 E34.68337
G1 X-5.842 Y-4.641 E34.69686
G1 X-5.899 Y-5.377 E34.72141
G1 X-6.038 Y-5.98 E34.74199
G1 X-6.402 Y-7.067 E34.78012
G0 F7200 X-6.562 Y-6.947
G0 X-6.742 Y-7.187
G0 X-3.18 Y-11.905
G0 X-2.893 Y-11.989
G1 F1800 X-1.385 Y-6.854 E34.95812
G1 X-1.903 Y-4.235 E35.04692
G1 X-4.97 Y-2.946 E35.15757
G1 X-5.875 Y-1.744 E35.20762
G1 X-6.698 Y-.236 E35.26476
G1 X-6.982 Y0.326 E35.2857
G1 X-7.421 Y1.211 E35.31856
G1 X-7.529 Y1.593 E35.33176
G1 X-7.399 Y2.21 E35.35273
G1 X-7.226 Y3.241 E35.3875
G1 X-6.812 Y4.071 E35.41835
G1 X-6.548 Y4.649 E35.43949
G1 X-6.367 Y4.907 E35.44997
G1 X-6.092 Y5.163 E35.46247
G1 X-5.429 Y5.457 E35.48659
G1 X-4.793 Y5.864 E35.5117
G1 X-3.474 Y5.915 E35.5556
G1 X-2.509 Y6.032 E35.58794
G1 X-1.887 Y6.002 E35.60865
G1 X-1.412 Y5.962 E35.6245
G1 X-.52 Y5.815 E35.65457
G1 X1.792 Y5.41 E35.73264
G1 X2.496 Y5.29 E35.75639
G1 X4.696 Y4.989 E35.83025
G1 X6.22 Y4.761 E35.8815
G1 X6.907 Y4.423 E35.90696
G1 X7.507 Y4.012 E35.93115
G1 X7.703 Y3.894 E35.93876
G1 X8.332 Y3.32 E35.96708
G1 X8.553 Y3.142 E35.97652
G1 X8.644 Y2.918 E35.98456
G1 X8.578 Y2.498 E35.9987
G1 X8.188 Y1.694 E36.02843
G1 X7.74 Y0.88 E36.05933
G1 X7.483 Y0.472 E36.07537
G1 X7.149 Y-.28 E36.10273
G1 X6.73 Y-.908 E36.12784
G1 X6.237 Y-1.609 E36.15635
G1 X6.117 Y-1.775 E36.16316
G1 X5.616 Y-2.903 E36.20421
G1 X5.539 Y-3.138 E36.21244
G1 X5.527 Y-3.39 E36.22083
G1 X5.523 Y-3.95 E36.23945
G1 X5.65 Y-4.359 E36.2537
G1 X5.669 Y-5.011 E36.27539
G1 X5.439 Y-5.693 E36.29933
G1 X4.99 Y-6.689 E36.33567
G1 X5.842 Y-7.659 E36.37861
G1 X6.139 Y-7.993 E36.39348
G1 X8.447 Y-9.572 E36.48649
G1 X8.746 Y-7.443 E36.55799
G1 X9.049 Y-7.404 E36.56815
G1 X10.054 Y-9.817 E36.65509
G1 X8.893 Y-10.739 E36.7044
G1 X7.054 Y-11.82 E36.77535
G1 X0.832 Y-13.864 E36.99318
G1 X-2.893 Y-11.989 E37.13188
G0 F7200 X-2.837 Y-11.798
G0 X-3.124 Y-11.714
G0 X-3.837 Y-12.398
;TYPE:SKIN
G1 F1800 X-2.197 Y-6.815 E37.32542
G1 X-2.595 Y-4.801 E37.3937
G1 X-5.473 Y-3.591 E37.49754
G1 X-6.541 Y-2.173 E37.55658
G1 X-7.397 Y-.603 E37.61606
G1 X-7.689 Y-0.028 E37.63751
G1 X-8.161 Y0.925 E37.67288
G1 X-8.343 Y1.565 E37.69501
G1 X-8.175 Y2.357 E37.72194
G1 X-7.986 Y3.488 E37.76008
G1 X-7.531 Y4.399 E37.79395
G1 X-7.236 Y5.044 E37.81754
G1 X-6.965 Y5.429 E37.83319
G1 X-6.533 Y5.831 E37.85282
G1 X-5.803 Y6.156 E37.8794
G1 X-5.038 Y6.646 E37.90962
G1 X-3.538 Y6.705 E37.95954
G1 X-2.538 Y6.825 E37.99304
G1 X-1.835 Y6.791 E38.01645
G1 X-1.314 Y6.747 E38.03384
G1 X-.387 Y6.593 E38.0651
G1 X1.928 Y6.188 E38.14326
G1 X2.623 Y6.069 E38.16672
G1 X4.808 Y5.771 E38.24006
G1 X6.458 Y5.524 E38.29555
G1 X7.306 Y5.107 E38.32698
G1 X7.834 Y4.746 E38.34826
G1 X7.733 Y4.892 E38.35416
G1 X7.171 Y5.376 E38.37883
G1 X6.327 Y5.581 E38.40772
G1 X5.702 Y5.8 E38.42974
G1 X3.84 Y6.131 E38.49265
G1 X2.027 Y6.49 E38.55412
G1 X0.674 Y6.794 E38.60024
G1 X-.352 Y7.053 E38.63544
G1 X-2.24 Y7.462 E38.69969
G1 X-4.25 Y7.839 E38.76771
G1 X-4.824 Y7.927 E38.78702
G1 X-5.333 Y7.904 E38.80397
G1 X-6.01 Y7.826 E38.82663
G1 X-6.369 Y7.414 E38.84481
G1 X-7.008 Y7.018 E38.86981
G1 X-7.564 Y6.985 E38.88834
G1 X-7.665 Y6.821 E38.89474
G1 X-7.961 Y6.166 E38.91865
G1 X-8.165 Y5.614 E38.93822
G1 X-9.125 Y4.011 E39.00037
G1 X-9.416 Y3.333 E39.02491
G1 X-10.34 Y2.954 E39.05813
G1 X-11.578 Y2.369 E39.10367
G1 X-12.821 Y1.72 E39.15031
G1 X-13.271 Y1.418 E39.16833
G1 X-14.7 Y0.567 E39.22365
G1 X-15.348 Y0.448 E39.24556
G1 X-15.458 Y0.45 E39.24922
G1 X-15.64 Y0.183 E39.25997
G1 X-15.768 Y-.354 E39.27833
G1 X-15.949 Y-.925 E39.29825
G1 X-16.225 Y-1.546 E39.32086
G1 X-16.276 Y-1.781 E39.32885
G1 X-16.167 Y-2.356 E39.34832
G1 X-15.567 Y-3.236 E39.38374
G1 X-15.056 Y-3.974 E39.4136
G1 X-14.495 Y-4.909 E39.44987
G1 X-13.824 Y-6 E39.49247
G1 X-13.536 Y-6.39 E39.50859
G1 X-13.359 Y-6.906 E39.52673
G1 X-13.476 Y-7.385 E39.54313
G1 X-13.604 Y-7.581 E39.55092
G1 X-13.868 Y-8.48 E39.58208
G1 X-14.034 Y-9.244 E39.60809
G1 X-14.133 Y-10.112 E39.63714
G1 X-14.196 Y-10.594 E39.65331
G1 X-14.002 Y-11.391 E39.6806
G1 X-13.853 Y-11.899 E39.6982
G1 X-13.758 Y-12.173 E39.70785
G1 X-13.619 Y-12.35 E39.71533
G1 X-12.928 Y-12.555 E39.73931
G1 X-12.325 Y-12.727 E39.76016
G1 X-12.088 Y-12.934 E39.77063
G1 X-10.998 Y-13.141 E39.80753
G1 X-10.538 Y-13.238 E39.82317
G1 X-8.813 Y-13.042 E39.88091
G1 X-7.692 Y-12.887 E39.91855
G1 X-6.33 Y-12.776 E39.964
G1 X-4.96 Y-13.067 E40.01058
G1 X-4.258 Y-13.557 E40.03906
G1 X-3.733 Y-14.42 E40.07265
G1 X-3.715 Y-14.711 E40.08235
G1 X-2.819 Y-15.121 E40.11512
G1 X-2.535 Y-15.216 E40.12508
G1 X-1.715 Y-15.239 E40.15237
G1 X-1.438 Y-15.219 E40.1616
G1 X-.294 Y-14.885 E40.20124
G1 X0.537 Y-14.6 E40.23046
G1 X-3.837 Y-12.398 E40.39334
G0 F7200 X-6 Y-8.356
G1 F1800 X-7.58 Y-7.171 E40.45903
G1 X-7.937 Y-6.948 E40.47303
G1 X-8.295 Y-6.073 E40.50447
G1 X-8.776 Y-5.799 E40.52288
G1 X-9.493 Y-5.265 E40.55262
G1 X-10.076 Y-3.932 E40.60101
G1 X-10.382 Y-3.409 E40.62116
G1 X-9.719 Y-2.387 E40.66168
G1 X-7.287 Y-2.642 E40.74301
G1 X-6.942 Y-2.754 E40.75508
G1 X-5.818 Y-3.304 E40.7967
G1 X-5.354 Y-3.837 E40.8202
G1 X-5.038 Y-4.489 E40.8443
G1 X-5.117 Y-5.497 E40.87793
G1 X-5.277 Y-6.195 E40.90174
G1 X-6 Y-8.356 E40.97754
G0 F7200 X-3.168 Y-12.108
G0 X0.814 Y-14.119
G0 X7.482 Y-12.485
G1 F1800 X8.892 Y-12.012 E41.027
G1 X9.159 Y-11.864 E41.03715
G1 X9.417 Y-11.332 E41.05682
G1 X9.341 Y-11.392 E41.06004
G1 X7.482 Y-12.485 E41.13177
G0 F7200 X10.335 Y-9.89
G0 X7.271 Y-2.478
G0 X7.65 Y-.953
G1 F1800 X8.025 Y-.857 E41.14464
G1 X9.179 Y-.542 E41.18443
G1 X9.403 Y-.476 E41.19219
G1 X10.809 Y-.271 E41.23945
G1 X11.682 Y-1.191 E41.28164
G1 X12.248 Y-1.876 E41.31119
G1 X13.494 Y-4.182 E41.39837
G1 X13.28 Y-5.214 E41.43342
G1 X13.61 Y-5.036 E41.44589
G1 X14.36 Y-3.545 E41.50141
G1 X11.249 Y-.476 E41.64675
G1 X11.041 Y-.407 E41.65404
G1 X10.656 Y0.032 E41.67346
G1 X10.557 Y0.501 E41.6894
G1 X10.229 Y1.21 E41.71539
G1 X9.439 Y2.894 E41.77725
G1 X9.34 Y2.26 E41.7986
G1 X8.89 Y1.331 E41.83293
G1 X8.421 Y0.478 E41.86531
G1 X8.183 Y0.102 E41.88011
G1 X7.844 Y-.663 E41.90794
G1 X7.65 Y-.953 E41.91954
G0 F7200 X10.605 Y-.862
G0 X11.275 Y-1.611
G0 X13.613 Y-4.488
G1 F1800 X13.753 Y-4.348 E41.92613
G0 F7200 X13.577 Y-3.959
G1 F1800 X14.047 Y-3.488 E41.94826
G0 F7200 X13.762 Y-3.208
G1 F1800 X13.378 Y-3.592 E41.96632
G0 F7200 X13.18 Y-3.224
G1 F1800 X13.477 Y-2.927 E41.98029
G0 F7200 X13.192 Y-2.646
G1 F1800 X12.981 Y-2.857 E41.99021
G0 F7200 X12.783 Y-2.489
G1 F1800 X12.908 Y-2.365 E41.99607
G0 F7200 X10.426 Y0.244
G1 F1800 X9.971 Y-.21 E42.01745
G0 F7200 X9.298 Y-.318
G1 F1800 X10.282 Y0.665 E42.06371
G0 F7200 X10.102 Y1.051
G1 F1800 X8.514 Y-.535 E42.13836
G0 F7200 X8.213 Y-.272
G1 F1800 X9.922 Y1.437 E42.21874
G0 F7200 X9.742 Y1.822
G1 F1800 X8.903 Y0.983 E42.25821
G1 X8.833 Y0.913
G0 F7200 X9.468 Y2.114
G1 F1800 X9.562 Y2.208 E42.26263
G0 F7200 X8.751 Y3.288
G0 X7.639 Y4.212
G0 X6.432 Y4.921
G0 X-0.008 Y6.779
G1 F1800 X-0.068 Y6.719 E42.26545
G0 F7200 X-.462 Y6.891
G1 F1800 X-.551 Y6.802 E42.26964
G0 F7200 X-.927 Y6.992
G1 F1800 X-1.036 Y6.882 E42.27479
G0 F7200 X-1.391 Y7.093
G1 F1800 X-1.538 Y6.946 E42.2817
G0 F7200 X-1.856 Y7.194
G1 F1800 X-2.068 Y6.982 E42.29167
G0 F7200 X-2.324 Y7.292
G1 F1800 X-2.62 Y6.996 E42.3056
G0 F7200 X-2.8 Y7.382
G1 F1800 X-3.262 Y6.919 E42.32735
G0 F7200 X-3.276 Y7.471
G1 F1800 X-3.875 Y6.872 E42.35553
G0 F7200 X-4.464 Y6.849
G1 F1800 X-3.753 Y7.56 E42.38897
G0 F7200 X-4.229 Y7.65
G1 F1800 X-5.053 Y6.825 E42.42775
G1 X-5.123 Y6.755
G0 F7200 X-5.286 Y7.724
G1 F1800 X-8.787 Y4.222 E42.59245
G1 X-8.857 Y4.152
G0 F7200 X-7.981 Y3.898
G1 F1800 X-15.253 Y-3.373 E42.93448
G0 F7200 X-15.483 Y-3.038
G1 F1800 X-7.458 Y4.986 E43.31193
G1 X-7.388 Y5.056
G0 F7200 X-7.979 Y5.596
G1 F1800 X-6.384 Y7.191 E43.38695
G1 X-6.314 Y7.261
G0 F7200 X-7.324 Y6.817
G1 F1800 X-7.587 Y6.554 E43.39932
G0 F7200 X-6.324 Y6.12
G1 F1800 X-4.717 Y7.727 E43.47491
G1 X-4.647 Y7.797
G0 F7200 X-8.234 Y3.078
G1 F1800 X-15.021 Y-3.708 E43.79413
G0 F7200 X-14.799 Y-4.051
G1 F1800 X-8.349 Y2.398 E44.09749
G0 F7200 X-8.5 Y1.681
G1 F1800 X-14.587 Y-4.405 E44.38378
G0 F7200 X-14.375 Y-4.758
G1 F1800 X-8.423 Y1.193 E44.66372
G0 F7200 X-8.281 Y0.769
G1 F1800 X-14.16 Y-5.109 E44.94023
G0 F7200 X-13.945 Y-5.46
G1 F1800 X-8.094 Y0.39 E45.21542
G0 F7200 X-7.908 Y0.011
G1 F1800 X-13.729 Y-5.81 E45.48922
G0 F7200 X-13.495 Y-6.141
G1 F1800 X-10.286 Y-2.933 E45.64014
G0 F7200 X-10.444 Y-3.656
G1 F1800 X-13.302 Y-6.514 E45.77457
G0 F7200 X-13.188 Y-6.965
G1 F1800 X-10.235 Y-4.012 E45.91347
G0 F7200 X-10.062 Y-4.405
G1 F1800 X-13.489 Y-7.832 E46.07467
G1 X-13.559 Y-7.902
G0 F7200 X-13.715 Y-8.623
G1 F1800 X-9.891 Y-4.799 E46.25454
G0 F7200 X-9.719 Y-5.193
G1 F1800 X-13.862 Y-9.337 E46.44943
G0 F7200 X-13.935 Y-9.975
G1 F1800 X-9.468 Y-5.508 E46.65955
G0 F7200 X-9.143 Y-5.749
G1 F1800 X-14.005 Y-10.611 E46.88824
G0 F7200 X-13.895 Y-11.066
G1 F1800 X-8.813 Y-5.984 E47.12728
G0 F7200 X-8.452 Y-6.19
G1 F1800 X-13.777 Y-11.514 E47.37773
G0 F7200 X-13.645 Y-11.947
G1 F1800 X-8.279 Y-6.582 E47.63011
G0 F7200 X-8.114 Y-6.983
G1 F1800 X-13.367 Y-12.235 E47.87717
G0 F7200 X-12.93 Y-12.365
G1 F1800 X-7.807 Y-7.241 E48.11816
G0 F7200 X-7.474 Y-7.474
G1 F1800 X-12.491 Y-12.491 E48.35415
G0 F7200 X-12.109 Y-12.674
G1 F1800 X-7.15 Y-7.716 E48.58738
G0 F7200 X-6.827 Y-7.959
G1 F1800 X-11.693 Y-12.824 E48.81624
G0 F7200 X-11.218 Y-12.915
G1 F1800 X-6.504 Y-8.201 E49.03797
G0 F7200 X-6.181 Y-8.444
G1 F1800 X-10.746 Y-13.009 E49.25269
G0 F7200 X-10.186 Y-13.015
G1 F1800 X-2.643 Y-5.472 E49.60749
G0 F7200 X-2.55 Y-5.944
G1 F1800 X-9.548 Y-12.942 E49.93666
G0 F7200 X-8.91 Y-12.87
G1 F1800 X-2.457 Y-6.417 E50.24019
G0 F7200 X-2.423 Y-6.948
G1 F1800 X-8.256 Y-12.782 E50.51458
G0 F7200 X-7.607 Y-12.698
G1 F1800 X-2.658 Y-7.749 E50.74736
G1 X-2.588 Y-7.679
G0 F7200 X-2.894 Y-8.551
G1 F1800 X-6.991 Y-12.648 E50.94007
G0 F7200 X-6.375 Y-12.597
G1 F1800 X-3.129 Y-9.352 E51.09273
G1 X-3.059 Y-9.282
G0 F7200 X-3.365 Y-10.153
G1 F1800 X-5.895 Y-12.683 E51.21174
G0 F7200 X-5.428 Y-12.782
G1 F1800 X-3.599 Y-10.953 E51.29777
G1 X-3.529 Y-10.883
G0 F7200 X-3.835 Y-11.754
G1 F1800 X-4.962 Y-12.882 E51.3508
G0 F7200 X-4.606 Y-13.092
G1 F1800 X-4.021 Y-12.506 E51.37834
G0 F7200 X-3.645 Y-12.696
G1 F1800 X-4.273 Y-13.324 E51.40788
G0 F7200 X-4.006 Y-13.623
G1 F1800 X-3.268 Y-12.885 E51.44259
G0 F7200 X-2.892 Y-13.074
G1 F1800 X-3.792 Y-13.975 E51.48495
G0 F7200 X-3.578 Y-14.326
G1 F1800 X-2.515 Y-13.263 E51.53495
G0 F7200 X-2.139 Y-13.453
G1 F1800 X-3.359 Y-14.673 E51.59233
G0 F7200 X-2.971 Y-14.851
G1 F1800 X-1.763 Y-13.642 E51.64918
G0 F7200 X-1.387 Y-13.832
G1 F1800 X-2.568 Y-15.013 E51.70473
G0 F7200 X-2.037 Y-15.048
G1 F1800 X-1.011 Y-14.021 E51.75301
G0 F7200 X-.634 Y-14.211
G1 F1800 X-1.461 Y-15.038 E51.79191
G1 X-1.531 Y-15.108
G0 F7200 X-.661 Y-14.803
G1 F1800 X-.258 Y-14.4 E51.81087
G0 F7200 X-3.168 Y-12.108
G0 X-5.667 Y-7.93
G1 F1800 X-2.737 Y-4.999 E51.94871
G0 F7200 X-3.09 Y-4.787
G1 F1800 X-5.383 Y-7.08 E52.05657
G1 X-5.453 Y-7.15
G0 F7200 X-5.1 Y-6.231
G1 F1800 X-3.488 Y-4.619 E52.13239
G0 F7200 X-3.886 Y-4.452
G1 F1800 X-4.937 Y-5.503 E52.18183
G0 F7200 X-4.888 Y-4.888
G1 F1800 X-4.285 Y-4.285 E52.21019
G0 F7200 X-4.683 Y-4.117
G1 F1800 X-4.908 Y-4.343 E52.2208
G0 F7200 X-6.653 Y-2.694
G1 F1800 X-6.494 Y-2.534 E52.2283
G0 F7200 X-6.728 Y-2.202
G1 F1800 X-7.053 Y-2.527 E52.24358
G0 F7200 X-7.526 Y-2.435
G1 F1800 X-6.927 Y-1.836 E52.27176
G0 F7200 X-7.126 Y-1.47
G1 F1800 X-8.038 Y-2.381 E52.31463
G0 F7200 X-8.55 Y-2.327
G1 F1800 X-7.326 Y-1.103 E52.37221
G0 F7200 X-7.525 Y-.737
G1 F1800 X-9.062 Y-2.274 E52.4445
G0 F7200 X-9.574 Y-2.22
G1 F1800 X-7.718 Y-.364 E52.5318
G1 X-7.648 Y-.294
G0 F7200 X-10.19 Y2.819
G1 F1800 X-15.713 Y-2.702 E52.79154
G0 F7200 X-15.942 Y-2.365
G1 F1800 X-11.252 Y2.323 E53.0121
G1 X-11.182 Y2.393
G0 F7200 X-12.411 Y1.73
G1 F1800 X-16.065 Y-1.923 E53.18395
G1 X-16.135 Y-1.993
G0 F7200 X-15.845 Y-1.137
G1 F1800 X-13.835 Y0.871 E53.27844
G1 X-13.765 Y0.941
G0 F7200 X-14.931 Y0.341
G1 F1800 X-15.567 Y-.294 E53.30834
G1 X-15.637 Y-.364
G0 F7200 X-3.168 Y-12.108
G0 X0.736 Y-14.537
;TYPE:SKIN
G1 F1800 X0.784 Y-14.489 E53.30947
G0 F7200 X0.838 Y-14.717
G1 F1800 X1.204 Y-14.352 E53.31806
G0 F7200 X1.268 Y-14.57
G1 F1800 X1.625 Y-14.213 E53.32646
G0 F7200 X1.699 Y-14.422
G1 F1800 X2.047 Y-14.074 E53.33464
G0 F7200 X2.117 Y-14.287
G1 F1800 X2.468 Y-13.936 E53.3429
G0 F7200 X2.479 Y-14.207
G1 F1800 X2.889 Y-13.797 E53.35254
G0 F7200 X2.841 Y-14.128
G1 F1800 X3.31 Y-13.659 E53.36357
G0 F7200 X3.565 Y-13.97
G1 F1800 X4.153 Y-13.382 E53.3774
G0 F7200 X4.372 Y-13.729
G1 F1800 X4.996 Y-13.105 E53.39207
G0 F7200 X5.213 Y-13.454
G1 F1800 X5.838 Y-12.829 E53.40677
G0 F7200 X6.054 Y-13.179
G1 F1800 X6.681 Y-12.551 E53.42153
G0 F7200 X6.898 Y-12.9
G1 F1800 X7.283 Y-12.515 E53.43059
G0 F7200 X7.102 Y-12.413
G1 F1800 X6.474 Y-13.041 E53.44536
G0 F7200 X6.26 Y-12.69
G1 F1800 X5.633 Y-13.316 E53.46009
G0 F7200 X5.417 Y-12.967
G1 F1800 X4.792 Y-13.592 E53.47479
G0 F7200 X4.574 Y-13.244
G1 F1800 X3.951 Y-13.867 E53.48944
G0 F7200 X3.732 Y-13.521
G1 F1800 X3.203 Y-14.049 E53.50187
G0 F7200 X7.322 Y-12.759
G1 F1800 X7.371 Y-12.71 E53.50302
G0 F7200 X10.335 Y-9.89
G0 X9.194 Y-7.152
G0 X7.842 Y-8.201
;TYPE:SKIN
G1 F1800 X8.047 Y-6.736 E53.55222
G1 X9.547 Y-6.543 E53.60252
G1 X10.487 Y-8.8 E53.68384
G1 X10.58 Y-8.382 E53.69809
G1 X10.919 Y-8.132 E53.7121
G1 X11.415 Y-7.606 E53.73614
G1 X10.334 Y-6.757 E53.78186
G1 X8.987 Y-5.312 E53.84756
G1 X8.531 Y-4.756 E53.87148
G1 X8.499 Y-4.701 E53.8736
G1 X7.943 Y-4.285 E53.89669
G1 X6.734 Y-2.683 E53.96345
G1 X6.709 Y-2.39 E53.97323
G1 X6.365 Y-3.166 E54.00146
G1 X6.317 Y-3.441 E54.01074
G1 X6.313 Y-3.835 E54.02385
G1 X6.436 Y-4.228 E54.03754
G1 X6.463 Y-5.129 E54.06753
G1 X6.175 Y-5.982 E54.09747
G1 X5.919 Y-6.549 E54.11816
G1 X6.432 Y-7.134 E54.14404
G1 X6.664 Y-7.395 E54.15565
G1 X7.842 Y-8.201 E54.20313
G0 F7200 X8.541 Y-7.236
G0 X10.441 Y-8.225
G1 F1800 X11.088 Y-7.579 E54.23354
G0 F7200 X10.771 Y-7.33
G1 F1800 X10.275 Y-7.826 E54.25687
G0 F7200 X10.109 Y-7.426
G1 F1800 X10.454 Y-7.081 E54.2731
G0 F7200 X10.149 Y-6.821
G1 F1800 X9.943 Y-7.027 E54.28279
G0 F7200 X9.777 Y-6.627
G1 F1800 X9.875 Y-6.529 E54.2874
G0 F7200 X9.602 Y-6.236
G1 F1800 X9.467 Y-6.371 E54.29375
G0 F7200 X9.329 Y-5.943
G1 F1800 X8.818 Y-6.455 E54.3178
G0 F7200 X8.169 Y-6.537
G1 F1800 X9.057 Y-5.65 E54.35955
G0 F7200 X8.788 Y-5.353
G1 F1800 X6.844 Y-7.298 E54.45101
G0 F7200 X6.564 Y-7.011
G1 F1800 X8.533 Y-5.043 E54.54361
G0 F7200 X8.261 Y-4.749
G1 F1800 X6.299 Y-6.711 E54.63589
G0 F7200 X6.295 Y-6.149
G1 F1800 X7.937 Y-4.507 E54.71313
G0 F7200 X7.664 Y-4.215
G1 F1800 X6.601 Y-5.277 E54.7631
G0 F7200 X6.628 Y-4.685
G1 F1800 X7.421 Y-3.892 E54.8004
G0 F7200 X7.177 Y-3.57
G1 F1800 X6.598 Y-4.149 E54.82764
G0 F7200 X6.493 Y-3.688
G1 F1800 X6.934 Y-3.247 E54.84838
G0 F7200 X7.847 Y-6.86
G1 F1800 X7.179 Y-7.527 E54.87978
G0 F7200 X7.515 Y-7.758
G1 F1800 X7.755 Y-7.517 E54.89109
G0 F7200 X8.541 Y-7.236
G0 X11.514 Y-7.435
;TYPE:SKIN
G1 F1800 X12.616 Y-6.334 E54.917
G0 F7200 X12.526 Y-6.706
G1 F1800 X11.672 Y-7.56 E54.93708
;MESH:NONMESH
G0 F600 X11.672 Y-7.56 Z0.9
G0 F7200 X12.679 Y-5.395
G0 X12.911 Y-4.267
G0 X8.103 Y5.222
G0 X8.628 Y5.629
;TIME_ELAPSED:61.008622
;LAYER:3
;TYPE:WALL-INNER
;MESH:bunny.stl
G1 F3600 X8.65 Y5.741 E54.94088
G1 X8.537 Y5.846 E54.94601
G1 X7.683 Y6.043 E54.97516
G1 X5.746 Y6.404 E55.04069
G1 X2.693 Y6.897 E55.14355
G1 X2.098 Y7.006 E55.16367
G1 X1.845 Y7.065 E55.17231
G1 X1.132 Y7.22 E55.19658
G1 X-1.855 Y7.846 E55.29809
G1 X-4.565 Y8.351 E55.38977
G1 X-5.266 Y8.459 E55.41336
G1 X-6.085 Y8.383 E55.44072
G1 X-6.208 Y8.319 E55.44533
G1 X-6.682 Y8.025 E55.46388
G1 X-7.174 Y7.767 E55.48236
G1 X-7.899 Y7.402 E55.50936
G1 X-8.507 Y5.746 E55.56803
G1 X-9.051 Y4.84 E55.60318
G1 X-9.297 Y4.286 E55.62334
G1 X-9.591 Y3.584 E55.64865
G1 X-10.298 Y3.273 E55.67434
G1 X-10.684 Y3.161 E55.68771
G1 X-11.427 Y2.843 E55.71459
G1 X-12.998 Y2.099 E55.77241
G1 X-13.439 Y1.915 E55.7883
G1 X-14.007 Y1.668 E55.8089
G1 X-14.896 Y1.14 E55.84329
G1 X-15.442 Y1.038 E55.86177
G1 X-15.835 Y0.723 E55.87852
G1 X-16.201 Y0.105 E55.90241
G1 X-16.378 Y-.352 E55.91871
G1 X-16.522 Y-.893 E55.93733
G1 X-16.644 Y-1.286 E55.95101
G1 X-16.745 Y-1.905 E55.97187
G1 X-16.449 Y-2.706 E56.00028
G1 X-16.121 Y-3.189 E56.01969
G1 X-15.768 Y-3.699 E56.04032
G1 X-14.937 Y-4.752 E56.08494
G1 X-14.642 Y-5.087 E56.09979
G1 X-13.832 Y-6.176 E56.14493
G1 X-13.598 Y-6.852 E56.16872
G1 X-13.686 Y-7.243 E56.18205
G1 X-14.001 Y-7.593 E56.19771
G1 X-14.237 Y-8.122 E56.21698
G1 X-14.443 Y-8.82 E56.24118
G1 X-14.674 Y-9.712 E56.27183
G1 X-14.738 Y-10.268 E56.29044
G1 X-14.816 Y-10.883 E56.31106
G1 X-14.793 Y-11.478 E56.33087
G1 X-14.534 Y-12.191 E56.3561
G1 X-14.402 Y-12.364 E56.36334
G1 X-14.24 Y-12.744 E56.37708
G1 X-13.843 Y-13.326 E56.40051
G1 X-13.36 Y-13.46 E56.41718
G1 X-12.782 Y-13.676 E56.4377
G1 X-12.446 Y-13.969 E56.45253
G1 X-12.247 Y-14.008 E56.45927
G1 X-11.447 Y-13.965 E56.48592
G1 X-10.152 Y-13.826 E56.52924
G1 X-7.42 Y-13.594 E56.62043
G1 X-6.771 Y-13.474 E56.64239
G1 X-6.11 Y-13.992 E56.67032
G1 X-4.275 Y-15.397 E56.74718
G1 X-3.152 Y-16.067 E56.79068
G1 X-2.385 Y-16.208 E56.81662
G1 X-1.233 Y-15.972 E56.85573
G1 X-.633 Y-15.771 E56.87677
G1 X-.2 Y-15.645 E56.89177
G1 X0.592 Y-15.373 E56.91962
G1 X1.184 Y-15.243 E56.93978
G1 X2.965 Y-14.799 E57.00083
G1 X5.056 Y-14.232 E57.07289
G1 X5.902 Y-13.934 E57.10272
G1 X8.421 Y-13.07 E57.1913
G1 X9.305 Y-12.796 E57.22208
G1 X9.528 Y-12.744 E57.2297
G1 X10.181 Y-12.131 E57.25949
G1 X10.531 Y-11.538 E57.28239
G1 X10.905 Y-10.545 E57.31768
G1 X11.093 Y-9.783 E57.34378
G1 X11.294 Y-8.768 E57.3782
G1 X12.01 Y-8.235 E57.40789
G1 X14.313 Y-5.798 E57.51941
G1 X15.262 Y-3.748 E57.59454
G1 X15.402 Y-3.36 E57.60826
G1 X15.099 Y-3.087 E57.62183
G1 X12.228 Y-.254 E57.75598
G1 X11.465 Y0.00 E57.78273
G1 X11.085 Y0.431 E57.80184
G1 X10.756 Y1.953 E57.85363
G1 X9.913 Y3.78 E57.92055
G1 X9.322 Y5.014 E57.96606
G1 X9.293 Y5.052 E57.96765
G1 X8.628 Y5.629 E57.99693
G0 F7200 X8.534 Y5.597
G0 X12.165 Y-3.372
G0 X11.549 Y-4.061
G0 X11.532 Y-3.963
G1 F3600 X10.619 Y-3.537 E58.03044
G1 X9.982 Y-2.826 E58.06219
G1 X9.754 Y-2.428 E58.07745
G1 X9.193 Y-2.01 E58.10072
G1 X9.331 Y-1.275 E58.12559
G1 X10.14 Y-1.049 E58.15353
G1 X10.612 Y-.98 E58.16939
G1 X10.996 Y-1.392 E58.18813
G1 X11.705 Y-2.47 E58.23104
G1 X12.126 Y-3.366 E58.26397
G1 X11.532 Y-3.963 E58.29198
G0 F7200 X11.549 Y-4.061
G0 X7.606 Y-10.023
G0 X7.507 Y-10.02
G1 F3600 X5.303 Y-11.313 E58.37697
G1 X1.315 Y-12.624 E58.51659
G1 X-1.466 Y-11.224 E58.62015
G1 X-.477 Y-7.855 E58.73693
G1 X-1.198 Y-4.211 E58.86048
G1 X-5.683 Y-2.326 E59.02229
G1 X-6.03 Y-1.779 E59.04384
G1 X-7.043 Y0.108 E59.11507
G1 X-7.363 Y0.756 E59.13911
G1 X-7.66 Y1.807 E59.17543
G1 X-7.41 Y2.996 E59.21584
G1 X-7.257 Y3.494 E59.23317
G1 X-6.843 Y4.398 E59.26624
G1 X-6.442 Y4.971 E59.2895
G1 X-5.828 Y5.544 E59.31743
G1 X-4.972 Y5.923 E59.34857
G1 X-4.681 Y6.041 E59.35902
G1 X-4.323 Y6.107 E59.37112
G1 X-3.118 Y6.252 E59.41149
G1 X-1.758 Y6.188 E59.45677
G1 X-.725 Y6.1 E59.49126
G1 X1.209 Y5.784 E59.55644
G1 X1.931 Y5.657 E59.58082
G1 X6.476 Y4.876 E59.7342
G1 X6.795 Y4.734 E59.74581
G1 X7.86 Y4.098 E59.78707
G1 X8.092 Y3.887 E59.7975
G1 X8.579 Y3.492 E59.81836
G1 X8.796 Y2.963 E59.83738
G1 X8.703 Y2.135 E59.86509
G1 X8.536 Y1.807 E59.87733
G1 X6.762 Y-1.011 E59.98808
G1 X6.407 Y-1.583 E60.01047
G1 X6.12 Y-2.082 E60.02962
G1 X6.039 Y-2.268 E60.03637
G1 X5.837 Y-2.89 E60.05812
G1 X5.705 Y-3.278 E60.07175
G1 X5.674 Y-3.873 E60.09157
G1 X5.586 Y-4.504 E60.11276
G1 X5.59 Y-4.719 E60.11991
G1 X5.138 Y-6.066 E60.16717
G1 X4.771 Y-6.875 E60.19671
G1 X4.397 Y-7.729 E60.22772
G1 X4.849 Y-8.222 E60.24997
G1 X7.507 Y-10.02 E60.3567
G0 F7200 X6.758 Y-9.996
;TYPE:WALL-OUTER
G1 F1800 X5.138 Y-10.946 E60.41916
G1 X1.347 Y-12.192 E60.55189
G1 X-.988 Y-11.017 E60.63883
G1 X-0.066 Y-7.875 E60.74774
G1 X-.847 Y-3.924 E60.88169
G1 X-5.412 Y-2.006 E61.04638
G1 X-5.684 Y-1.577 E61.06328
G1 X-6.687 Y0.291 E61.1338
G1 X-6.988 Y0.9 E61.15639
G1 X-7.248 Y1.821 E61.18822
G1 X-7.022 Y2.896 E61.22476
G1 X-6.882 Y3.351 E61.24059
G1 X-6.494 Y4.198 E61.27158
G1 X-6.138 Y4.707 E61.29223
G1 X-5.604 Y5.206 E61.31654
G1 X-4.816 Y5.555 E61.34521
G1 X-4.569 Y5.655 E61.35407
G1 X-4.263 Y5.711 E61.36442
G1 X-3.103 Y5.851 E61.40328
G1 X-1.784 Y5.789 E61.4472
G1 X-.774 Y5.703 E61.48091
G1 X1.142 Y5.39 E61.54548
G1 X1.861 Y5.263 E61.56977
G1 X6.359 Y4.49 E61.72156
G1 X6.611 Y4.378 E61.73074
G1 X7.621 Y3.775 E61.76986
G1 X7.84 Y3.576 E61.7797
G1 X8.248 Y3.246 E61.79716
G1 X8.387 Y2.906 E61.80937
G1 X8.314 Y2.252 E61.83126
G1 X8.188 Y2.005 E61.84048
G1 X6.422 Y-.8 E61.95073
G1 X6.067 Y-1.372 E61.97312
G1 X5.761 Y-1.905 E61.99356
G1 X5.667 Y-2.12 E62.00136
G1 X5.458 Y-2.763 E62.02385
G1 X5.309 Y-3.199 E62.03918
G1 X5.275 Y-3.835 E62.06036
G1 X5.185 Y-4.482 E62.08209
G1 X5.189 Y-4.658 E62.08794
G1 X4.765 Y-5.919 E62.13219
G1 X4.407 Y-6.71 E62.16107
G1 X3.926 Y-7.808 E62.20094
G1 X4.586 Y-8.526 E62.23338
G1 X6.758 Y-9.996 E62.32061
G0 F7200 X6.586 Y-10.097
G0 X6.839 Y-10.527
G0 X11.801 Y-3.833
G0 X11.447 Y-3.482
G1 F1800 X10.862 Y-3.209 E62.34208
G1 X10.308 Y-2.591 E62.36968
G1 X10.059 Y-2.156 E62.38635
G1 X9.632 Y-1.838 E62.40406
G1 X9.678 Y-1.593 E62.41235
G1 X10.223 Y-1.441 E62.43117
G1 X10.462 Y-1.406 E62.43921
G1 X10.68 Y-1.64 E62.44984
G1 X11.355 Y-2.666 E62.49069
G1 X11.645 Y-3.283 E62.51337
G1 X11.447 Y-3.482 E62.5227
G0 F7200 X11.266 Y-3.398
G0 X11.056 Y-3.851
G0 X9.156 Y-2.024
G0 X8.739 Y5.402
G0 X9.065 Y5.779
G1 F1800 X9.085 Y5.881 E62.52616
G1 X8.731 Y6.212 E62.54228
G1 X7.773 Y6.433 E62.57498
G1 X5.81 Y6.799 E62.64139
G1 X2.761 Y7.291 E62.74412
G1 X2.18 Y7.398 E62.76376
G1 X1.936 Y7.455 E62.7721
G1 X1.214 Y7.612 E62.79667
G1 X-1.773 Y8.237 E62.89817
G1 X-4.497 Y8.745 E62.99034
G1 X-5.254 Y8.862 E63.01581
G1 X-6.201 Y8.774 E63.04745
G1 X-6.403 Y8.668 E63.05503
G1 X-6.88 Y8.373 E63.07369
G1 X-7.357 Y8.123 E63.0916
G1 X-8.221 Y7.688 E63.12377
G1 X-8.869 Y5.919 E63.18643
G1 X-9.407 Y5.024 E63.22117
G1 X-9.663 Y4.448 E63.24213
G1 X-9.898 Y3.886 E63.26239
G1 X-10.435 Y3.65 E63.2819
G1 X-10.82 Y3.538 E63.29524
G1 X-11.598 Y3.205 E63.32338
G1 X-13.161 Y2.465 E63.3809
G1 X-13.599 Y2.282 E63.39669
G1 X-14.187 Y2.026 E63.41802
G1 X-15.039 Y1.52 E63.45098
G1 X-15.612 Y1.413 E63.47036
G1 X-16.118 Y1.019 E63.49169
G1 X-16.173 Y0.937 E63.49498
G1 X-16.562 Y0.281 E63.52035
G1 X-16.761 Y-.234 E63.53871
G1 X-16.907 Y-.783 E63.5576
G1 X-17.035 Y-1.198 E63.57205
G1 X-17.157 Y-1.944 E63.59719
G1 X-16.807 Y-2.892 E63.6308
G1 X-16.45 Y-3.417 E63.65192
G1 X-16.091 Y-3.935 E63.67288
G1 X-15.251 Y-5 E63.71799
G1 X-14.953 Y-5.339 E63.733
G1 X-14.19 Y-6.365 E63.77553
G1 X-14.013 Y-6.875 E63.79349
G1 X-14.053 Y-7.053 E63.79955
G1 X-14.34 Y-7.372 E63.81383
G1 X-14.615 Y-7.987 E63.83623
G1 X-14.827 Y-8.707 E63.8612
G1 X-15.068 Y-9.638 E63.89318
G1 X-15.135 Y-10.22 E63.91267
G1 X-15.217 Y-10.866 E63.93433
G1 X-15.191 Y-11.547 E63.95699
G1 X-15.035 Y-12.032 E63.97394
G1 X-14.883 Y-12.393 E63.98697
G1 X-14.75 Y-12.567 E63.99425
G1 X-14.592 Y-12.938 E64.00766
G1 X-14.141 Y-13.6 E64.0343
G1 X-13.987 Y-13.725 E64.0409
G1 X-13.476 Y-13.844 E64.05835
G1 X-12.99 Y-14.025 E64.0756
G1 X-12.627 Y-14.342 E64.09163
G1 X-12.279 Y-14.41 E64.10342
G1 X-11.404 Y-14.363 E64.13257
G1 X-10.114 Y-14.224 E64.17572
G1 X-7.376 Y-13.992 E64.26712
G1 X-6.876 Y-13.9 E64.28402
G1 X-6.353 Y-14.31 E64.30613
G1 X-4.504 Y-15.725 E64.38357
G1 X-3.297 Y-16.446 E64.43033
G1 X-2.777 Y-16.549 E64.44796
G1 X-2.378 Y-16.615 E64.46141
G1 X-1.132 Y-16.36 E64.50371
G1 X-.513 Y-16.153 E64.52542
G1 X-0.085 Y-16.028 E64.54025
G1 X0.7 Y-15.759 E64.56785
G1 X1.27 Y-15.634 E64.58726
G1 X3.07 Y-15.185 E64.64896
G1 X5.167 Y-14.616 E64.72123
G1 X6.033 Y-14.312 E64.75176
G1 X8.545 Y-13.45 E64.84009
G1 X9.41 Y-13.182 E64.87021
G1 X9.725 Y-13.108 E64.88097
G1 X10.507 Y-12.374 E64.91664
G1 X10.652 Y-12.077 E64.92764
G1 X10.888 Y-11.724 E64.94176
G1 X11.287 Y-10.664 E64.97943
G1 X11.485 Y-9.861 E65.00694
G1 X11.656 Y-8.997 E65.03623
G1 X12.278 Y-8.535 E65.062
G1 X14.648 Y-6.026 E65.17679
G1 X15.625 Y-3.916 E65.25413
G1 X15.813 Y-3.438 E65.27122
G1 X15.783 Y-3.165 E65.28035
G1 X15.374 Y-2.796 E65.29867
G1 X12.444 Y0.095 E65.43558
G1 X11.694 Y0.345 E65.46187
G1 X11.454 Y0.617 E65.47393
G1 X11.138 Y2.081 E65.52375
G1 X10.274 Y3.953 E65.59232
G1 X9.665 Y5.224 E65.6392
G1 X9.587 Y5.326 E65.64347
G1 X9.065 Y5.779 E65.66646
G0 F7200 X9.085 Y5.881
G0 X9.015 Y5.947
G0 X8.209 Y5.521
;TYPE:SKIN
G1 F1800 X7.611 Y5.659 E65.68687
G1 X5.646 Y6.025 E65.75335
G1 X2.627 Y6.513 E65.85507
G1 X2.018 Y6.624 E65.87566
G1 X1.701 Y6.698 E65.88648
G1 X1.156 Y6.816 E65.90503
G1 X-1.927 Y7.462 E66.0098
G1 X-4.635 Y7.967 E66.10142
G1 X-5.281 Y8.067 E66.12316
G1 X-5.972 Y8.003 E66.14624
G1 X-6.017 Y7.979 E66.14794
G1 X-6.489 Y7.686 E66.16642
G1 X-6.996 Y7.42 E66.18546
G1 X-7.586 Y7.123 E66.20743
G1 X-8.154 Y5.577 E66.26221
G1 X-8.702 Y4.664 E66.29762
G1 X-8.957 Y4.091 E66.31848
G1 X-9.291 Y3.29 E66.34735
G1 X-10.165 Y2.906 E66.3791
G1 X-10.543 Y2.796 E66.39219
G1 X-11.266 Y2.487 E66.41835
G1 X-12.84 Y1.742 E66.47627
G1 X-13.345 Y1.531 E66.49447
G1 X-13.829 Y1.321 E66.51202
G1 X-14.756 Y0.769 E66.5479
G1 X-15.276 Y0.672 E66.5655
G1 X-15.536 Y0.463 E66.57659
G1 X-15.85 Y-0.067 E66.59708
G1 X-16.008 Y-.476 E66.61166
G1 X-16.147 Y-1.001 E66.62973
G1 X-16.263 Y-1.372 E66.64265
G1 X-16.343 Y-1.866 E66.6593
G1 X-16.098 Y-2.529 E66.68281
G1 X-15.801 Y-2.967 E66.70041
G1 X-15.462 Y-3.457 E66.72023
G1 X-14.631 Y-4.51 E66.76484
G1 X-14.338 Y-4.841 E66.77954
G1 X-13.483 Y-5.991 E66.82721
G1 X-13.193 Y-6.829 E66.8567
G1 X-13.328 Y-7.428 E66.87712
G1 X-13.671 Y-7.81 E66.8942
G1 X-13.868 Y-8.252 E66.91029
G1 X-14.069 Y-8.931 E66.93385
G1 X-14.289 Y-9.783 E66.96311
G1 X-14.35 Y-10.315 E66.98092
G1 X-14.425 Y-10.893 E67.00031
G1 X-14.405 Y-11.402 E67.01725
G1 X-14.186 Y-12.004 E67.03856
G1 X-14.062 Y-12.167 E67.04537
G1 X-13.895 Y-12.557 E67.05948
G1 X-13.601 Y-12.989 E67.07686
G1 X-13.239 Y-13.089 E67.08935
G1 X-12.579 Y-13.335 E67.11278
G1 X-12.224 Y-13.616 E67.12784
G1 X-11.47 Y-13.575 E67.15295
G1 X-10.189 Y-13.438 E67.1958
G1 X-7.481 Y-13.208 E67.28619
G1 X-6.669 Y-13.059 E67.31365
G1 X-5.982 Y-13.599 E67.34272
G1 X-4.051 Y-15.076 E67.42358
G1 X-3.014 Y-15.695 E67.46374
G1 X-2.387 Y-15.81 E67.48495
G1 X-1.337 Y-15.595 E67.52059
G1 X-.75 Y-15.399 E67.54118
G1 X-.318 Y-15.273 E67.55614
G1 X0.487 Y-14.997 E67.58445
G1 X1.095 Y-14.864 E67.60515
G1 X2.863 Y-14.423 E67.66575
G1 X4.936 Y-13.861 E67.73719
G1 X5.774 Y-13.566 E67.76674
G1 X8.3 Y-12.699 E67.85557
G1 X9.203 Y-12.42 E67.887
G1 X9.336 Y-12.388 E67.89155
G1 X9.873 Y-11.884 E67.91605
G1 X10.18 Y-11.366 E67.93607
G1 X10.533 Y-10.426 E67.96947
G1 X10.711 Y-9.707 E67.9941
G1 X10.941 Y-8.545 E68.0335
G1 X11.745 Y-7.948 E68.06681
G1 X13.988 Y-5.576 E68.17539
G1 X14.895 Y-3.616 E68.24722
G1 X14.946 Y-3.474 E68.25224
G1 X14.832 Y-3.371 E68.25735
G1 X12.021 Y-.596 E68.38873
G1 X11.242 Y-.337 E68.41603
G1 X10.726 Y0.25 E68.44203
G1 X10.386 Y1.823 E68.49555
G1 X9.522 Y3.696 E68.56416
G1 X8.998 Y4.791 E68.60453
G1 X8.201 Y5.483 E68.63964
G1 X8.209 Y5.521 E68.64093
G0 F7200 X8.094 Y4.412
G1 F1800 X8.347 Y4.183 E68.65228
G1 X8.902 Y3.732 E68.67607
G1 X9.194 Y3.019 E68.70169
G1 X9.083 Y2.022 E68.73506
G1 X8.875 Y1.614 E68.75029
G1 X7.092 Y-1.219 E68.86162
G1 X6.742 Y-1.783 E68.8837
G1 X6.469 Y-2.258 E68.90192
G1 X6.405 Y-2.406 E68.90729
G1 X6.207 Y-3.013 E68.92852
G1 X6.093 Y-3.35 E68.94035
G1 X6.062 Y-3.91 E68.95901
G1 X5.976 Y-4.529 E68.97979
G1 X5.982 Y-4.779 E68.98811
G1 X5.501 Y-6.209 E69.03829
G1 X5.126 Y-7.036 E69.06849
G1 X4.855 Y-7.653 E69.09091
G1 X5.104 Y-7.924 E69.10315
G1 X8.238 Y-10.043 E69.22898
G1 X5.465 Y-11.67 E69.33591
G1 X1.284 Y-13.045 E69.4823
G1 X-1.932 Y-11.426 E69.60205
G1 X-.878 Y-7.836 E69.72649
G1 X-1.539 Y-4.49 E69.83993
G1 X-5.946 Y-2.638 E69.99893
G1 X-6.367 Y-1.976 E70.02502
G1 X-7.39 Y-0.071 E70.09694
G1 X-7.728 Y0.616 E70.12241
G1 X-8.062 Y1.793 E70.1631
G1 X-7.788 Y3.094 E70.20732
G1 X-7.622 Y3.633 E70.22608
G1 X-7.183 Y4.593 E70.26119
G1 X-6.738 Y5.228 E70.28698
G1 X-6.046 Y5.874 E70.31846
G1 X-5.124 Y6.282 E70.352
G1 X-4.791 Y6.417 E70.36395
G1 X-4.382 Y6.493 E70.37778
G1 X-3.132 Y6.644 E70.41966
G1 X-1.732 Y6.578 E70.46628
G1 X-.677 Y6.488 E70.50149
G1 X1.274 Y6.168 E70.56725
G1 X1.999 Y6.041 E70.59173
G1 X6.591 Y5.252 E70.7467
G1 X6.975 Y5.081 E70.76068
G1 X8.094 Y4.412 E70.80405
G0 F7200 X8.611 Y3.515
G0 X10.059 Y-.667
G1 F1800 X10.758 Y-.565 E70.82754
G1 X11.304 Y-1.15 E70.85416
G1 X12.046 Y-2.279 E70.89909
G1 X12.596 Y-3.448 E70.94206
G1 X11.616 Y-4.433 E70.98827
G1 X10.381 Y-3.857 E71.0336
G1 X9.664 Y-3.056 E71.06935
G1 X9.454 Y-2.69 E71.08339
G1 X8.764 Y-2.178 E71.11197
G1 X8.992 Y-.965 E71.15302
G1 X10.059 Y-.667 E71.18986
G0 F7200 X9.328 Y3.681
G1 F1800 X7.518 Y5.492 E71.27502
G0 F7200 X7.421 Y5.023
G1 F1800 X6.823 Y5.621 E71.30315
G0 F7200 X6.415 Y5.463
G1 F1800 X6.128 Y5.75 E71.31665
G0 F7200 X5.732 Y5.581
G1 F1800 X5.436 Y5.876 E71.33055
G0 F7200 X5.049 Y5.698
G1 F1800 X4.762 Y5.985 E71.34405
G0 F7200 X4.366 Y5.815
G1 F1800 X4.087 Y6.094 E71.35717
G0 F7200 X3.684 Y5.932
G1 F1800 X3.413 Y6.203 E71.36992
G0 F7200 X3 Y6.05
G1 F1800 X2.738 Y6.312 E71.38224
G0 F7200 X2.317 Y6.167
G1 F1800 X2.05 Y6.434 E71.3948
G0 F7200 X1.633 Y6.286
G1 F1800 X1.323 Y6.595 E71.40936
G0 F7200 X0.952 Y6.401
G1 F1800 X0.606 Y6.747 E71.42564
G0 F7200 X0.275 Y6.513
G1 F1800 X-.108 Y6.897 E71.44367
G0 F7200 X-.402 Y6.624
G1 F1800 X-.824 Y7.047 E71.46355
G0 F7200 X-1.042 Y6.699
G1 F1800 X-1.54 Y7.196 E71.48695
G0 F7200 X-1.66 Y6.751
G1 F1800 X-2.247 Y7.338 E71.51456
G0 F7200 X-2.257 Y6.782
G1 F1800 X-2.942 Y7.468 E71.5468
G0 F7200 X-2.85 Y6.81
G1 F1800 X-3.638 Y7.597 E71.58384
G0 F7200 X-4.333 Y7.727
G1 F1800 X-3.398 Y6.792 E71.62782
G0 F7200 X-3.903 Y6.731
G1 F1800 X-5.015 Y7.843 E71.68013
G0 F7200 X-5.594 Y7.857
G1 F1800 X-4.408 Y6.67 E71.73594
G0 F7200 X-4.877 Y6.574
G1 F1800 X-6.05 Y7.747 E71.79111
G0 F7200 X-6.398 Y7.529
G1 F1800 X-5.278 Y6.409 E71.84379
G0 F7200 X-5.67 Y6.235
G1 F1800 X-6.769 Y7.335 E71.89551
G0 F7200 X-7.143 Y7.143
G1 F1800 X-6.062 Y6.062 E71.94636
G0 F7200 X-6.375 Y5.81
G1 F1800 X-7.472 Y6.907 E71.99796
G0 F7200 X-7.624 Y6.493
G1 F1800 X-6.668 Y5.537 E72.04293
G0 F7200 X-6.944 Y5.247
G1 F1800 X-7.776 Y6.079 E72.08206
G0 F7200 X-7.928 Y5.666
G1 F1800 X-7.177 Y4.915 E72.11738
G0 F7200 X-7.393 Y4.565
G1 F1800 X-8.116 Y5.288 E72.15139
G0 F7200 X-8.329 Y4.934
G1 F1800 X-7.57 Y4.176 E72.18707
G0 F7200 X-7.748 Y3.788
G1 F1800 X-8.541 Y4.581 E72.22437
G0 F7200 X-8.715 Y4.189
G1 F1800 X-7.892 Y3.366 E72.26308
G0 F7200 X-8.008 Y2.917
G1 F1800 X-8.884 Y3.793 E72.30429
G0 F7200 X-9.05 Y3.394
G1 F1800 X-8.106 Y2.45 E72.34869
G0 F7200 X-8.205 Y1.982
G1 F1800 X-9.308 Y3.085 E72.40057
G0 F7200 X-9.701 Y2.913
G1 F1800 X-8.116 Y1.328 E72.47512
G1 X-8.046 Y1.258
G0 F7200 X-7.885 Y0.531
G1 F1800 X-10.094 Y2.74 E72.57903
G0 F7200 X-10.527 Y2.607
G1 F1800 X-7.297 Y-.622 E72.73093
G1 X-7.227 Y-.692
G0 F7200 X-6.642 Y-1.842
G1 F1800 X-10.923 Y2.438 E72.93228
G0 F7200 X-11.315 Y2.264
G1 F1800 X-1.1 Y-7.95 E73.41273
G0 F7200 X-1.228 Y-8.387
G1 F1800 X-11.699 Y2.082 E73.90521
G0 F7200 X-12.083 Y1.9
G1 F1800 X-1.356 Y-8.825 E74.40973
G0 F7200 X-1.485 Y-9.262
G1 F1800 X-12.466 Y1.718 E74.92622
G0 F7200 X-12.854 Y1.54
G1 F1800 X-1.613 Y-9.7 E75.45494
G0 F7200 X-1.742 Y-10.137
G1 F1800 X-13.254 Y1.374 E75.9964
G0 F7200 X-13.648 Y1.203
G1 F1800 X-1.87 Y-10.574 E76.55038
G0 F7200 X-1.998 Y-11.012
G1 F1800 X-14.012 Y1.001 E77.11546
G0 F7200 X-14.367 Y0.791
G1 F1800 X-2.126 Y-11.449 E77.69121
G0 F7200 X-1.967 Y-11.608
G1 F1800 X1.1 Y-14.677 E77.83552
G0 F7200 X1.553 Y-14.564
G1 F1800 X-.828 Y-12.182 E77.94754
G1 X-.898 Y-12.112
G0 F7200 X0.31 Y-12.755
G1 F1800 X2.006 Y-14.451 E78.02732
G0 F7200 X2.458 Y-14.338
G1 F1800 X1.336 Y-13.215 E78.08012
G0 F7200 X1.762 Y-13.075
G1 F1800 X2.909 Y-14.223 E78.13409
G0 F7200 X3.355 Y-14.103
G1 F1800 X2.187 Y-12.935 E78.18903
G0 F7200 X2.613 Y-12.795
G1 F1800 X3.799 Y-13.982 E78.24484
G0 F7200 X4.244 Y-13.861
G1 F1800 X3.039 Y-12.655 E78.30154
G0 F7200 X3.464 Y-12.515
G1 F1800 X4.69 Y-13.741 E78.35921
G0 F7200 X5.119 Y-13.604
G1 F1800 X3.89 Y-12.375 E78.41702
G0 F7200 X4.316 Y-12.235
G1 F1800 X5.538 Y-13.457 E78.4745
G0 F7200 X5.958 Y-13.311
G1 F1800 X4.741 Y-12.095 E78.53172
G0 F7200 X5.166 Y-11.955
G1 F1800 X6.379 Y-13.167 E78.58875
G0 F7200 X6.8 Y-13.023
G1 F1800 X5.584 Y-11.806 E78.64597
G0 F7200 X5.941 Y-11.597
G1 F1800 X7.221 Y-12.878 E78.7062
G0 F7200 X7.643 Y-12.734
G1 F1800 X6.297 Y-11.388 E78.76951
G0 F7200 X6.653 Y-11.179
G1 F1800 X8.063 Y-12.589 E78.83583
G0 F7200 X8.491 Y-12.451
G1 F1800 X7.01 Y-10.97 E78.9055
G0 F7200 X7.367 Y-10.761
G1 F1800 X8.923 Y-12.317 E78.97869
G0 F7200 X9.323 Y-12.152
G1 F1800 X7.723 Y-10.552 E79.05394
G0 F7200 X8.08 Y-10.343
G1 F1800 X9.615 Y-11.878 E79.12615
G0 F7200 X9.857 Y-11.554
G1 F1800 X8.437 Y-10.134 E79.19294
G0 F7200 X7.899 Y-9.596
G1 F1800 X5.328 Y-7.025 E79.31387
G0 F7200 X5.504 Y-6.636
G1 F1800 X10.054 Y-11.185 E79.52787
G0 F7200 X10.209 Y-10.774
G1 F1800 X5.678 Y-6.244 E79.74097
G0 F7200 X5.821 Y-5.821
G1 F1800 X10.362 Y-10.362 E79.95456
G0 F7200 X10.474 Y-9.908
G1 F1800 X5.963 Y-5.398 E80.16672
G0 F7200 X6.105 Y-4.974
G1 F1800 X10.577 Y-9.446 E80.37707
G0 F7200 X10.67 Y-8.973
G1 F1800 X6.165 Y-4.468 E80.58897
G0 F7200 X6.234 Y-3.971
G1 F1800 X10.764 Y-8.502 E80.80207
G0 F7200 X11.06 Y-8.232
G1 F1800 X6.268 Y-3.44 E81.02747
G0 F7200 X6.398 Y-3.004
G1 F1800 X11.385 Y-7.991 E81.26205
G0 F7200 X11.696 Y-7.736
G1 F1800 X6.537 Y-2.577 E81.50471
G0 F7200 X6.715 Y-2.189
G1 F1800 X11.971 Y-7.445 E81.75194
G0 F7200 X12.246 Y-7.155
G1 F1800 X6.922 Y-1.831 E82.00236
G0 F7200 X7.139 Y-1.482
G1 F1800 X12.52 Y-6.863 E82.25547
G0 F7200 X12.795 Y-6.573
G1 F1800 X7.357 Y-1.134 E82.51128
G0 F7200 X7.575 Y-.787
G1 F1800 X8.64 Y-1.852 E82.56137
G0 F7200 X8.73 Y-1.376
G1 F1800 X7.794 Y-.44 E82.6054
G0 F7200 X8.012 Y-0.093
G1 F1800 X8.819 Y-.9 E82.64336
G0 F7200 X9.203 Y-.718
G1 F1800 X8.231 Y0.253 E82.68905
G0 F7200 X8.449 Y0.601
G1 F1800 X9.646 Y-.595 E82.74533
G0 F7200 X10.096 Y-.48
G1 F1800 X8.668 Y0.948 E82.8125
G0 F7200 X8.886 Y1.295
G1 F1800 X10.59 Y-.408 E82.89263
G0 F7200 X10.552 Y0.195
G1 F1800 X9.096 Y1.651 E82.96111
G0 F7200 X9.266 Y2.047
G1 F1800 X10.397 Y0.916 E83.01431
G0 F7200 X10.241 Y1.637
G1 F1800 X9.322 Y2.556 E83.05754
G0 F7200 X9.813 Y2.631
G1 F1800 X9.359 Y3.085 E83.0789
G0 F7200 X11.292 Y-.544
G1 F1800 X14.589 Y-3.841 E83.23398
G0 F7200 X14.41 Y-4.228
G1 F1800 X11.875 Y-1.692 E83.35324
G1 X11.805 Y-1.622
G0 F7200 X12.554 Y-2.938
G1 F1800 X14.232 Y-4.615 E83.43214
G0 F7200 X14.053 Y-5.002
G1 F1800 X12.675 Y-3.624 E83.49696
G0 F7200 X12.393 Y-3.908
G1 F1800 X13.874 Y-5.389 E83.56662
G0 F7200 X13.62 Y-5.701
G1 F1800 X12.111 Y-4.191 E83.63762
G0 F7200 X11.829 Y-4.475
G1 F1800 X13.345 Y-5.992 E83.70896
G0 F7200 X13.07 Y-6.282
G1 F1800 X11.249 Y-4.461 E83.79461
G1 X11.179 Y-4.391
G0 F7200 X6.151 Y-8.413
G1 F1800 X5.154 Y-7.417 E83.84148
G1 X5.084 Y-7.347
G0 F7200 X7.546 Y-10.021
G0 X5.319 Y-11.349
G0 X1.313 Y-12.663
G0 X-1.502 Y-11.239
G0 X-1.163 Y-7.322
G1 F1800 X-5.439 Y-3.045 E84.04264
G1 X-5.509 Y-2.975
G0 F7200 X-4.463 Y-3.455
G1 F1800 X-1.302 Y-6.617 E84.19134
G0 F7200 X-1.441 Y-5.912
G1 F1800 X-3.488 Y-3.865 E84.28763
G1 X-3.558 Y-3.795
G0 F7200 X-2.512 Y-4.275
G1 F1800 X-1.581 Y-5.207 E84.33144
G1 X-1.511 Y-5.277
G0 F7200 X-6.883 Y-12.915
G1 F1800 X-13.017 Y-6.781 E84.61997
G0 F7200 X-13.104 Y-7.259
G1 F1800 X-7.361 Y-13.002 E84.8901
G0 F7200 X-7.87 Y-13.06
G1 F1800 X-13.282 Y-7.648 E85.14466
G0 F7200 X-13.538 Y-7.957
G1 F1800 X-8.391 Y-13.104 E85.38676
G0 F7200 X-8.913 Y-13.148
G1 F1800 X-13.708 Y-8.353 E85.6123
G0 F7200 X-13.838 Y-8.789
G1 F1800 X-9.434 Y-13.193 E85.81946
G0 F7200 X-9.956 Y-13.237
G1 F1800 X-13.959 Y-9.233 E86.00777
G0 F7200 X-14.076 Y-9.682
G1 F1800 X-10.471 Y-13.287 E86.17734
G0 F7200 X-10.982 Y-13.341
G1 F1800 X-14.151 Y-10.173 E86.32637
G0 F7200 X-14.214 Y-10.675
G1 F1800 X-11.494 Y-13.396 E86.45434
G0 F7200 X-12.031 Y-13.424
G1 F1800 X-14.229 Y-11.226 E86.55772
G1 X-14.299 Y-11.156
G0 F7200 X-13.873 Y-12.148
G1 F1800 X-13.056 Y-12.964 E86.59613
G1 X-12.986 Y-13.034
G0 F7200 X-13.316 Y-5.916
G1 F1800 X-5.473 Y-13.759 E86.96504
G1 X-5.403 Y-13.829
G0 F7200 X-3.433 Y-15.233
G1 F1800 X-15.309 Y-3.358 E87.52363
G1 X-15.379 Y-3.288
G0 F7200 X-16.1 Y-2.001
G1 F1800 X-2.496 Y-15.605 E88.16352
G0 F7200 X-1.991 Y-15.544
G1 F1800 X-16.091 Y-1.444 E88.82674
G0 F7200 X-15.962 Y-1.008
G1 F1800 X-1.522 Y-15.448 E89.50595
G0 F7200 X-1.084 Y-15.32
G1 F1800 X-15.844 Y-.56 E90.20022
G0 F7200 X-15.687 Y-.151
G1 F1800 X-.655 Y-15.183 E90.90728
G0 F7200 X-.222 Y-15.05
G1 F1800 X-15.477 Y0.204 E91.6248
G0 F7200 X-15.205 Y0.497
G1 F1800 X0.197 Y-14.905 E92.34926
G0 F7200 X0.637 Y-14.779
G1 F1800 X-14.733 Y0.591 E93.07222
G1 X-14.803 Y0.661
;MESH:NONMESH
G0 F600 X-14.803 Y0.661 Z1.1
G0 F7200 X-1.024 Y-11.032
G0 X1.345 Y-12.231
G0 X5.154 Y-10.982
G0 X6.797 Y-9.997
G0 X5.258 Y-8.861
G0 X4.719 Y-9.657
;TIME_ELAPSED:100.995943
;LAYER:4
;TYPE:WALL-INNER
;MESH:bunny.stl
G1 F3600 X3.389 Y-10.44 E93.12355
G1 X1.83 Y-10.953 E93.17814
G1 X0.438 Y-10.254 E93.22995
G1 X0.843 Y-8.877 E93.27769
G1 X-.141 Y-3.9 E93.44643
G1 X-3.035 Y-2.683 E93.55085
G1 X-4.477 Y-2.237 E93.60105
G1 X-5.578 Y-1.848 E93.63989
G1 X-5.988 Y-1.363 E93.66101
G1 X-6.177 Y-.951 E93.67609
G1 X-6.912 Y0.421 E93.72786
G1 X-7.034 Y0.806 E93.74129
G1 X-7.37 Y2.012 E93.78293
G1 X-7.145 Y2.955 E93.81517
G1 X-6.82 Y3.81 E93.8456
G1 X-6.594 Y4.229 E93.86143
G1 X-6.21 Y4.771 E93.88352
G1 X-5.663 Y5.286 E93.90851
G1 X-5.378 Y5.568 E93.92185
G1 X-4.555 Y5.897 E93.95132
G1 X-3.616 Y6.07 E93.98308
G1 X-1.653 Y5.973 E94.04845
G1 X-.461 Y5.872 E94.08824
G1 X-0.046 Y5.842 E94.10208
G1 X2.063 Y5.507 E94.1731
G1 X5.507 Y4.921 E94.2893
G1 X6.142 Y4.754 E94.31114
G1 X6.748 Y4.57 E94.3322
G1 X7.532 Y4.112 E94.3624
G1 X7.717 Y3.959 E94.37038
G1 X8.243 Y3.572 E94.3921
G1 X8.376 Y3.2 E94.40524
G1 X8.531 Y2.976 E94.4143
G1 X8.383 Y2.12 E94.4432
G1 X8.288 Y1.86 E94.4524
G1 X8.079 Y1.515 E94.46582
G1 X6.555 Y-.905 E94.56094
G1 X6.173 Y-1.549 E94.58584
G1 X5.772 Y-2.461 E94.61898
G1 X5.646 Y-2.839 E94.63223
G1 X5.465 Y-3.351 E94.65029
G1 X5.441 Y-3.683 E94.66137
G1 X5.359 Y-4.277 E94.68131
G1 X4.803 Y-5.647 E94.73049
G1 X4.513 Y-6.285 E94.75379
G1 X3.822 Y-7.766 E94.80815
G1 X3.387 Y-8.759 E94.84421
G1 X4.719 Y-9.657 E94.89764
G0 F7200 X4.818 Y-9.66
G0 X11.576 Y-8.872
G0 X11.66 Y-8.925
G1 F3600 X12.847 Y-8.038 E94.94692
G1 X14.72 Y-6.056 E95.03762
G1 X15.492 Y-4.391 E95.09866
G1 X15.843 Y-3.497 E95.13061
G1 X15.797 Y-3.068 E95.14496
G1 X15.024 Y-2.372 E95.17955
G1 X12.998 Y-.372 E95.27424
G1 X11.665 Y0.072 E95.32097
G1 X11.152 Y0.65 E95.34668
G1 X10.582 Y3.287 E95.43641
G1 X10.131 Y4.263 E95.47217
G1 X9.818 Y4.916 E95.49625
G1 X9.618 Y5.179 E95.50724
G1 X8.973 Y5.881 E95.53895
G1 X8.821 Y6.016 E95.54571
G1 X5.92 Y6.49 E95.64348
G1 X4.518 Y6.713 E95.6907
G1 X3.146 Y6.922 E95.73686
G1 X2.344 Y7.018 E95.76372
G1 X1.959 Y7.075 E95.77667
G1 X-1.628 Y7.824 E95.89854
G1 X-3.528 Y8.18 E95.96284
G1 X-4.32 Y8.336 E95.98969
G1 X-4.921 Y8.467 E96.01014
G1 X-5.102 Y8.476 E96.01617
G1 X-5.778 Y8.546 E96.03878
G1 X-6.41 Y8.197 E96.06279
G1 X-6.743 Y8.022 E96.0753
G1 X-7.342 Y7.721 E96.0976
G1 X-7.785 Y7.419 E96.11543
G1 X-7.926 Y7.256 E96.1226
G1 X-8.32 Y6.195 E96.16024
G1 X-8.496 Y5.71 E96.1774
G1 X-8.635 Y5.48 E96.18634
G1 X-9.046 Y4.553 E96.22007
G1 X-9.241 Y4.095 E96.23662
G1 X-9.465 Y3.542 E96.25647
G1 X-10.074 Y3.231 E96.27921
G1 X-10.483 Y3.092 E96.29358
G1 X-11.106 Y2.908 E96.31518
G1 X-12.376 Y2.366 E96.36111
G1 X-12.509 Y2.303 E96.36601
G1 X-13.77 Y1.774 E96.41149
G1 X-14.931 Y1.267 E96.45362
G1 X-15.466 Y1.038 E96.47298
G1 X-15.628 Y0.913 E96.47979
G1 X-16.024 Y0.328 E96.50328
G1 X-16.212 Y0.011 E96.51554
G1 X-16.466 Y-.643 E96.53887
G1 X-16.606 Y-1.225 E96.55878
G1 X-16.728 Y-1.926 E96.58245
G1 X-16.379 Y-2.88 E96.61624
G1 X-16.148 Y-3.192 E96.62915
G1 X-15.043 Y-4.571 E96.68792
G1 X-14.491 Y-5.151 E96.71455
G1 X-13.704 Y-6.002 E96.75311
G1 X-13.428 Y-6.787 E96.78078
G1 X-13.531 Y-7.233 E96.79601
G1 X-14.058 Y-7.822 E96.82229
G1 X-14.383 Y-8.55 E96.84881
G1 X-14.496 Y-8.798 E96.85788
G1 X-14.91 Y-10.387 E96.91249
G1 X-14.92 Y-10.526 E96.91713
G1 X-14.875 Y-11.662 E96.95494
G1 X-14.719 Y-12.22 E96.97421
G1 X-14.396 Y-12.667 E96.99255
G1 X-14.115 Y-13.253 E97.01417
G1 X-13.553 Y-13.725 E97.03858
G1 X-13.016 Y-14.001 E97.05866
G1 X-11.995 Y-14.217 E97.09337
G1 X-10.326 Y-13.959 E97.14954
G1 X-9.188 Y-13.862 E97.18753
G1 X-7.398 Y-13.532 E97.24807
G1 X-6.877 Y-13.43 E97.26572
G1 X-6.437 Y-13.649 E97.28207
G1 X-5.906 Y-14.214 E97.30786
G1 X-4.861 Y-15.04 E97.35216
G1 X-4.611 Y-15.288 E97.36387
G1 X-3.883 Y-15.922 E97.39598
G1 X-3.315 Y-16.337 E97.41938
G1 X-2.865 Y-16.412 E97.43455
G1 X-2.506 Y-16.405 E97.4465
G1 X-1.498 Y-16.199 E97.48072
G1 X-.576 Y-15.972 E97.5123
G1 X-0.025 Y-15.817 E97.53133
G1 X0.512 Y-15.691 E97.54968
G1 X4.192 Y-14.774 E97.67582
G1 X4.678 Y-14.643 E97.69256
G1 X6.967 Y-13.838 E97.77327
G1 X8.392 Y-13.351 E97.82335
G1 X8.904 Y-13.192 E97.84118
G1 X9.694 Y-13.009 E97.86815
G1 X9.91 Y-12.92 E97.87592
G1 X10.528 Y-12.277 E97.90559
G1 X10.636 Y-12.168 E97.91069
G1 X10.888 Y-11.711 E97.92805
G1 X11.331 Y-10.505 E97.97078
G1 X11.39 Y-10.271 E97.97881
G1 X11.66 Y-8.925 E98.02447
G0 F7200 X12.022 Y-9.154
;TYPE:WALL-OUTER
G1 F1800 X13.116 Y-8.336 E98.0699
G1 X15.055 Y-6.285 E98.16378
G1 X15.855 Y-4.559 E98.22705
G1 X16.252 Y-3.55 E98.26311
G1 X16.178 Y-2.873 E98.28577
G1 X15.299 Y-2.081 E98.32512
G1 X13.214 Y-0.023 E98.42256
G1 X11.893 Y0.418 E98.46888
G1 X11.521 Y0.837 E98.48751
G1 X10.964 Y3.414 E98.5752
G1 X10.492 Y4.436 E98.61265
G1 X10.161 Y5.126 E98.6381
G1 X9.924 Y5.438 E98.65113
G1 X9.261 Y6.16 E98.68373
G1 X9.006 Y6.386 E98.69507
G1 X8.924 Y6.405 E98.69787
G1 X5.984 Y6.885 E98.79695
G1 X4.581 Y7.108 E98.84419
G1 X3.193 Y7.319 E98.89089
G1 X2.397 Y7.414 E98.91755
G1 X2.03 Y7.469 E98.9299
G1 X-1.546 Y8.216 E99.0514
G1 X-3.453 Y8.573 E99.11593
G1 X-4.239 Y8.728 E99.14258
G1 X-4.864 Y8.864 E99.16385
G1 X-5.071 Y8.875 E99.17075
G1 X-5.861 Y8.957 E99.19716
G1 X-6.6 Y8.549 E99.22524
G1 X-6.926 Y8.378 E99.23748
G1 X-7.548 Y8.065 E99.26064
G1 X-8.053 Y7.721 E99.28096
G1 X-8.276 Y7.462 E99.29233
G1 X-8.695 Y6.334 E99.33235
G1 X-8.859 Y5.883 E99.34832
G1 X-8.991 Y5.664 E99.35682
G1 X-9.412 Y4.715 E99.39135
G1 X-9.609 Y4.252 E99.40809
G1 X-9.78 Y3.83 E99.42323
G1 X-10.23 Y3.6 E99.44004
G1 X-10.604 Y3.473 E99.45318
G1 X-11.24 Y3.286 E99.47522
G1 X-12.533 Y2.734 E99.52199
G1 X-12.672 Y2.668 E99.5271
G1 X-13.925 Y2.143 E99.57229
G1 X-15.09 Y1.634 E99.61457
G1 X-15.67 Y1.386 E99.63555
G1 X-15.923 Y1.19 E99.6462
G1 X-16.364 Y0.539 E99.67235
G1 X-16.574 Y0.185 E99.68604
G1 X-16.847 Y-.517 E99.71109
G1 X-16.974 Y-.961 E99.72645
G1 X-17.001 Y-1.164 E99.73326
G1 X-17.141 Y-1.964 E99.76028
G1 X-16.735 Y-3.071 E99.79949
G1 X-16.47 Y-3.43 E99.81433
G1 X-15.345 Y-4.833 E99.87415
G1 X-14.783 Y-5.425 E99.9013
G1 X-14.054 Y-6.213 E99.937
G1 X-13.844 Y-6.81 E99.95805
G1 X-13.898 Y-7.043 E99.96601
G1 X-14.397 Y-7.601 E99.9909
G1 X-14.748 Y-8.386 E100.0195
G1 X-14.874 Y-8.663 E100.02963
G1 X-15.306 Y-10.322 E100.08664
G1 X-15.321 Y-10.521 E100.09328
G1 X-15.273 Y-11.723 E100.13329
G1 X-15.097 Y-12.352 E100.15502
G1 X-15.041 Y-12.488 E100.15991
G1 X-14.744 Y-12.871 E100.17603
G1 X-14.56 Y-13.307 E100.19177
G1 X-14.417 Y-13.521 E100.20033
G1 X-13.773 Y-14.062 E100.2283
G1 X-13.153 Y-14.381 E100.25149
G1 X-12.006 Y-14.623 E100.29048
G1 X-10.279 Y-14.356 E100.34861
G1 X-9.144 Y-14.26 E100.38649
G1 X-7.321 Y-13.925 E100.44814
G1 X-6.933 Y-13.849 E100.46129
G1 X-6.679 Y-13.975 E100.47072
G1 X-6.179 Y-14.508 E100.49503
G1 X-5.127 Y-15.34 E100.53964
G1 X-4.881 Y-15.584 E100.55116
G1 X-4.137 Y-16.232 E100.58398
G1 X-3.473 Y-16.717 E100.61132
G1 X-2.896 Y-16.813 E100.63078
G1 X-2.461 Y-16.804 E100.64525
G1 X-1.418 Y-16.591 E100.68066
G1 X-.467 Y-16.357 E100.71323
G1 X0.075 Y-16.204 E100.73196
G1 X0.609 Y-16.079 E100.7502
G1 X4.289 Y-15.162 E100.87634
G1 X4.797 Y-15.025 E100.89384
G1 X7.098 Y-14.216 E100.97497
G1 X8.516 Y-13.731 E101.02481
G1 X9.008 Y-13.578 E101.04195
G1 X9.812 Y-13.393 E101.06939
G1 X10.142 Y-13.256 E101.08127
G1 X10.814 Y-12.556 E101.11355
G1 X10.958 Y-12.411 E101.12034
G1 X11.252 Y-11.878 E101.14059
G1 X11.716 Y-10.615 E101.18534
G1 X11.778 Y-10.369 E101.19378
G1 X12.022 Y-9.154 E101.235
G0 F7200 X12.182 Y-9.035
G0 X11.883 Y-8.635
G0 X4.223 Y-10.064
G0 X3.969 Y-9.634
G1 F1800 X3.223 Y-10.073 E101.26379
G1 X1.862 Y-10.521 E101.31144
G1 X0.916 Y-10.046 E101.34665
G1 X1.254 Y-8.897 E101.38649
G1 X0.21 Y-3.613 E101.56563
G1 X-2.894 Y-2.308 E101.67762
G1 X-4.351 Y-1.857 E101.72835
G1 X-5.342 Y-1.507 E101.76331
G1 X-5.647 Y-1.146 E101.77903
G1 X-5.824 Y-.762 E101.79309
G1 X-6.542 Y0.577 E101.84362
G1 X-6.65 Y0.92 E101.85558
G1 X-6.957 Y2.02 E101.89357
G1 X-6.762 Y2.837 E101.92151
G1 X-6.455 Y3.643 E101.95019
G1 X-6.253 Y4.018 E101.96436
G1 X-5.907 Y4.507 E101.98428
G1 X-5.381 Y5.002 E102.00831
G1 X-5.154 Y5.227 E102.01894
G1 X-4.444 Y5.511 E102.04437
G1 X-3.589 Y5.668 E102.07328
G1 X-1.68 Y5.574 E102.13685
G1 X-.495 Y5.473 E102.17641
G1 X-0.092 Y5.444 E102.18985
G1 X1.998 Y5.112 E102.26023
G1 X5.422 Y4.53 E102.37575
G1 X6.033 Y4.369 E102.39677
G1 X6.587 Y4.201 E102.41602
G1 X7.302 Y3.783 E102.44357
G1 X7.461 Y3.651 E102.45044
G1 X7.908 Y3.322 E102.4689
G1 X8.019 Y3.013 E102.47982
G1 X8.109 Y2.883 E102.48508
G1 X7.995 Y2.223 E102.50736
G1 X7.926 Y2.034 E102.51405
G1 X7.739 Y1.725 E102.52606
G1 X6.211 Y-.701 E102.62142
G1 X5.817 Y-1.365 E102.6471
G1 X5.4 Y-2.313 E102.68155
G1 X5.268 Y-2.709 E102.69543
G1 X5.07 Y-3.27 E102.71522
G1 X5.043 Y-3.641 E102.72759
G1 X4.97 Y-4.173 E102.74545
G1 X4.435 Y-5.489 E102.7927
G1 X4.15 Y-6.118 E102.81567
G1 X3.46 Y-7.597 E102.86995
G1 X2.908 Y-8.855 E102.91564
G1 X3.064 Y-9.024 E102.92329
G1 X3.969 Y-9.634 E102.95959
G0 F7200 X3.797 Y-9.735
G0 X4.051 Y-10.166
G0 X3.551 Y-10.797
;TYPE:SKIN
G1 F1800 X1.799 Y-11.374 E103.02094
G1 X-0.028 Y-10.457 E103.08893
G1 X0.442 Y-8.858 E103.14437
G1 X-.482 Y-4.179 E103.30299
G1 X-3.164 Y-3.051 E103.39977
G1 X-4.6 Y-2.607 E103.44976
G1 X-5.808 Y-2.181 E103.49236
G1 X-6.32 Y-1.574 E103.51877
G1 X-6.532 Y-1.113 E103.53565
G1 X-7.273 Y0.269 E103.58781
G1 X-7.408 Y0.695 E103.60267
G1 X-7.773 Y2.004 E103.64787
G1 X-7.519 Y3.07 E103.68432
G1 X-7.175 Y3.972 E103.71642
G1 X-6.926 Y4.435 E103.73391
G1 X-6.506 Y5.028 E103.75808
G1 X-5.938 Y5.563 E103.78403
G1 X-5.596 Y5.901 E103.80002
G1 X-4.664 Y6.273 E103.8334
G1 X-3.642 Y6.462 E103.86797
G1 X-1.627 Y6.363 E103.93507
G1 X-.43 Y6.261 E103.97503
G1 X-0.001 Y6.23 E103.98933
G1 X2.126 Y5.891 E104.06097
G1 X5.589 Y5.303 E104.1778
G1 X6.249 Y5.129 E104.2005
G1 X6.906 Y4.93 E104.22333
G1 X7.756 Y4.432 E104.2561
G1 X7.957 Y4.267 E104.26475
G1 X8.571 Y3.816 E104.29009
G1 X8.726 Y3.378 E104.30554
G1 X8.942 Y3.067 E104.31813
G1 X8.761 Y2.019 E104.35351
G1 X8.641 Y1.69 E104.36515
G1 X8.411 Y1.31 E104.37993
G1 X6.885 Y-1.113 E104.47517
G1 X6.522 Y-1.724 E104.4988
G1 X6.134 Y-2.607 E104.53088
G1 X5.85 Y-3.433 E104.55994
G1 X5.829 Y-3.724 E104.56964
G1 X5.739 Y-4.378 E104.5916
G1 X5.162 Y-5.801 E104.64267
G1 X4.868 Y-6.448 E104.6663
G1 X4.177 Y-7.927 E104.7206
G1 X3.875 Y-8.617 E104.74565
G1 X5.45 Y-9.679 E104.80883
G1 X3.551 Y-10.797 E104.88213
G0 F7200 X4.555 Y-14.273
G1 F1800 X6.839 Y-13.469 E104.96266
G1 X8.271 Y-12.98 E105.01299
G1 X8.802 Y-12.815 E105.03149
G1 X9.578 Y-12.636 E105.05797
G1 X9.684 Y-12.592 E105.06179
G1 X10.321 Y-11.931 E105.09232
G1 X10.533 Y-11.548 E105.10688
G1 X10.958 Y-10.39 E105.14791
G1 X11.01 Y-10.185 E105.15494
G1 X11.307 Y-8.702 E105.20525
G1 X12.588 Y-7.745 E105.25843
G1 X14.395 Y-5.834 E105.34591
G1 X15.129 Y-4.249 E105.404
G1 X15.445 Y-3.444 E105.43277
G1 X15.425 Y-3.258 E105.43899
G1 X14.757 Y-2.656 E105.4689
G1 X12.788 Y-.713 E105.5609
G1 X11.443 Y-.265 E105.60805
G1 X10.793 Y0.467 E105.64061
G1 X10.211 Y3.161 E105.73228
G1 X9.744 Y4.17 E105.76926
G1 X9.486 Y4.71 E105.78917
G1 X9.323 Y4.924 E105.79812
G1 X8.703 Y5.599 E105.8286
G1 X8.646 Y5.65 E105.83114
G1 X5.857 Y6.105 E105.92513
G1 X4.512 Y6.319 E105.97043
G1 X3.099 Y6.534 E106.01797
G1 X2.292 Y6.632 E106.04501
G1 X1.891 Y6.691 E106.05849
G1 X-1.7 Y7.44 E106.18049
G1 X-3.602 Y7.797 E106.24486
G1 X-4.4 Y7.954 E106.27191
G1 X-4.971 Y8.079 E106.29135
G1 X-5.132 Y8.088 E106.29671
G1 X-5.697 Y8.146 E106.31561
G1 X-6.225 Y7.854 E106.33567
G1 X-6.565 Y7.675 E106.34845
G1 X-7.147 Y7.383 E106.37011
G1 X-7.586 Y7.053 E106.38838
G1 X-7.954 Y6.06 E106.4236
G1 X-8.143 Y5.54 E106.442
G1 X-8.287 Y5.303 E106.45123
G1 X-8.689 Y4.395 E106.48425
G1 X-8.883 Y3.942 E106.50064
G1 X-9.159 Y3.261 E106.52508
G1 X-9.922 Y2.871 E106.55358
G1 X-10.364 Y2.72 E106.56912
G1 X-10.969 Y2.541 E106.5901
G1 X-12.215 Y2.01 E106.63515
G1 X-12.35 Y1.946 E106.64012
G1 X-13.614 Y1.417 E106.68569
G1 X-14.777 Y0.909 E106.72791
G1 X-15.269 Y0.698 E106.74571
G1 X-15.341 Y0.642 E106.74874
G1 X-15.694 Y0.119 E106.76973
G1 X-15.863 Y-.167 E106.78078
G1 X-16.093 Y-.758 E106.80187
G1 X-16.224 Y-1.305 E106.82058
G1 X-16.326 Y-1.89 E106.84033
G1 X-16.033 Y-2.691 E106.8687
G1 X-15.834 Y-2.96 E106.87983
G1 X-14.756 Y-4.306 E106.93718
G1 X-14.206 Y-4.884 E106.96372
G1 X-13.363 Y-5.797 E107.00505
G1 X-13.022 Y-6.764 E107.03916
G1 X-13.174 Y-7.418 E107.06149
G1 X-13.727 Y-8.037 E107.0891
G1 X-14.126 Y-8.927 E107.12154
G1 X-14.524 Y-10.453 E107.17399
G1 X-14.529 Y-10.531 E107.17659
G1 X-14.487 Y-11.601 E107.2122
G1 X-14.361 Y-12.049 E107.22768
G1 X-14.059 Y-12.467 E107.24483
G1 X-13.8 Y-13.009 E107.26481
G1 X-13.337 Y-13.397 E107.28491
G1 X-12.886 Y-13.629 E107.30177
G1 X-11.985 Y-13.82 E107.33241
G1 X-10.373 Y-13.571 E107.38666
G1 X-9.249 Y-13.476 E107.42418
G1 X-7.379 Y-13.132 E107.48742
G1 X-6.822 Y-13.022 E107.5063
G1 X-6.201 Y-13.331 E107.52937
G1 X-5.644 Y-13.925 E107.55645
G1 X-4.602 Y-14.748 E107.60062
G1 X-4.336 Y-15.011 E107.61306
G1 X-3.635 Y-15.622 E107.64399
G1 X-3.16 Y-15.968 E107.66353
G1 X-2.841 Y-16.022 E107.67429
G1 X-2.548 Y-16.015 E107.68404
G1 X-1.576 Y-15.817 E107.71704
G1 X-.681 Y-15.596 E107.7477
G1 X-.122 Y-15.439 E107.76701
G1 X0.423 Y-15.311 E107.78563
G1 X4.094 Y-14.397 E107.91145
G1 X4.555 Y-14.273 E107.92733
G0 F7200 X8.886 Y-12.609
G1 F1800 X10.567 Y-10.928 E108.0064
G1 X10.637 Y-10.858
G0 F7200 X10.847 Y-10.082
G1 F1800 X8.074 Y-12.855 E108.13683
G1 X8.004 Y-12.925
G0 F7200 X7.216 Y-13.148
G1 F1800 X10.989 Y-9.375 E108.31431
G0 F7200 X11.131 Y-8.667
G1 F1800 X6.349 Y-13.449 E108.53924
G1 X6.279 Y-13.519
G0 F7200 X5.476 Y-13.756
G1 F1800 X14.883 Y-4.349 E108.98171
G1 X14.953 Y-4.279
G0 F7200 X15.259 Y-3.408
G1 F1800 X4.603 Y-14.064 E109.48294
G1 X4.533 Y-14.134
G0 F7200 X3.824 Y-14.277
G1 F1800 X14.99 Y-3.111 E110.00815
G0 F7200 X14.693 Y-2.842
G1 F1800 X3.071 Y-14.464 E110.55482
G0 F7200 X2.318 Y-14.651
G1 F1800 X14.405 Y-2.564 E111.12335
G0 F7200 X14.121 Y-2.283
G1 F1800 X1.565 Y-14.839 E111.71395
G0 F7200 X0.812 Y-15.026
G1 F1800 X13.836 Y-2.002 E112.32656
G0 F7200 X13.551 Y-1.721
G1 F1800 X5.667 Y-9.606 E112.69742
G0 F7200 X5.329 Y-9.378
G1 F1800 X13.267 Y-1.44 E113.0708
G0 F7200 X12.982 Y-1.159
G1 F1800 X4.991 Y-9.15 E113.44667
G0 F7200 X4.653 Y-8.922
G1 F1800 X12.698 Y-.878 E113.82506
G0 F7200 X12.276 Y-.733
G1 F1800 X4.315 Y-8.695 E114.19954
G0 F7200 X4.26 Y-8.184
G1 F1800 X11.852 Y-.592 E114.55665
G0 F7200 X11.428 Y-.451
G1 F1800 X4.746 Y-7.132 E114.87092
G1 X4.676 Y-7.202
G0 F7200 X5.229 Y-6.083
G1 F1800 X11.129 Y-.184 E115.14842
G0 F7200 X10.863 Y0.115
G1 F1800 X5.632 Y-5.115 E115.39445
G1 X5.562 Y-5.185
G0 F7200 X5.938 Y-4.244
G1 F1800 X10.616 Y0.434 E115.61448
G0 F7200 X10.515 Y0.898
G1 F1800 X6.016 Y-3.599 E115.82606
G1 X5.946 Y-3.669
G0 F7200 X6.259 Y-2.791
G1 F1800 X10.414 Y1.364 E116.02149
G0 F7200 X10.314 Y1.829
G1 F1800 X6.683 Y-1.801 E116.19226
G1 X6.613 Y-1.871
G0 F7200 X7.591 Y-.328
G1 F1800 X10.214 Y2.294 E116.31562
G0 F7200 X10.113 Y2.759
G1 F1800 X8.553 Y1.199 E116.38899
G1 X8.483 Y1.129
G0 F7200 X8.97 Y2.182
G1 F1800 X9.992 Y3.203 E116.43704
G0 F7200 X9.813 Y3.59
G1 F1800 X9.089 Y2.866 E116.4711
G0 F7200 X8.981 Y3.324
G1 F1800 X9.634 Y3.977 E116.50181
G0 F7200 X9.453 Y4.362
G1 F1800 X8.799 Y3.708 E116.53257
G0 F7200 X8.568 Y4.042
G1 F1800 X9.249 Y4.724 E116.56463
G0 F7200 X8.985 Y5.026
G1 F1800 X8.241 Y4.281 E116.59965
G0 F7200 X7.923 Y4.529
G1 F1800 X8.715 Y5.32 E116.63688
G0 F7200 X8.344 Y5.516
G1 F1800 X7.575 Y4.747 E116.67305
G0 F7200 X7.219 Y4.956
G1 F1800 X7.858 Y5.595 E116.70311
G0 F7200 X7.371 Y5.674
G1 F1800 X6.837 Y5.14 E116.72822
G0 F7200 X6.402 Y5.27
G1 F1800 X6.885 Y5.754 E116.75097
G0 F7200 X6.399 Y5.833
G1 F1800 X5.957 Y5.391 E116.77176
G0 F7200 X5.5 Y5.5
G1 F1800 X5.912 Y5.912 E116.79114
G0 F7200 X5.424 Y5.99
G1 F1800 X5.016 Y5.582 E116.81033
G0 F7200 X4.533 Y5.664
G1 F1800 X4.937 Y6.068 E116.82933
G0 F7200 X4.447 Y6.144
G1 F1800 X4.049 Y5.746 E116.84805
G0 F7200 X3.956 Y6.219
G1 F1800 X3.565 Y5.828 E116.86644
G0 F7200 X3.466 Y6.294
G1 F1800 X3.082 Y5.91 E116.88451
G0 F7200 X2.972 Y6.366
G1 F1800 X2.597 Y5.992 E116.90212
G0 F7200 X2.468 Y6.428
G1 F1800 X2.114 Y6.074 E116.91877
G0 F7200 X1.97 Y6.496
G1 F1800 X1.626 Y6.151 E116.93498
G0 F7200 X1.497 Y6.588
G1 F1800 X1.138 Y6.229 E116.95186
G0 F7200 X1.029 Y6.686
G1 F1800 X0.651 Y6.308 E116.96964
G0 F7200 X0.561 Y6.783
G1 F1800 X0.163 Y6.385 E116.98836
G0 F7200 X0.093 Y6.881
G1 F1800 X-.352 Y6.435 E117.00932
G0 F7200 X-.874 Y6.479
G1 F1800 X-.374 Y6.979 E117.03284
G0 F7200 X-.842 Y7.076
G1 F1800 X-1.395 Y6.523 E117.05885
G0 F7200 X-1.927 Y6.557
G1 F1800 X-1.31 Y7.174 E117.08787
G0 F7200 X-1.779 Y7.271
G1 F1800 X-2.467 Y6.583 E117.12023
G0 F7200 X-3.005 Y6.61
G1 F1800 X-2.256 Y7.36 E117.15548
G0 F7200 X-2.732 Y7.45
G1 F1800 X-3.545 Y6.636 E117.19375
G0 F7200 X-4.208 Y6.539
G1 F1800 X-3.208 Y7.539 E117.24079
G0 F7200 X-3.684 Y7.628
G1 F1800 X-4.969 Y6.344 E117.30121
G1 X-5.039 Y6.274
G0 F7200 X-4.626 Y7.818
G1 F1800 X-8.814 Y3.63 E117.4982
G1 X-8.884 Y3.56
G0 F7200 X-8.392 Y4.618
G1 F1800 X-5.105 Y7.905 E117.65281
G0 F7200 X-5.62 Y7.956
G1 F1800 X-7.903 Y5.673 E117.76019
G1 X-7.973 Y5.603
G0 F7200 X-7.572 Y6.569
G1 F1800 X-6.774 Y7.367 E117.79773
G1 X-6.704 Y7.437
G0 F7200 X-4.157 Y7.722
G1 F1800 X-15.263 Y-3.384 E118.32012
G0 F7200 X-15.011 Y-3.698
G1 F1800 X-7.381 Y3.932 E118.67901
G1 X-7.311 Y4.002
G0 F7200 X-7.71 Y3.037
G1 F1800 X-14.76 Y-4.012 E119.0106
G0 F7200 X-14.497 Y-4.315
G1 F1800 X-7.889 Y2.293 E119.32142
G0 F7200 X-7.883 Y1.733
G1 F1800 X-14.222 Y-4.605 E119.61956
G0 F7200 X-13.948 Y-4.897
G1 F1800 X-7.76 Y1.29 E119.9106
G0 F7200 X-7.636 Y0.848
G1 F1800 X-13.676 Y-5.191 E120.19468
G0 F7200 X-13.405 Y-5.485
G1 F1800 X-7.506 Y0.412 E120.47211
G0 F7200 X-7.339 Y0.014
G1 F1800 X-13.166 Y-5.812 E120.74617
G0 F7200 X-13.019 Y-6.231
G1 F1800 X-7.141 Y-.353 E121.02265
G0 F7200 X-6.944 Y-.721
G1 F1800 X-12.871 Y-6.648 E121.30144
G0 F7200 X-12.962 Y-7.305
G1 F1800 X-6.747 Y-1.09 E121.59377
G0 F7200 X-6.563 Y-1.472
G1 F1800 X-13.855 Y-8.764 E121.93677
G1 X-13.925 Y-8.834
G0 F7200 X-14.111 Y-9.585
G1 F1800 X-6.345 Y-1.82 E122.30203
G0 F7200 X-6.086 Y-2.126
G1 F1800 X-14.31 Y-10.35 E122.68886
G0 F7200 X-14.332 Y-10.938
G1 F1800 X-5.777 Y-2.382 E123.09129
G0 F7200 X-5.359 Y-2.53
G1 F1800 X-14.311 Y-11.482 E123.51236
G0 F7200 X-14.203 Y-11.94
G1 F1800 X-4.941 Y-2.678 E123.94802
G0 F7200 X-4.518 Y-2.821
G1 F1800 X-13.973 Y-12.276 E124.39275
G0 F7200 X-13.775 Y-12.643
G1 F1800 X-4.086 Y-2.954 E124.84849
G0 F7200 X-3.653 Y-3.087
G1 F1800 X-13.55 Y-12.984 E125.31402
G0 F7200 X-13.241 Y-13.241
G1 F1800 X-3.221 Y-3.221 E125.78533
G0 F7200 X-2.823 Y-3.389
G1 F1800 X-12.867 Y-13.433 E126.25777
G0 F7200 X-12.411 Y-13.543
G1 F1800 X-2.425 Y-3.556 E126.7275
G0 F7200 X-2.027 Y-3.724
G1 F1800 X-11.93 Y-13.627 E127.19331
G0 F7200 X-11.261 Y-13.524
G1 F1800 X-1.629 Y-3.891 E127.64639
G0 F7200 X-1.231 Y-4.059
G1 F1800 X-10.593 Y-13.421 E128.08675
G0 F7200 X-9.96 Y-13.354
G1 F1800 X-.832 Y-4.227 E128.51608
G0 F7200 X-.591 Y-4.55
G1 F1800 X-9.342 Y-13.302 E128.92772
G0 F7200 X-8.657 Y-13.182
G1 F1800 X-.497 Y-5.023 E129.31152
G0 F7200 X-.404 Y-5.495
G1 F1800 X-7.964 Y-13.055 E129.66712
G0 F7200 X-7.269 Y-12.925
G1 F1800 X-.311 Y-5.967 E129.9944
G0 F7200 X-.217 Y-6.44
G1 F1800 X-6.672 Y-12.894 E130.298
G0 F7200 X-6.293 Y-13.082
G1 F1800 X-.124 Y-6.912 E130.5882
G0 F7200 X-0.031 Y-7.385
G1 F1800 X-5.965 Y-13.319 E130.86732
G0 F7200 X-5.691 Y-13.611
G1 F1800 X0.061 Y-7.858 E131.1379
G0 F7200 X0.154 Y-8.33
G1 F1800 X-5.401 Y-13.886 E131.39921
G0 F7200 X-5.085 Y-14.136
G1 F1800 X0.248 Y-8.802 E131.65008
G0 F7200 X0.044 Y-9.572
G1 F1800 X-4.768 Y-14.385 E131.87645
G0 F7200 X-4.455 Y-14.637
G1 F1800 X-.19 Y-10.372 E132.07706
G0 F7200 X0.05 Y-10.697
G1 F1800 X-4.169 Y-14.917 E132.27553
G0 F7200 X-3.866 Y-15.18
G1 F1800 X0.427 Y-10.885 E132.47751
G0 F7200 X0.803 Y-11.075
G1 F1800 X-3.564 Y-15.443 E132.68294
G0 F7200 X-3.239 Y-15.685
G1 F1800 X1.18 Y-11.264 E132.89084
G0 F7200 X1.557 Y-11.453
G1 F1800 X-2.829 Y-15.84 E133.09717
G0 F7200 X-2.178 Y-15.755
G1 F1800 X2.119 Y-11.456 E133.29934
G1 X2.189 Y-11.386
G0 F7200 X2.962 Y-11.179
G1 F1800 X-1.46 Y-15.603 E133.50738
G0 F7200 X-.706 Y-15.414
G1 F1800 X3.919 Y-10.788 E133.72495
G1 X3.989 Y-10.718
G0 F7200 X5.295 Y-9.977
G1 F1800 X0.065 Y-15.208 E133.97098
G1 X-0.005 Y-15.278
G0 F7200 X11.363 Y-8.435
G1 F1800 X14.396 Y-5.402 E134.11364
G1 X14.466 Y-5.332
G0 F7200 X8.275 Y3.595
G0 X7.554 Y4.144
G0 X6.764 Y4.606
G0 X5.515 Y4.96
G0 X-.458 Y5.911
G0 X-3.618 Y6.109
G0 X-4.566 Y5.935
G0 X-9.624 Y2.82
G1 F1800 X-15.515 Y-3.07 E134.39071
G0 F7200 X-15.763 Y-2.752
G1 F1800 X-10.527 Y2.483 E134.63697
G1 X-10.457 Y2.553
G0 F7200 X-11.426 Y2.149
G1 F1800 X-15.955 Y-2.378 E134.84996
G0 F7200 X-16.106 Y-1.964
G1 F1800 X-12.422 Y1.719 E135.02322
G1 X-12.352 Y1.789
G0 F7200 X-13.395 Y1.312
G1 F1800 X-16.046 Y-1.338 E135.14789
G1 X-16.116 Y-1.408
G0 F7200 X-15.815 Y-.541
G1 F1800 X-14.394 Y0.878 E135.21468
G1 X-14.324 Y0.948
;MESH:NONMESH
G0 F600 X-14.324 Y0.948 Z1.3
G0 F7200 X0.402 Y-10.269
G0 X1.828 Y-10.992
G0 X3.405 Y-10.476
G0 X4.758 Y-9.658
G0 X3.531 Y-8.679
G0 X2.43 Y-8.197
;TIME_ELAPSED:144.667174
;LAYER:5
;TYPE:WALL-INNER
;MESH:bunny.stl
G1 F3600 X1.629 Y-7.205 E135.25709
G1 X0.916 Y-3.588 E135.3797
G1 X-.166 Y-3.134 E135.41873
G1 X-3.274 Y-2.171 E135.52695
G1 X-5.442 Y-1.404 E135.60344
G1 X-6.143 Y-.578 E135.63947
G1 X-6.471 Y0.128 E135.66537
G1 X-6.566 Y0.492 E135.67788
G1 X-6.895 Y1.546 E135.7146
G1 X-7.068 Y2.164 E135.73595
G1 X-6.794 Y3.057 E135.76701
G1 X-6.269 Y4.025 E135.80364
G1 X-6.052 Y4.466 E135.81999
G1 X-5.864 Y4.696 E135.82987
G1 X-5.042 Y5.51 E135.86835
G1 X-4.433 Y5.754 E135.89017
G1 X-3.755 Y5.879 E135.9131
G1 X-1.749 Y5.772 E135.97991
G1 X-1.248 Y5.738 E135.99661
G1 X0.847 Y5.576 E136.0665
G1 X2.262 Y5.352 E136.11415
G1 X4.569 Y4.96 E136.19198
G1 X5.762 Y4.646 E136.23301
G1 X6.783 Y4.336 E136.2685
G1 X6.925 Y4.284 E136.27353
G1 X7.435 Y3.855 E136.2957
G1 X7.822 Y3.572 E136.31164
G1 X7.916 Y3.308 E136.32096
G1 X8.23 Y2.851 E136.33941
G1 X8.055 Y2.124 E136.36428
G1 X7.897 Y1.689 E136.37967
G1 X7.482 Y1.001 E136.40639
G1 X6.363 Y-.777 E136.47627
G1 X5.71 Y-2.288 E136.53101
G1 X5.309 Y-3.156 E136.56282
G1 X5.174 Y-3.754 E136.58321
G1 X4.963 Y-4.278 E136.60199
G1 X3.994 Y-6.421 E136.68022
G1 X3.539 Y-7.399 E136.7161
G1 X2.43 Y-8.197 E136.76154
G0 F7200 X2.417 Y-8.296
G0 X-5.464 Y-1.436
G0 X-9.275 Y3.419
G0 X-9.348 Y3.486
G1 F3600 X-10.103 Y3.102 E136.78971
G1 X-10.651 Y2.916 E136.80896
G1 X-11.529 Y2.656 E136.83941
G1 X-12.363 Y2.3 E136.86957
G1 X-13.084 Y2.06 E136.89485
G1 X-14.099 Y1.633 E136.93147
G1 X-14.986 Y1.247 E136.96365
G1 X-15.475 Y1.021 E136.98156
G1 X-15.887 Y0.451 E137.00496
G1 X-16.229 Y-0.094 E137.02636
G1 X-16.488 Y-.79 E137.05106
G1 X-16.578 Y-1.28 E137.06763
G1 X-16.65 Y-1.807 E137.08532
G1 X-16.685 Y-2.009 E137.09214
G1 X-16.366 Y-2.833 E137.12153
G1 X-16.164 Y-3.067 E137.13181
G1 X-15.178 Y-4.325 E137.18497
G1 X-14.894 Y-4.637 E137.199
G1 X-14.188 Y-5.381 E137.23311
G1 X-13.453 Y-6.176 E137.26913
G1 X-13.262 Y-6.719 E137.28827
G1 X-13.373 Y-7.222 E137.3054
G1 X-14.103 Y-8.038 E137.34182
G1 X-14.157 Y-8.091 E137.34433
G1 X-14.492 Y-8.761 E137.36925
G1 X-14.684 Y-9.305 E137.38844
G1 X-14.827 Y-9.855 E137.40734
G1 X-14.867 Y-10.362 E137.42425
G1 X-14.888 Y-10.674 E137.43465
G1 X-14.95 Y-11.435 E137.46005
G1 X-14.84 Y-11.974 E137.47835
G1 X-14.743 Y-12.292 E137.4894
G1 X-14.497 Y-12.706 E137.50542
G1 X-14.164 Y-13.23 E137.52607
G1 X-13.908 Y-13.613 E137.54139
G1 X-13.765 Y-13.735 E137.54764
G1 X-13.25 Y-13.985 E137.56669
G1 X-12.924 Y-14.118 E137.5784
G1 X-12.277 Y-14.244 E137.60032
G1 X-11.966 Y-14.317 E137.61094
G1 X-10.814 Y-14.14 E137.64971
G1 X-10.173 Y-13.985 E137.67164
G1 X-9.091 Y-13.784 E137.70825
G1 X-7.705 Y-13.532 E137.7551
G1 X-6.931 Y-13.379 E137.78134
G1 X-6.354 Y-13.666 E137.80278
G1 X-6.045 Y-14.039 E137.81889
G1 X-5.453 Y-14.631 E137.84673
G1 X-4.971 Y-15.012 E137.86717
G1 X-3.755 Y-16.217 E137.92411
G1 X-3.38 Y-16.52 E137.94014
G1 X-3.021 Y-16.537 E137.9521
G1 X-2.363 Y-16.487 E137.97404
G1 X-1.369 Y-16.244 E138.00808
G1 X-.826 Y-16.145 E138.02644
G1 X-.203 Y-15.919 E138.04848
G1 X0.319 Y-15.767 E138.06656
G1 X1.974 Y-15.378 E138.12311
G1 X3.894 Y-14.9 E138.18892
G1 X7.52 Y-13.923 E138.31382
G1 X8.038 Y-13.741 E138.33208
G1 X8.653 Y-13.554 E138.35346
G1 X10.279 Y-12.879 E138.41201
G1 X10.47 Y-12.68 E138.42119
G1 X10.857 Y-12.293 E138.43939
G1 X11.07 Y-11.858 E138.4555
G1 X11.55 Y-11.032 E138.48728
G1 X11.608 Y-10.898 E138.49213
G1 X11.84 Y-10 E138.52298
G1 X12.024 Y-9.081 E138.55415
G1 X13.685 Y-7.841 E138.6231
G1 X15.128 Y-6.315 E138.69295
G1 X15.716 Y-5.046 E138.73947
G1 X16.282 Y-3.607 E138.7909
G1 X16.192 Y-2.775 E138.81873
G1 X14.95 Y-1.656 E138.87433
G1 X13.768 Y-.49 E138.92956
G1 X11.863 Y0.145 E138.99634
G1 X11.219 Y0.87 E139.0286
G1 X10.409 Y4.614 E139.156
G1 X10.244 Y4.894 E139.16681
G1 X8.955 Y6.046 E139.22431
G1 X8.501 Y6.148 E139.23979
G1 X6.304 Y6.513 E139.31386
G1 X4.259 Y6.819 E139.38264
G1 X2.572 Y7.021 E139.43915
G1 X1.78 Y7.14 E139.46579
G1 X-1.402 Y7.804 E139.5739
G1 X-2.485 Y8.007 E139.61055
G1 X-3.828 Y8.273 E139.65608
G1 X-4.348 Y8.368 E139.67366
G1 X-4.893 Y8.504 E139.69235
G1 X-5.615 Y8.562 E139.71644
G1 X-5.839 Y8.539 E139.72393
G1 X-6.309 Y8.279 E139.74179
G1 X-6.616 Y8.125 E139.75322
G1 X-7.594 Y7.457 E139.79261
G1 X-7.992 Y6.995 E139.81289
G1 X-8.456 Y5.745 E139.85724
G1 X-8.748 Y4.925 E139.88619
G1 X-9.068 Y4.178 E139.91322
G1 X-9.348 Y3.486 E139.93805
G0 F7200 X-9.275 Y3.419
G0 X-6.176 Y-.599
G0 X-5.6 Y-1.276
G0 X2.115 Y-7.965
G0 X2.503 Y-7.651
;TYPE:WALL-OUTER
G1 F1800 X2.002 Y-7.031 E139.96456
G1 X1.267 Y-3.301 E140.091
G1 X-0.025 Y-2.759 E140.1376
G1 X-3.148 Y-1.791 E140.24635
G1 X-5.207 Y-1.063 E140.31899
G1 X-5.803 Y-.36 E140.34964
G1 X-6.093 Y0.264 E140.37253
G1 X-6.184 Y0.611 E140.38446
G1 X-6.511 Y1.66 E140.42101
G1 X-6.651 Y2.159 E140.43824
G1 X-6.423 Y2.901 E140.46406
G1 X-5.917 Y3.834 E140.49936
G1 X-5.713 Y4.248 E140.51471
G1 X-5.567 Y4.427 E140.5224
G1 X-4.818 Y5.169 E140.55746
G1 X-4.321 Y5.368 E140.57527
G1 X-3.729 Y5.477 E140.59529
G1 X-1.773 Y5.373 E140.66044
G1 X-1.277 Y5.339 E140.67697
G1 X0.8 Y5.178 E140.74626
G1 X2.197 Y4.957 E140.7933
G1 X4.484 Y4.569 E140.87046
G1 X5.653 Y4.261 E140.91067
G1 X6.656 Y3.957 E140.94552
G1 X6.721 Y3.933 E140.94783
G1 X7.193 Y3.536 E140.96834
G1 X7.486 Y3.322 E140.98041
G1 X7.556 Y3.125 E140.98736
G1 X7.799 Y2.771 E141.00164
G1 X7.671 Y2.239 E141.01984
G1 X7.534 Y1.862 E141.03319
G1 X7.141 Y1.211 E141.05848
G1 X6.009 Y-.588 E141.12917
G1 X5.345 Y-2.125 E141.18486
G1 X4.933 Y-3.017 E141.21754
G1 X4.813 Y-3.447 E141.23239
G1 X4.785 Y-3.65 E141.2392
G1 X4.595 Y-4.121 E141.2561
G1 X3.63 Y-6.254 E141.33396
G1 X3.22 Y-7.135 E141.36628
G1 X2.503 Y-7.651 E141.39566
G0 F7200 X2.378 Y-7.496
G0 X1.99 Y-7.81
G0 X12.087 Y-8.91
G0 X12.386 Y-9.31
G1 F1800 X13.953 Y-8.14 E141.46071
G1 X15.463 Y-6.544 E141.53378
G1 X16.084 Y-5.203 E141.58294
G1 X16.691 Y-3.661 E141.63805
G1 X16.573 Y-2.58 E141.67422
G1 X15.224 Y-1.365 E141.7346
G1 X13.984 Y-.141 E141.79256
G1 X12.091 Y0.491 E141.85893
G1 X11.588 Y1.057 E141.88412
G1 X10.789 Y4.749 E142.00976
G1 X10.629 Y5.065 E142.02154
G1 X10.524 Y5.18 E142.02672
G1 X9.145 Y6.413 E142.08824
G1 X8.567 Y6.543 E142.10795
G1 X6.372 Y6.908 E142.18196
G1 X5.486 Y7.039 E142.21174
G1 X4.319 Y7.215 E142.251
G1 X2.626 Y7.417 E142.30771
G1 X1.851 Y7.534 E142.33378
G1 X-1.32 Y8.196 E142.44152
G1 X-2.409 Y8.4 E142.47837
G1 X-3.756 Y8.666 E142.52403
G1 X-4.263 Y8.759 E142.54118
G1 X-4.83 Y8.901 E142.56062
G1 X-5.618 Y8.964 E142.58691
G1 X-5.962 Y8.929 E142.59841
G1 X-6.496 Y8.633 E142.61872
G1 X-6.82 Y8.47 E142.63078
G1 X-7.863 Y7.758 E142.67279
G1 X-8.342 Y7.201 E142.69722
G1 X-8.831 Y5.884 E142.74395
G1 X-9.121 Y5.071 E142.77265
G1 X-9.436 Y4.335 E142.79928
G1 X-9.663 Y3.775 E142.81938
G1 X-10.259 Y3.471 E142.84163
G1 X-10.772 Y3.297 E142.85965
G1 X-11.663 Y3.034 E142.89055
G1 X-12.505 Y2.674 E142.92101
G1 X-13.224 Y2.435 E142.94621
G1 X-14.254 Y2.002 E142.98337
G1 X-15.146 Y1.613 E143.01573
G1 X-15.741 Y1.339 E143.03752
G1 X-16.03 Y0.927 E143.05426
G1 X-16.216 Y0.68 E143.06454
G1 X-16.59 Y0.084 E143.08795
G1 X-16.874 Y-.679 E143.11503
G1 X-16.973 Y-1.22 E143.13332
G1 X-17.045 Y-1.746 E143.15098
G1 X-17.097 Y-2.046 E143.1611
G1 X-16.909 Y-2.563 E143.1794
G1 X-16.711 Y-3.045 E143.19673
G1 X-16.473 Y-3.321 E143.20885
G1 X-15.487 Y-4.58 E143.26204
G1 X-15.184 Y-4.913 E143.27702
G1 X-14.48 Y-5.654 E143.31101
G1 X-13.803 Y-6.387 E143.3442
G1 X-13.677 Y-6.744 E143.35679
G1 X-13.741 Y-7.033 E143.36663
G1 X-14.393 Y-7.762 E143.39916
G1 X-14.486 Y-7.854 E143.40351
G1 X-14.86 Y-8.601 E143.4313
G1 X-15.067 Y-9.19 E143.45206
G1 X-15.223 Y-9.79 E143.47268
G1 X-15.266 Y-10.33 E143.4907
G1 X-15.287 Y-10.645 E143.5012
G1 X-15.352 Y-11.446 E143.52793
G1 X-15.351 Y-11.469 E143.5287
G1 X-15.227 Y-12.077 E143.54934
G1 X-15.113 Y-12.45 E143.56231
G1 X-14.835 Y-12.921 E143.5805
G1 X-14.502 Y-13.445 E143.60115
G1 X-14.209 Y-13.882 E143.61865
G1 X-13.985 Y-14.073 E143.62844
G1 X-13.419 Y-14.348 E143.64937
G1 X-13.038 Y-14.504 E143.66306
G1 X-12.361 Y-14.635 E143.686
G1 X-11.982 Y-14.724 E143.69894
G1 X-10.731 Y-14.532 E143.74104
G1 X-10.089 Y-14.376 E143.76301
G1 X-9.019 Y-14.177 E143.79921
G1 X-7.633 Y-13.925 E143.84607
G1 X-6.987 Y-13.798 E143.86796
G1 X-6.608 Y-13.986 E143.88204
G1 X-6.344 Y-14.306 E143.89583
G1 X-5.72 Y-14.93 E143.92518
G1 X-5.237 Y-15.312 E143.94567
G1 X-4.022 Y-16.516 E144.00256
G1 X-3.53 Y-16.914 E144.02361
G1 X-3.017 Y-16.938 E144.04069
G1 X-2.298 Y-16.883 E144.06467
G1 X-1.285 Y-16.635 E144.09936
G1 X-.717 Y-16.531 E144.11856
G1 X-0.079 Y-16.299 E144.14114
G1 X0.421 Y-16.154 E144.15846
G1 X2.071 Y-15.766 E144.21484
G1 X3.991 Y-15.288 E144.28064
G1 X7.639 Y-14.305 E144.4063
G1 X8.163 Y-14.121 E144.42478
G1 X8.781 Y-13.933 E144.44626
G1 X10.509 Y-13.216 E144.50849
G1 X10.755 Y-12.96 E144.52029
G1 X11.186 Y-12.53 E144.54054
G1 X11.423 Y-12.047 E144.55844
G1 X11.907 Y-11.214 E144.59048
G1 X11.987 Y-11.03 E144.59715
G1 X12.23 Y-10.09 E144.62945
G1 X12.386 Y-9.31 E144.6559
G0 F7200 X12.546 Y-9.191
G0 X11.671 Y-8.858
;TYPE:SKIN
G1 F1800 X13.426 Y-7.548 E144.72874
G1 X14.803 Y-6.092 E144.7954
G1 X15.353 Y-4.903 E144.83897
G1 X15.884 Y-3.554 E144.88719
G1 X15.82 Y-2.965 E144.90689
G1 X14.683 Y-1.94 E144.95781
G1 X13.561 Y-.832 E145.01026
G1 X11.641 Y-.192 E145.07757
G1 X10.86 Y0.687 E145.11668
G1 X10.042 Y4.468 E145.24534
G1 X9.938 Y4.644 E145.25214
G1 X8.77 Y5.688 E145.30425
G1 X8.421 Y5.766 E145.31614
G1 X6.246 Y6.127 E145.38947
G1 X4.212 Y6.431 E145.45788
G1 X2.52 Y6.635 E145.51456
G1 X1.711 Y6.756 E145.54177
G1 X-1.474 Y7.42 E145.64998
G1 X-2.559 Y7.624 E145.6867
G1 X-3.898 Y7.889 E145.7321
G1 X-4.43 Y7.986 E145.75008
G1 X-4.958 Y8.118 E145.76818
G1 X-5.607 Y8.17 E145.78984
G1 X-5.72 Y8.159 E145.79361
G1 X-6.42 Y7.787 E145.81998
G1 X-7.329 Y7.165 E145.85661
G1 X-7.652 Y6.79 E145.87308
G1 X-8.091 Y5.609 E145.91498
G1 X-8.385 Y4.783 E145.94414
G1 X-8.724 Y3.99 E145.97283
G1 X-9.041 Y3.205 E146.00098
G1 X-9.951 Y2.742 E146.03494
G1 X-10.532 Y2.544 E146.05536
G1 X-11.395 Y2.288 E146.0853
G1 X-12.225 Y1.935 E146.1153
G1 X-12.947 Y1.694 E146.14061
G1 X-13.947 Y1.274 E146.17669
G1 X-14.765 Y0.919 E146.20635
G1 X-15.22 Y0.708 E146.22303
G1 X-15.566 Y0.231 E146.24263
G1 X-15.878 Y-.267 E146.26217
G1 X-16.11 Y-.889 E146.28425
G1 X-16.194 Y-1.35 E146.29984
G1 X-16.264 Y-1.867 E146.31719
G1 X-16.282 Y-1.968 E146.3206
G1 X-16.026 Y-2.631 E146.34424
G1 X-15.863 Y-2.819 E146.35252
G1 X-14.889 Y-4.062 E146.40504
G1 X-14.611 Y-4.368 E146.41879
G1 X-13.903 Y-5.114 E146.453
G1 X-13.112 Y-5.971 E146.49179
G1 X-12.857 Y-6.694 E146.51729
G1 X-13.014 Y-7.406 E146.54154
G1 X-13.82 Y-8.307 E146.58175
G1 X-13.837 Y-8.323 E146.58252
G1 X-14.131 Y-8.912 E146.60442
G1 X-14.31 Y-9.417 E146.62224
G1 X-14.443 Y-9.927 E146.63977
G1 X-14.5 Y-10.703 E146.66565
G1 X-14.558 Y-11.409 E146.68921
G1 X-14.384 Y-12.134 E146.71401
G1 X-14.168 Y-12.497 E146.72806
