;FLAVOR:Marlin
;TIME:3512
;Filament used: 9.69584m
;Layer height: 0.4
;MINX:-24.109
;MINY:-18.497
;MINZ:0.3
;MAXX:24.101
;MAXY:18.457
;MAXZ:47.9
;Generated with Cura_SteamEngine 5.2.2
M104 S200
M105
M109 S200
M82 ;absolute extrusion mode
#TRAFO ON
G54
G90 G01 X0 Y0 Z0 A0 B0 C0 F1000
G92 E0
M116
G92 E0
G1 F1500 E-6.5
;LAYER_COUNT:120
;LAYER:0
M107
;MESH:bunny.obj
G0 F3600 X6.89 Y-4.118 Z0.3
;TYPE:WALL-OUTER
G1 F1500 E0
G1 F1993.6 X6.858 Y-4.064 E0.00399
G1 X6.796 Y-4.064 E0.00794
G1 X6.765 Y-4.118 E0.0119
G1 X6.796 Y-4.172 E0.01586
G1 X6.858 Y-4.172 E0.0198
G1 F1500 E-6.4802
G0 F3600 X6.051 Y-3.936
G0 X-3.653 Y7.16
G0 X-3.579 Y7.955
G1 F1500 E0.0198
G1 F1993.6 X-4.844 Y8.042 E0.10046
G1 F1500 E-6.39954
G0 F3600 X-4.915 Y7.278
G0 X-7.747 Y4.815
G0 X-8.873 Y4.885
G1 F1500 E0.10046
G1 F1058 X-9.001 Y4.534 E0.14524
G0 F3600 X-9.381 Y3.578
G0 X-9.885 Y2.672
G0 X-11.058 Y1.573
G0 X-10.05 Y1.414
G1 F1694.6 X-9.97 Y1.244 E0.1593
G1 X-9.163 Y0.507 E0.24109
G1 X-7.736 Y-.557 E0.37429
G1 X-6.961 Y-1.181 E0.44875
G1 F1637.3 X-6.602 Y-1.764 E0.50179
G1 F1305.2 X-6.404 Y-2.266 E0.55422
G1 F1270.9 X-6.745 Y-2.259 E0.58825
G1 F1583.7 X-6.99 Y-2.319 E0.60845
G1 F1694.6 X-7.699 Y-2.371 E0.66165
G1 X-8.633 Y-2.356 E0.73155
G1 X-8.998 Y-2.392 E0.759
G1 X-10.605 Y-2.317 E0.87939
G1 X-10.751 Y-2.415 E0.89255
G1 X-10.954 Y-2.717 E0.91978
G1 X-11.325 Y-3.495 E0.98429
G1 X-11.353 Y-3.624 E0.99416
G1 X-11.351 Y-4.722 E1.07633
G1 X-11.294 Y-4.862 E1.08765
G1 X-10.788 Y-5.54 E1.15096
G1 X-11.125 Y-6.865 E1.25327
G1 X-13.097 Y-6.149 E1.41027
G1 X-13.254 Y-6.153 E1.42202
G1 X-13.309 Y-5.996 E1.43447
G1 X-13.558 Y-5.586 E1.47037
G1 X-13.873 Y-4.581 E1.54919
G1 X-14.531 Y-2.137 E1.7386
G1 X-14.227 Y-1.313 E1.80433
G1 X-13.586 Y-.207 E1.89999
G1 X-13.541 Y1.12 E1.99935
G1 X-12.975 Y1.663 E2.05805
G1 X-12.075 Y2.25 E2.13846
G1 X-11.587 Y2.389 E2.17643
G1 F1677.8 X-10.252 Y2.821 E2.28249
G1 F1613.9 X-10.091 Y2.939 E2.29817
G1 F1569.1 X-9.764 Y3.496 E2.35038
G1 F1689 X-9.455 Y4.114 E2.40226
G1 F1311.9 X-9.001 Y4.534 E2.46204
G1 X-8.946 Y3.901 E2.52346
G1 F1689 X-9.184 Y3.206 E2.57862
G1 F1591.2 X-9.664 Y2.386 E2.65434
G1 F1653.3 X-10.026 Y1.576 E2.7224
G1 F1694.6 X-10.05 Y1.414 E2.73465
G0 F3600 X-9.97 Y1.244
G0 X-9.887 Y1.168
G0 X-10.56 Y0.432
G0 X-6.87 Y-1.962
G0 X-6.404 Y-2.266
G1 F1114.9 X-6.354 Y-2.327 E2.74363
G1 F1092.1 X-5.893 Y-2.977 E2.83616
G1 F1074.8 X-5.639 Y-3.299 E2.88455
G1 F1381.5 X-5.195 Y-3.557 E2.93169
G1 F1900.5 X-5.131 Y-3.643 E2.93884
G1 X-4.967 Y-4.208 E2.9781
G1 X-4.963 Y-4.344 E2.98718
G1 X-5.127 Y-4.117 E3.00587
G1 X-5.352 Y-4.006 E3.02261
G1 X-5.531 Y-4.016 E3.03457
G1 X-5.66 Y-3.811 E3.05073
G1 F1381.5 X-5.639 Y-3.299 E3.09777
G0 F3600 X-5.38 Y-3.449
G1 F1500 E-3.40223
G0 F3600 X-6.797 Y-1.995
G0 X-11.133 Y1.554
G1 F1500 E3.09777
G0 F3600 X-10.613 Y1.319
;TYPE:SKIN
G1 F1694.6 X-10.463 Y0.923 E3.12946
G1 X-9.55 Y0.086 E3.22215
G1 X-8.105 Y-.995 E3.3572
G1 X-7.394 Y-1.568 E3.42554
G1 X-7.271 Y-1.766 E3.44298
G1 X-7.725 Y-1.8 E3.47705
G1 X-8.689 Y-1.788 E3.5492
G1 X-9.012 Y-1.82 E3.57349
G1 X-10.485 Y-1.751 E3.68384
G1 X-10.85 Y-1.81 E3.71151
G1 X-11.2 Y-2.059 E3.74366
G1 X-11.446 Y-2.425 E3.77666
G1 X-11.84 Y-3.25 E3.84508
G1 X-11.923 Y-3.585 E3.8709
G1 X-11.917 Y-4.798 E3.96168
G1 X-11.748 Y-5.206 E3.99473
G1 X-11.408 Y-5.663 E4.03736
G1 X-11.523 Y-6.115 E4.07226
G1 X-12.869 Y-5.627 E4.1794
G1 X-13.033 Y-5.353 E4.2033
G1 X-13.315 Y-4.451 E4.27402
G1 X-13.932 Y-2.162 E4.45144
G1 X-13.71 Y-1.559 E4.49952
G1 X-13.109 Y-.515 E4.58967
G1 X-13.02 Y-.23 E4.61201
G1 X-12.978 Y0.868 E4.69424
G1 X-12.617 Y1.215 E4.73172
G1 X-11.839 Y1.723 E4.80125
G1 X-11.433 Y1.839 E4.83285
G1 X-10.387 Y2.172 E4.915
G1 X-10.544 Y1.817 E4.94405
G1 X-10.613 Y1.319 E4.98167
G0 F3600 X-11.133 Y1.554
G0 X-12.578 Y0.018
G0 X-12.706 Y0.021
G1 F1694.6 X-11.098 Y1.629 E5.15185
G0 F3600 X-10.824 Y1.055
G1 F1694.6 X-13.256 Y-1.377 E5.40924
G0 F3600 X-13.145 Y-1.441
G0 X-13.409 Y-2.467
G0 X-13.53 Y-2.499
G1 F1694.6 X-10.489 Y0.54 E5.73097
G0 F3600 X-10.047 Y0.134
G1 F1694.6 X-13.35 Y-3.167 E6.08043
G0 F3600 X-13.169 Y-3.836
G1 F1694.6 X-11.795 Y-2.462 E6.22584
G1 X-11.689 Y-2.356
G0 F3600 X-11.853 Y-2.28
G0 X-11.177 Y-1.354
G0 X-10.86 Y-1.526
G1 F1694.6 X-9.589 Y-.255 E6.36036
G0 F3600 X-9.104 Y-.619
G1 F1694.6 X-9.959 Y-1.474 E6.45085
G0 F3600 X-9.149 Y-1.512
G1 F1694.6 X-8.62 Y-.983 E6.50683
G0 F3600 X-8.135 Y-1.347
G1 F1694.6 X-8.28 Y-1.492 E6.52218
G0 F3600 X-8.279 Y-1.36
G0 X-11.177 Y-1.354
G0 X-11.777 Y-2.261
G0 X-12.24 Y-3.235
G0 X-12.222 Y-3.737
G1 F1694.6 X-12.985 Y-4.5 E6.60293
G0 F3600 X-12.783 Y-5.146
G1 F1694.6 X-12.215 Y-4.579 E6.66299
G0 F3600 X-12.042 Y-5.253
G1 F1694.6 X-12.3 Y-5.512 E6.69035
G1 F1500 E0.19035
;MESH:NONMESH
G0 F600 X-12.3 Y-5.512 Z0.7
G0 F3600 X-12.256 Y-5.389
G0 X-11.325 Y-6.435
G0 X-10.099 Y-6.746
G0 X-6.402 Y-7.688
;TIME_ELAPSED:8.771488
;LAYER:1
M106 S255
;TYPE:WALL-OUTER
;MESH:bunny.obj
G1 F1500 E6.69035
G1 F1800 X-6.118 Y-7.142 E6.75176
G1 X-5.688 Y-5.848 E6.88781
G1 X-5.608 Y-4.814 E6.99129
G1 X-5.637 Y-4.661 E7.00683
G1 X-5.881 Y-4.165 E7.06199
G1 X-6.306 Y-3.676 E7.12663
G1 X-7.225 Y-3.228 E7.22865
G1 X-7.822 Y-3.025 E7.29157
G1 X-8.436 Y-2.958 E7.3532
G1 X-9.628 Y-2.922 E7.47219
G1 X-9.796 Y-3.039 E7.49262
G1 X-10.018 Y-3.579 E7.55087
G1 X-10.036 Y-3.73 E7.56605
G1 X-9.808 Y-4.182 E7.61656
G1 X-9.616 Y-4.827 E7.68371
G1 X-9.045 Y-5.599 E7.77952
G1 X-8.587 Y-5.94 E7.8365
G1 X-8.338 Y-6.082 E7.8651
G1 X-8.248 Y-6.339 E7.89227
G1 X-7.93 Y-7.02 E7.96726
G1 X-7.618 Y-7.394 E8.01586
G1 X-7.01 Y-7.699 E8.08373
G1 X-6.664 Y-7.784 E8.11928
G1 X-6.515 Y-7.76 E8.13434
G1 X-6.402 Y-7.688 E8.14771
G0 F5400 X-6.264 Y-7.422
G0 X-5.38 Y-7.885
G0 X-5.988 Y-8.896
G0 X-13.063 Y-8.912
G0 X-14.121 Y-8.829
G1 F1800 X-14.053 Y-8.703 E8.162
G1 X-13.98 Y-7.852 E8.24722
G1 X-13.998 Y-7.315 E8.30083
G1 X-14.09 Y-6.785 E8.35451
G1 X-14.463 Y-6.236 E8.42073
G1 X-15.979 Y-3.806 E8.70652
G1 X-16.63 Y-2.579 E8.84511
G1 X-16.71 Y-2.209 E8.88288
G1 X-16.792 Y-1.529 E8.95123
G1 X-16.774 Y-1.263 E8.97783
G1 X-16.486 Y-.611 E9.04895
G1 X-16.271 Y0.061 E9.11935
G1 X-16.145 Y0.627 E9.17721
G1 X-15.78 Y1.099 E9.23674
G1 X-15.234 Y1.06 E9.29136
G1 X-14.908 Y1.128 E9.32459
G1 X-13.951 Y1.695 E9.43558
G1 X-12.976 Y2.349 E9.55273
G1 X-10.087 Y3.858 E9.87795
G1 X-9.969 Y3.969 E9.89411
G1 X-8.739 Y6.015 E10.13231
G1 X-8.35 Y6.876 E10.22659
G1 X-7.975 Y7.486 E10.29803
G1 X-7.144 Y7.536 E10.3811
G1 X-6.805 Y7.746 E10.42089
G1 X-6.491 Y8.11 E10.46886
G1 X-6.348 Y8.429 E10.50374
G1 X-5.824 Y8.491 E10.55639
G1 X-5.254 Y8.507 E10.61329
G1 X-4.701 Y8.54 E10.66856
G1 X-3.443 Y8.346 E10.79557
G1 X-2.313 Y8.134 E10.91029
G1 X-1.23 Y7.897 E11.02091
G1 X0.259 Y7.525 E11.17405
G1 X2.178 Y7.092 E11.37034
G1 X4.728 Y6.587 E11.62972
G1 F1684.9 X5.315 Y6.337 E11.69773
G1 F1491.7 X5.902 Y6.087 E11.77455
G1 F1338.3 X6.489 Y5.836 E11.86023
G1 F1254.4 X7.239 Y5.624 E11.97183
G1 F1235.7 X7.263 Y5.533 E11.98551
G1 F1263.2 X7.48 Y5.346 E12.02624
G1 F1404.4 X7.877 Y4.894 E12.10317
G1 F1576.6 X9.326 Y3.576 E12.32631
G1 F1659 X9.839 Y3.155 E12.39815
G1 F1750.4 X10.464 Y1.826 E12.54884
G1 F1800 X10.783 Y1.035 E12.63395
G1 X10.879 Y0.73 E12.66585
G1 X11.231 Y-0.086 E12.75453
G1 X11.626 Y-.771 E12.83342
G1 F1653.9 X11.583 Y-.803 E12.83924
G1 F1554 X11.72 Y-1.02 E12.86891
G1 F1563 X13.073 Y-2.718 E13.1184
G1 F1567.5 X13.173 Y-2.939 E13.14619
G1 F1558.4 X13.947 Y-3.967 E13.29449
G1 F1502.1 X13.774 Y-4.189 E13.32814
G1 F1690.1 X13.669 Y-4.536 E13.36667
G1 F1992.6 X13.543 Y-5.044 E13.41385
G1 F2007.4 X12.901 Y-5.356 E13.47771
G1 X12.747 Y-5.484 E13.49563
G1 X13.043 Y-4.82 E13.56067
G1 F1843 X13.186 Y-4.174 E13.62515
G1 F1641.3 X12.601 Y-3.302 E13.74005
G1 F1574.3 X12.394 Y-2.967 E13.78498
G1 F1554 X12.203 Y-2.758 E13.8177
G1 F1536.3 X11.004 Y-1.203 E14.04726
G1 F1653.9 X10.964 Y-1.233 E14.05269
G1 F1800 X10.564 Y-.858 E14.1074
G1 X10.411 Y-.84 E14.12277
G1 X9.893 Y-.913 E14.17497
G1 X9.155 Y-1.063 E14.25011
G1 X8.925 Y-1.127 E14.27393
G1 X8.114 Y-1.272 E14.35614
G1 F1809 X7.457 Y-1.482 E14.42462
G1 F1824.3 X7.339 Y-1.557 E14.43838
G1 F1830.5 X7.258 Y-1.705 E14.45493
G1 F1815.1 X7.186 Y-2.211 E14.50551
G1 F1800 X7.228 Y-2.81 E14.56542
G1 X8.365 Y-4.315 E14.75363
G1 X8.236 Y-4.548 E14.7802
G1 X8.03 Y-5.825 E14.90927
G1 X7.825 Y-7.284 E15.05628
G1 X7.524 Y-7.933 E15.12766
G1 X7.026 Y-7.592 E15.18789
G1 X5.671 Y-6.064 E15.39166
G1 X6.005 Y-5.211 E15.48307
G1 X5.991 Y-4.769 E15.52719
G1 X5.756 Y-4.006 E15.60686
G1 X5.757 Y-3.43 E15.66433
G1 X5.872 Y-2.925 E15.71601
G1 X6.253 Y-2.076 E15.80886
G1 F1815.1 X6.697 Y-1.457 E15.88424
G1 F1836.7 X6.83 Y-1.26 E15.90748
G1 F1821.2 X7.255 Y-.675 E15.97879
G1 F1800 X7.951 Y0.895 E16.15015
G1 X8.249 Y1.437 E16.21186
G1 X8.805 Y2.581 E16.33878
G1 X8.868 Y2.885 E16.36976
G1 F1703.5 X8.836 Y3.128 E16.3956
G1 F1621.6 X8.224 Y3.689 E16.48755
G1 F1616.8 X7.602 Y4.243 E16.58008
G1 F1508.4 X7.203 Y4.566 E16.64121
G1 F1323.5 X6.738 Y4.857 E16.71565
G1 F1254.4 X6.131 Y5.118 E16.81025
G1 F1338.3 X5.57 Y5.163 E16.88578
G1 F1491.7 X5.009 Y5.209 E16.95356
G1 F1684.9 X4.448 Y5.255 E17.01356
G1 F1800 X3.785 Y5.355 E17.08046
G1 X2.422 Y5.539 E17.2177
G1 X0.008 Y5.888 E17.46107
G1 X-1.738 Y6.188 E17.63784
G1 X-2.183 Y6.217 E17.68234
G1 X-2.631 Y6.167 E17.72731
G1 X-4.954 Y6.08 E17.95927
G1 X-6.081 Y5.361 E18.09266
G1 X-6.398 Y5.214 E18.12752
G1 X-6.65 Y4.938 E18.16481
G1 X-6.795 Y4.631 E18.19869
G1 X-7.46 Y3.299 E18.34724
G1 X-7.779 Y1.418 E18.53761
G1 X-6.788 Y-.548 E18.75729
G1 X-6.109 Y-1.778 E18.89748
G1 X-4.806 Y-3.506 E19.11342
G1 X-2.52 Y-4.467 E19.36086
G1 X-2.149 Y-6.342 E19.55157
G1 X-3.895 Y-12.29 E20.17011
G1 X-3.902 Y-12.434 E20.18449
G1 F1487.6 X-3.822 Y-12.744 E20.22315
G1 F1241.4 X-3.23 Y-13.063 E20.32044
G1 F1451.6 X-2.635 Y-13.201 E20.39601
G1 F1800 X-.218 Y-14.417 E20.66598
G1 F1700.8 X0.44 Y-14.787 E20.7457
G1 F1629 X0.644 Y-14.845 E20.76909
G1 F1719.7 X-.31 Y-15.166 E20.87421
G1 F1800 X-1.155 Y-15.303 E20.95962
G1 X-3.084 Y-14.813 E21.15821
G1 X-3.478 Y-14.171 E21.23337
G1 F1576.6 X-3.501 Y-14.024 E21.25032
G1 F1302.8 X-3.684 Y-13.824 E21.2877
G1 F1241.4 X-4.185 Y-13.511 E21.37316
G1 F1310.7 X-4.251 Y-13.521 E21.38231
G1 F1547.3 X-4.951 Y-13.473 E21.46376
G1 F1800 X-6.043 Y-13.241 E21.57515
G1 X-8.091 Y-13.409 E21.78019
G1 X-9.705 Y-13.634 E21.94279
G1 X-10.565 Y-13.483 E22.02991
G1 X-12.567 Y-13.061 E22.23406
G1 X-12.863 Y-12.96 E22.26527
G1 X-13.942 Y-12.119 E22.40177
G1 X-14.152 Y-11.513 E22.46577
G1 X-14.423 Y-10.661 E22.55498
G1 X-14.614 Y-9.967 E22.6268
G1 X-14.32 Y-8.83 E22.74398
G1 X-14.121 Y-8.829 E22.76384
G0 F5400 X-14.053 Y-8.703
G0 X-14.04 Y-8.547
G0 X-13.04 Y-8.626
G0 X-.22 Y-14.791
G0 X0.629 Y-14.841
G1 F1471.4 X1.883 Y-14.456 E22.92396
G1 F1386.4 X3.137 Y-14.071 E23.0939
G1 F1312.3 X4.391 Y-13.686 E23.27343
G1 F1231.5 X6.328 Y-13.082 E23.56935
G1 F1184.2 X8.162 Y-12.472 E23.86249
G1 F1493.8 X8.665 Y-11.954 E23.9493
G1 F2030.1 X8.934 Y-11.794 E23.97699
G1 F2026.3 X9.65 Y-11.224 E24.05811
G1 X9.397 Y-11.781 E24.11234
G1 X9.102 Y-12.317 E24.16657
G1 F2030.1 X8.883 Y-12.435 E24.18858
G1 F1493.8 X8.162 Y-12.472 E24.27538
G0 F5400 X8.371 Y-12.257
G1 F1500 E17.77538
G0 F5400 X7.843 Y-11.357
G0 X6.677 Y-8.522
G0 X7.397 Y-7.466
G0 X6.96 Y-4.522
G1 F1500 E24.27538
G0 F5400 X6.674 Y-4.611
;TYPE:SKIN
G1 F1251.4 X6.458 Y-3.898 E24.3823
G1 X6.459 Y-3.509 E24.43813
G1 X6.587 Y-3.046 E24.50707
G1 X6.672 Y-3.236 E24.53695
G1 F1284.2 X7.541 Y-4.39 E24.73899
G1 F1353.4 X7.425 Y-5.446 E24.87997
G1 X7.334 Y-5.897 E24.94103
G1 F1318.7 X7.209 Y-6.778 E25.06222
G1 X6.458 Y-5.927 E25.21681
G1 F1315.5 X6.663 Y-5.331 E25.30286
G1 F1281.1 X6.674 Y-4.611 E25.40381
G1 F1500 E18.90381
G0 F5400 X6.96 Y-4.522
G0 X6.922 Y-2.93
G0 X7.239 Y-1.227
G0 X9.133 Y0.971
G1 F1500 E25.40381
G0 F5400 X8.749 Y1.159
G1 F1800 X9.317 Y2.326 E25.53331
G1 X9.415 Y2.716 E25.57344
G1 X9.942 Y1.59 E25.69749
G1 X10.245 Y0.843 E25.77792
G1 X10.34 Y0.543 E25.80932
G1 X10.707 Y-.31 E25.90198
G1 X10.329 Y-.275 E25.93985
G1 X9.778 Y-.354 E25.99539
G1 X9.062 Y-.498 E26.06827
G1 X8.799 Y-.568 E26.09542
G1 X8.011 Y-.71 E26.17532
G1 X7.843 Y-.762 E26.19287
G1 X8.463 Y0.641 E26.34592
G1 X8.749 Y1.159 E26.40496
G0 F5400 X9.34 Y1.69
G1 F1800 X9.737 Y1.293 E26.46098
G0 F5400 X9.062 Y1.119
G1 F1800 X10.175 Y0.006 E26.61804
G0 F5400 X9.449 Y-.115
G1 F1800 X8.765 Y0.568 E26.71448
G0 F5400 X8.5 Y-0.014
G1 F1800 X8.744 Y-.259 E26.74899
G0 F5400 X8.713 Y-.151
G0 X9.253 Y3.158
G0 X7.806 Y4.468
G0 X6.446 Y5.225
G0 X4.524 Y5.932
G1 F1261.7 X3.279 Y6.142 E26.92872
G1 F1167.6 X2.034 Y6.353 E27.12297
G1 F1097.6 X1.46 Y6.459 E27.21848
G0 F5400 X-2.224 Y6.558
G0 X-5.063 Y6.413
G0 X-6.611 Y5.496
G0 X-7.786 Y3.404
G0 X-8.131 Y1.367
G0 X-6.407 Y-1.945
G0 X-5.028 Y-3.778
G0 X-5.719 Y-8.531
G0 X-6.239 Y-8.259
G1 F1800 X-5.951 Y-8.046 E27.25423
G1 X-5.593 Y-7.37 E27.33055
G1 X-5.126 Y-5.97 E27.47781
G1 X-5.039 Y-4.861 E27.58881
G1 X-5.1 Y-4.486 E27.62672
G1 F1641.3 X-5.343 Y-3.842 E27.70204
G1 F1542.9 X-5.228 Y-3.939 E27.71955
G1 F1682.2 X-4.846 Y-4.108 E27.76415
G1 F1800 X-3.023 Y-4.876 E27.96153
G1 X-2.737 Y-6.314 E28.10783
G1 X-4.441 Y-12.126 E28.71216
G1 X-4.466 Y-12.505 E28.75006
G1 X-4.402 Y-12.874 E28.78743
G1 X-4.869 Y-12.907 E28.83414
G1 X-6.009 Y-12.665 E28.95043
G1 X-8.137 Y-12.84 E29.16348
G1 X-9.695 Y-13.056 E29.32042
G1 X-10.457 Y-12.922 E29.39762
G1 X-12.548 Y-12.48 E29.61087
G1 X-13.472 Y-11.759 E29.72781
G1 X-13.875 Y-10.499 E29.85981
G1 X-14.023 Y-9.961 E29.91549
G1 X-13.843 Y-9.271 E29.98664
G1 X-13.692 Y-9.204 E30.00312
G1 X-13.483 Y-8.788 E30.04958
G1 X-13.411 Y-7.892 E30.13927
G1 X-13.431 Y-7.262 E30.20216
G1 X-13.544 Y-6.577 E30.27144
G1 X-13.986 Y-5.924 E30.35011
G1 X-15.483 Y-3.522 E30.63252
G1 X-16.123 Y-2.316 E30.76875
G1 X-16.228 Y-1.439 E30.85689
G1 X-15.962 Y-.834 E30.92283
G1 X-15.727 Y-.115 E30.99831
G1 X-15.616 Y0.378 E31.04873
G1 X-15.514 Y0.509 E31.0653
G1 X-15.123 Y0.501 E31.10432
G1 X-14.647 Y0.618 E31.15323
G1 X-13.633 Y1.221 E31.27094
G1 X-12.685 Y1.857 E31.38485
G1 X-9.829 Y3.35 E31.70641
G1 X-9.477 Y3.678 E31.75442
G1 X-8.25 Y5.72 E31.99213
G1 X-7.847 Y6.605 E32.08916
G1 X-7.644 Y6.933 E32.12764
G1 X-7.019 Y6.974 E32.19014
G1 X-6.427 Y7.312 E32.25816
G1 X-6.023 Y7.782 E32.32
G1 X-5.955 Y7.916 E32.335
G1 X-5.235 Y7.937 E32.40687
G1 X-4.73 Y7.967 E32.45735
G1 X-3.545 Y7.784 E32.57699
G1 X-2.624 Y7.611 E32.67049
G1 F1719.7 X-2.046 Y7.463 E32.7328
G1 F1698.1 X-1.492 Y7.361 E32.79238
G1 F1839.9 X0.124 Y6.991 E32.95422
G1 F1992.6 X0.929 Y6.825 E33.0283
G1 F1408.1 X1.46 Y6.459 E33.11056
G1 X0.834 Y6.307 E33.19273
G1 F1996.3 X0.108 Y6.427 E33.25894
G1 F1839.9 X-1.64 Y6.76 E33.43264
G1 F1692.8 X-2.14 Y6.815 E33.48601
G1 F1719.7 X-2.674 Y6.737 E33.54237
G1 F1800 X-5.016 Y6.649 E33.77622
G1 X-5.251 Y6.563 E33.80119
G1 X-6.357 Y5.861 E33.9319
G1 X-6.74 Y5.677 E33.9743
G1 X-7.135 Y5.238 E34.03322
G1 X-8.009 Y3.476 E34.22948
G1 X-8.332 Y1.559 E34.42345
G1 X-8.259 Y1.105 E34.46934
G1 X-7.299 Y-.804 E34.68255
G1 X-6.617 Y-2.048 E34.8241
G1 F1636.4 X-5.93 Y-3.065 E34.95881
G1 F1540.7 X-5.867 Y-3.179 E34.97399
G1 F1684.9 X-7.037 Y-2.689 E35.10921
G1 F1800 X-7.701 Y-2.462 E35.17923
G1 X-8.399 Y-2.389 E35.24926
G1 X-9.714 Y-2.348 E35.38053
G1 X-10.045 Y-2.499 E35.41683
G1 X-10.316 Y-2.753 E35.45389
G1 X-10.604 Y-3.56 E35.53939
G1 X-10.538 Y-4.036 E35.58734
G1 X-10.337 Y-4.405 E35.62927
G1 X-10.137 Y-5.076 E35.69913
G1 X-9.473 Y-5.988 E35.81169
G1 X-8.811 Y-6.482 E35.89411
G1 X-8.463 Y-7.24 E35.97734
G1 X-8.012 Y-7.839 E36.05215
G1 X-7.192 Y-8.245 E36.14345
G1 X-6.713 Y-8.352 E36.19242
G1 X-6.239 Y-8.259 E36.24062
G0 F5400 X-5.719 Y-8.531
G0 X-5.239 Y-7.487
G0 X-4.805 Y-6.169
G0 X-4.629 Y-4.59
G0 X-5.343 Y-3.842
G1 F1512.6 X-5.379 Y-3.788 E36.24833
G1 F1463.4 X-5.853 Y-3.204 E36.34064
G0 F5400 X-6.787 Y-2.413
G0 X-8.357 Y-2.021
G0 X-10.397 Y-1.966
G0 X-10.964 Y-3.435
G0 X-13.182 Y-11.265
G0 X-13.3 Y-11.306
G1 F1800 X-12.402 Y-12.204 E36.46736
G0 F5400 X-12.358 Y-12.075
G0 X-11.302 Y-12.307
G0 X-11.327 Y-12.43
G1 F1800 X-13.698 Y-10.06 E36.80186
G0 F5400 X-13.493 Y-9.417
G1 F1800 X-10.258 Y-12.651 E37.25828
G0 F5400 X-9.355 Y-12.706
G1 F1800 X-13.192 Y-8.869 E37.79972
G0 F5400 X-13.123 Y-8.089
G1 F1800 X-8.61 Y-12.602 E38.43656
G0 F5400 X-7.85 Y-12.514
G1 F1800 X-13.133 Y-7.23 E39.18212
G1 X-13.239 Y-7.124
G0 F5400 X-13.022 Y-7.087
G0 X-13.58 Y-5.758
G0 X-13.685 Y-5.83
G1 F1800 X-7.065 Y-12.45 E40.11627
G0 F5400 X-6.281 Y-12.386
G1 F1800 X-15.099 Y-3.568 E41.36059
G1 X-15.205 Y-3.462
G0 F5400 X-15.07 Y-3.377
G0 X-15.737 Y-1.94
G0 X-15.862 Y-1.956
G1 F1800 X-5.312 Y-12.506 E42.8493
G0 F5400 X-4.753 Y-12.216
G1 F1800 X-15.786 Y-1.183 E44.40618
G0 F5400 X-15.558 Y-.563
G1 F1800 X-8.7 Y-7.421 E45.37392
G0 F5400 X-8.824 Y-7.478
G0 X-7.944 Y-8.351
G0 X-7.887 Y-8.234
G1 F1800 X-4.582 Y-11.539 E45.84029
G0 F5400 X-4.39 Y-10.883
G1 F1800 X-6.635 Y-8.638 E46.15708
G0 F5400 X-5.985 Y-8.439
G1 F1800 X-4.198 Y-10.226 E46.40925
G0 F5400 X-4.005 Y-9.57
G1 F1800 X-5.581 Y-7.994 E46.63164
G0 F5400 X-5.294 Y-7.433
G1 F1800 X-3.813 Y-8.914 E46.84062
G0 F5400 X-3.621 Y-8.258
G1 F1800 X-5.082 Y-6.796 E47.04686
G0 F5400 X-4.87 Y-6.16
G1 F1800 X-3.428 Y-7.602 E47.25034
G0 F5400 X-3.236 Y-6.945
G1 F1800 X-4.777 Y-5.404 E47.46779
G0 F5400 X-4.787 Y-4.546
G1 F1800 X-3.049 Y-6.284 E47.71304
G0 F5400 X-3.173 Y-6.309
G0 X-3.382 Y-5.25
G0 X-3.259 Y-5.226
G1 F1800 X-3.474 Y-5.01 E47.74345
G0 F5400 X-3.523 Y-5.129
G0 X-5.988 Y-8.896
G0 X-7.3 Y-8.603
G0 X-8.233 Y-8.14
G0 X-10.465 Y-5.26
G0 X-11.098 Y-3.781
G0 X-10.397 Y-1.966
G0 X-8.357 Y-2.021
G0 X-6.88 Y-2.29
G0 X-6.921 Y-2.411
G1 F1800 X-11.481 Y2.148 E48.38685
G0 F5400 X-10.924 Y2.439
G1 F1800 X-7.585 Y-.899 E48.85794
G1 X-7.479 Y-1.005
G0 F5400 X-7.63 Y-1.089
G0 X-8.058 Y-2.123
G1 F1800 X-12.039 Y1.856 E49.41956
G0 F5400 X-12.59 Y1.559
G1 F1800 X-8.959 Y-2.071 E49.93187
G0 F5400 X-9.807 Y-2.071
G1 F1800 X-13.099 Y1.219 E50.39626
G0 F5400 X-13.612 Y0.884
G1 F1800 X-10.348 Y-2.379 E50.85678
G0 F5400 X-10.684 Y-2.892
G1 F1800 X-14.145 Y0.569 E51.34516
G0 F5400 X-14.719 Y0.294
G1 F1800 X-10.897 Y-3.527 E51.88442
G1 X-10.791 Y-3.633
G0 F5400 X-11.069 Y-3.528
G0 X-10.679 Y-4.753
G0 X-10.557 Y-4.716
G1 F1800 X-15.37 Y0.096 E52.56351
G1 X-15.476 Y0.202
G0 F5400 X-15.27 Y0.076
G0 X-10.306 Y2.617
G0 X-10.366 Y2.73
G1 F1800 X-8.445 Y0.808 E52.83466
G0 F5400 X-8.561 Y0.749
G0 X-8.724 Y1.827
G0 X-8.594 Y1.806
G1 F1800 X-9.809 Y3.021 E53.00611
G0 F5400 X-9.338 Y3.399
G1 F1800 X-8.472 Y2.532 E53.12838
G0 F5400 X-8.35 Y3.259
G1 F1800 X-8.992 Y3.901 E53.21897
G0 F5400 X-8.674 Y4.431
G1 F1800 X-8.136 Y3.894 E53.29482
G0 F5400 X-7.854 Y4.46
G1 F1800 X-8.355 Y4.961 E53.36552
G0 F5400 X-8.037 Y5.492
G1 F1800 X-7.571 Y5.026 E53.43127
G0 F5400 X-7.252 Y5.555
G1 F1800 X-7.761 Y6.064 E53.5031
G0 F5400 X-7.477 Y6.629
G1 F1800 X-6.808 Y5.96 E53.5975
G0 F5400 X-6.27 Y6.27
G1 F1800 X-6.77 Y6.77 E53.66806
G0 F5400 X-6.231 Y7.079
G1 F1800 X-5.752 Y6.6 E53.73565
G0 F5400 X-5.197 Y6.894
G1 F1800 X-5.839 Y7.537 E53.82631
G0 F5400 X-5.098 Y7.643
G1 F1800 X-4.425 Y6.971 E53.92121
G0 F5400 X-4.184 Y7.578
G1 F1800 X-3.608 Y7.002 E54.00249
G0 F5400 X-3.163 Y7.406
G1 F1800 X-2.791 Y7.034 E54.05498
G0 F5400 X-2.796 Y7.159
G0 X-5.063 Y6.413
G0 X-6.611 Y5.496
G0 X-7.786 Y3.404
G0 X-8.131 Y1.367
G0 X-6.407 Y-1.945
G0 X-3.542 Y-7.896
G0 X-4.36 Y-12.701
G0 X-3.044 Y-13.699
G1 F2057.1 X-2.829 Y-13.701 E54.07376
G1 X-.824 Y-14.709 E54.26969
G1 X-1.129 Y-14.759 E54.29667
G1 X-2.742 Y-14.349 E54.44198
G1 X-3.012 Y-13.904 E54.48742
G1 X-3.044 Y-13.699 E54.50553
G1 F1500 E48.00553
;MESH:NONMESH
G0 F600 X-3.044 Y-13.699 Z1.1
G0 F5400 X-1.787 Y-13.984
G0 X-1.21 Y-12.838
G0 X-0.068 Y-10.562
;TIME_ELAPSED:30.028143
;LAYER:2
;TYPE:WALL-OUTER
;MESH:bunny.obj
G1 F1500 E54.50553
G1 F1800 X0.068 Y-10.699 E54.5248
G1 X1.554 Y-11.447 E54.6908
G1 X1.7 Y-11.435 E54.70541
G1 X4.224 Y-10.606 E54.97049
G1 X5.197 Y-10.035 E55.08306
G1 X5.267 Y-9.926 E55.09599
G1 X5.29 Y-9.785 E55.11024
G1 X5.2 Y-9.592 E55.13149
G1 X3.892 Y-8.704 E55.28924
G1 X3.536 Y-8.315 E55.34186
G1 X4.521 Y-6.073 E55.5862
G1 X4.597 Y-5.847 E55.60999
G1 X5.161 Y-4.461 E55.7593
G1 X5.259 Y-3.766 E55.82933
G1 X5.292 Y-3.254 E55.88053
G1 X5.73 Y-1.945 E56.01826
G1 X6.137 Y-1.235 E56.09992
G1 X8.264 Y2.151 E56.4989
G1 X8.349 Y2.836 E56.56778
G1 X8.329 Y2.985 E56.58278
G1 X8.168 Y3.365 E56.62396
G1 X7.643 Y3.788 E56.69123
G1 X6.569 Y4.418 E56.81547
G1 X5.899 Y4.607 E56.88493
G1 X1.915 Y5.287 E57.28821
G1 X-.456 Y5.671 E57.52787
G1 X-1.73 Y5.778 E57.65544
G1 X-3.518 Y5.863 E57.83404
G1 X-4.538 Y5.677 E57.9375
G1 X-5.396 Y5.329 E58.02988
G1 X-6.098 Y4.67 E58.12596
G1 X-6.591 Y3.97 E58.21139
G1 X-6.954 Y3.036 E58.31137
G1 X-7.202 Y1.962 E58.42136
G1 X-7.201 Y1.907 E58.42685
G1 X-6.867 Y0.704 E58.55142
G1 X-5.725 Y-1.44 E58.79381
G1 X-5.518 Y-1.758 E58.83167
G1 X-5.409 Y-1.853 E58.8461
G1 X-4.381 Y-2.177 E58.95364
G1 X-.407 Y-3.845 E59.38368
G1 X0.49 Y-8.385 E59.84544
G1 X-.103 Y-10.408 E60.05579
G1 X-0.068 Y-10.562 E60.07155
G0 F7200 X0.068 Y-10.699
G0 X0.163 Y-10.747
G0 X-.285 Y-11.641
G0 X-12.911 Y-6.433
G0 X-13.855 Y-6.76
G1 F1800 X-14.092 Y-6.077 E60.14369
G1 X-15.164 Y-4.925 E60.3007
G1 X-16.272 Y-3.535 E60.47807
G1 X-16.684 Y-2.934 E60.55078
G1 X-17.06 Y-1.923 E60.65841
G1 X-16.87 Y-.831 E60.769
G1 X-16.481 Y0.18 E60.87709
G1 X-15.988 Y0.997 E60.9723
G1 X-15.572 Y1.322 E61.02498
G1 X-14.815 Y1.639 E61.10687
G1 X-13.696 Y2.128 E61.22872
G1 X-12.871 Y2.474 E61.31798
G1 X-12.03 Y2.872 E61.41082
G1 X-10.983 Y3.316 E61.52429
G1 X-10.243 Y3.537 E61.60135
G1 X-9.821 Y3.754 E61.6487
G1 X-9.72 Y3.882 E61.66497
G1 X-9.44 Y4.552 E61.73743
G1 X-9.114 Y5.29 E61.81793
G1 X-8.775 Y5.853 E61.8835
G1 X-8.152 Y7.54 E62.06295
G1 X-7.859 Y7.772 E62.10024
G1 X-6.762 Y8.326 E62.22286
G1 X-6.002 Y8.794 E62.31192
G1 X-5.714 Y8.82 E62.34077
G1 X-4.956 Y8.741 E62.41682
G1 X-1.691 Y8.127 E62.74831
G1 X2.105 Y7.333 E63.13527
G1 X2.622 Y7.266 E63.18729
G1 X3.219 Y7.176 E63.24753
G1 X7.72 Y6.45 E63.70245
G1 X8.869 Y6.234 E63.81911
G1 X9.5 Y5.55 E63.91196
G1 X9.827 Y5.116 E63.96618
G1 X10.288 Y4.154 E64.07262
G1 X10.953 Y2.713 E64.23098
G1 X11.391 Y0.692 E64.43732
G1 X11.762 Y0.286 E64.49219
G1 X12.772 Y-0.054 E64.59853
G1 X15.273 Y-2.52 E64.94899
G1 X15.884 Y-3.071 E65.03108
G1 X15.929 Y-3.483 E65.07243
G1 X15.65 Y-4.196 E65.14883
G1 X14.767 Y-6.101 E65.35834
G1 X12.627 Y-8.365 E65.66919
G1 X11.824 Y-8.965 E65.76921
G1 X11.737 Y-9.088 E65.78424
G1 X11.469 Y-10.417 E65.91952
G1 X10.759 Y-12.32 E66.12219
G1 X9.905 Y-13.119 E66.23888
G1 X9.172 Y-13.289 E66.31396
G1 X8.493 Y-13.501 E66.38494
G1 X6.53 Y-14.175 E66.59203
G1 X4.642 Y-14.837 E66.79166
G1 X-.157 Y-16.138 E67.28779
G1 X-2.653 Y-16.65 E67.54203
G1 X-3.433 Y-16.506 E67.62117
G1 X-4.259 Y-15.903 E67.72321
G1 X-4.855 Y-15.384 E67.80207
G1 X-5.489 Y-14.898 E67.88178
G1 X-6.341 Y-14.224 E67.99018
G1 X-6.665 Y-13.89 E68.03661
G1 X-6.817 Y-13.811 E68.0537
G1 X-6.968 Y-13.79 E68.06891
G1 X-8.269 Y-14.031 E68.20094
G1 X-10.215 Y-14.195 E68.3958
G1 X-11.163 Y-14.343 E68.49153
G1 X-12.047 Y-14.439 E68.58026
G1 X-13.107 Y-14.233 E68.68801
G1 X-13.616 Y-13.973 E68.74504
G1 X-14.02 Y-13.665 E68.79573
G1 X-14.375 Y-13.343 E68.84355
G1 X-14.651 Y-12.69 E68.91429
G1 X-14.876 Y-12.388 E68.95186
G1 X-15.128 Y-11.789 E69.01671
G1 X-15.175 Y-10.585 E69.13693
G1 X-15.116 Y-10.114 E69.1843
G1 X-14.683 Y-8.444 E69.35644
G1 X-14.286 Y-7.549 E69.45414
G1 X-13.886 Y-7.102 E69.51399
G1 X-13.841 Y-6.894 E69.53522
G1 X-13.855 Y-6.76 E69.54867
G0 F7200 X-13.953 Y-6.477
G0 X-13.279 Y-6.697
;TYPE:SKIN
G1 F1800 X-13.534 Y-5.94 E69.62837
G1 X-13.668 Y-5.697 E69.65606
G1 X-14.733 Y-4.55 E69.81223
G1 X-15.813 Y-3.196 E69.98505
G1 X-16.176 Y-2.667 E70.04907
G1 X-16.472 Y-1.87 E70.1339
G1 X-16.316 Y-.982 E70.22386
G1 X-15.968 Y-0.074 E70.32089
G1 X-15.557 Y0.609 E70.40043
G1 X-15.278 Y0.826 E70.43569
G1 X-14.665 Y1.083 E70.50202
G1 X-13.505 Y1.589 E70.62829
G1 X-12.652 Y1.947 E70.7206
G1 X-11.796 Y2.351 E70.81505
G1 X-10.789 Y2.778 E70.92418
G1 X-10.083 Y2.986 E70.99762
G1 X-9.499 Y3.285 E71.06309
G1 X-9.194 Y3.663 E71.11155
G1 X-8.922 Y4.311 E71.18168
G1 X-8.607 Y5.025 E71.25954
G1 X-8.259 Y5.605 E71.32703
G1 X-7.658 Y7.234 E71.50029
G1 X-6.486 Y7.826 E71.6313
G1 X-5.786 Y8.254 E71.71317
G1 X-5.041 Y8.176 E71.78791
G1 X-2.119 Y7.627 E72.08457
G1 F1451.6 X-1.563 Y7.369 E72.16041
G1 F1273.6 X-.225 Y7.131 E72.35206
G1 F1382.8 X1.984 Y6.697 E72.64445
G1 F1415.5 X3.115 Y6.529 E72.78954
G1 F1390 X6.137 Y6.035 E73.18521
G1 F1335 X7.02 Y5.867 E73.30614
G1 F1491.7 X7.587 Y5.886 E73.37444
G1 F1779.2 X8.579 Y5.706 E73.47621
G1 F1800 X9.067 Y5.177 E73.54803
G1 F1759 X9.352 Y4.751 E73.60036
G1 F1449.7 X9.474 Y4.228 E73.6669
G1 F1252.9 X9.763 Y3.613 E73.76431
G1 F1235.7 X9.857 Y3.385 E73.80015
G1 F1428.6 X10.195 Y2.958 E73.86862
G1 F1759 X10.409 Y2.529 E73.91757
G1 F1800 X10.843 Y0.52 E74.12266
G1 X10.909 Y0.387 E74.13747
G1 X11.328 Y-0.098 E74.20142
G1 X11.551 Y-.25 E74.22835
G1 X12.466 Y-.553 E74.32452
G1 X14.873 Y-2.926 E74.66179
G1 X15.339 Y-3.348 E74.72452
G1 X15.346 Y-3.405 E74.73025
G1 X15.126 Y-3.971 E74.79084
G1 X14.288 Y-5.775 E74.98932
G1 X12.246 Y-7.937 E75.28605
G1 X11.414 Y-8.566 E75.39012
G1 X11.186 Y-8.925 E75.43256
G1 X10.918 Y-10.262 E75.56862
G1 X10.273 Y-11.994 E75.75303
G1 X9.628 Y-12.597 E75.84114
G1 X9.068 Y-12.726 E75.89848
G1 X8.316 Y-12.958 E75.977
G1 X6.344 Y-13.636 E76.18507
G1 X4.475 Y-14.291 E76.38268
G1 X-.288 Y-15.582 E76.87509
G1 X-2.659 Y-16.069 E77.1166
G1 X-3.201 Y-15.968 E77.17162
G1 X-3.902 Y-15.457 E77.25817
G1 X-4.509 Y-14.929 E77.33845
G1 X-5.114 Y-14.466 E77.41446
G1 X-5.958 Y-13.797 E77.52193
G1 X-6.31 Y-13.444 E77.57167
G1 X-6.563 Y-13.3 E77.60072
G1 X-6.953 Y-13.208 E77.6407
G1 X-8.347 Y-13.465 E77.78214
G1 X-10.263 Y-13.627 E77.974
G1 X-11.238 Y-13.777 E78.07243
G1 X-12.021 Y-13.862 E78.15101
G1 X-12.918 Y-13.688 E78.24219
G1 X-13.303 Y-13.492 E78.28529
G1 X-13.901 Y-12.999 E78.36262
G1 X-14.15 Y-12.416 E78.42588
G1 X-14.378 Y-12.099 E78.46484
G1 X-14.562 Y-11.664 E78.51197
G1 X-14.603 Y-10.609 E78.61732
G1 X-14.555 Y-10.223 E78.65613
G1 X-14.141 Y-8.632 E78.82017
G1 X-13.801 Y-7.863 E78.90406
G1 X-13.419 Y-7.438 E78.96108
G1 X-13.299 Y-7.106 E78.99631
G1 X-13.279 Y-6.697 E79.03717
G0 F7200 X-12.868 Y-6.555
G0 X-1.166 Y-10.481
G0 X-.646 Y-10.634
G1 F1800 X-.434 Y-11.024 E79.08146
G1 X-.188 Y-11.208 E79.11211
G1 X1.279 Y-11.942 E79.27579
G1 X1.599 Y-12.012 E79.30847
G1 X1.86 Y-11.984 E79.33467
G1 X4.461 Y-11.13 E79.60783
G1 X5.429 Y-10.56 E79.71991
G1 X5.668 Y-10.351 E79.75159
G1 X5.788 Y-10.161 E79.77402
G1 X5.859 Y-9.74 E79.81662
G1 X5.8 Y-9.487 E79.84254
G1 X5.615 Y-9.184 E79.87796
G1 X4.2 Y-8.223 E80.04863
G1 X5.053 Y-6.278 E80.26055
G1 X5.131 Y-6.046 E80.28497
G1 X5.712 Y-4.62 E80.43862
G1 X5.826 Y-3.826 E80.51865
G1 X5.856 Y-3.365 E80.56475
G1 X6.251 Y-2.184 E80.68901
G1 X6.625 Y-1.53 E80.76418
G1 X8.712 Y1.791 E81.15555
G1 X8.823 Y2.081 E81.18654
G1 F1759 X8.928 Y2.76 E81.25669
G1 F1574.3 X8.985 Y2.847 E81.26856
G1 F1336.6 X9.02 Y3.161 E81.31101
G1 F1247.1 X8.734 Y3.791 E81.41065
G1 F1449.7 X8.358 Y3.964 E81.46193
G1 F1759 X7.99 Y4.245 E81.50921
G1 F1779.2 X7.172 Y4.735 E81.60546
G1 F1491.7 X6.818 Y5.062 E81.66349
G1 F1333.3 X6.051 Y5.254 E81.76999
G1 F1400.8 X1.822 Y5.958 E82.31969
G1 F1381.1 X-.402 Y6.343 E82.61321
G1 F1273.6 X-1.674 Y6.49 E82.79379
G1 F1451.6 X-2.265 Y6.373 E82.86833
G1 F1800 X-3.552 Y6.436 E82.9969
G1 X-4.699 Y6.228 E83.11322
G1 X-5.586 Y5.868 E83.20873
G1 X-5.79 Y5.737 E83.23292
G1 X-6.535 Y5.045 E83.33438
G1 X-7.094 Y4.241 E83.43209
G1 X-7.499 Y3.208 E83.5428
G1 X-7.772 Y2.047 E83.66181
G1 X-7.756 Y1.764 E83.69009
G1 X-7.398 Y0.496 E83.82156
G1 X-6.204 Y-1.752 E84.07554
G1 X-5.966 Y-2.106 E84.1181
G1 X-5.664 Y-2.373 E84.15832
G1 X-4.577 Y-2.713 E84.27197
G1 X-.909 Y-4.254 E84.66895
G1 X-0.098 Y-8.357 E85.08627
G1 X-.648 Y-10.242 E85.2822
G1 X-.646 Y-10.634 E85.32131
G0 F7200 X-1.166 Y-10.481
G0 X1.522 Y-12.479
G0 X10.267 Y-10.782
G0 X10.386 Y-10.826
G1 F1800 X8.684 Y-12.528 E85.56148
G1 X8.578 Y-12.634
G0 F7200 X8.52 Y-12.447
G0 X7.373 Y-12.83
G0 X7.414 Y-12.949
G1 F1800 X10.738 Y-9.626 E86.03047
G1 X10.844 Y-9.52
G0 F7200 X10.637 Y-9.48
G0 X6.389 Y-10.494
G0 X6.107 Y-10.014
G1 F1800 X13.815 Y-2.306 E87.11815
G0 F7200 X14.242 Y-2.728
G1 F1800 X2.44 Y-14.53 E88.78354
G1 X2.334 Y-14.636
G0 F7200 X2.281 Y-14.444
G0 X3.571 Y-14.094
G0 X3.604 Y-14.214
G1 F1800 X14.669 Y-3.149 E90.34493
G0 F7200 X14.871 Y-3.795
G1 F1800 X4.814 Y-13.852 E91.76408
G1 X4.708 Y-13.958
G0 F7200 X4.644 Y-13.778
G0 X6.077 Y-13.275
G0 X6.12 Y-13.396
G1 F1800 X14.142 Y-5.374 E92.89607
G1 X14.248 Y-5.268
G0 F7200 X14.087 Y-5.194
G0 X13.298 Y-1.976
G0 X13.387 Y-1.885
G1 F1800 X6.008 Y-9.264 E93.93733
G0 F7200 X5.611 Y-8.813
G1 F1800 X12.96 Y-1.464 E94.97435
G0 F7200 X12.533 Y-1.042
G1 F1800 X5.105 Y-8.471 E96.02259
G0 F7200 X4.599 Y-8.128
G1 F1800 X12.009 Y-.718 E97.06822
G0 F7200 X11.383 Y-.495
G1 F1800 X5.205 Y-6.673 E97.94001
G1 X5.099 Y-6.779
G0 F7200 X5.27 Y-6.853
G0 X5.897 Y-5.303
G0 X5.775 Y-5.255
G1 F1800 X10.931 Y-0.098 E98.66764
G0 F7200 X10.579 Y0.397
G1 F1800 X6.091 Y-4.091 E99.30095
G0 F7200 X6.22 Y-4.109
G0 X6.397 Y-3.1
G0 X6.273 Y-3.06
G1 F1800 X10.414 Y1.08 E99.88522
G0 F7200 X10.263 Y1.778
G1 F1800 X7.017 Y-1.467 E100.34319
G1 X6.911 Y-1.573
G0 F7200 X7.051 Y-1.66
G0 X8.561 Y0.748
G0 X8.452 Y0.816
G1 F1800 X10.103 Y2.466 E100.5761
G0 F7200 X9.747 Y2.959
G1 F1800 X9.179 Y2.391 E100.65625
G0 F7200 X9.299 Y2.377
G0 X8.994 Y3.843
G0 X8.495 Y4.252
G1 F1800 X8.986 Y4.743 E100.72553
G0 F7200 X8.616 Y5.222
G1 F1800 X7.989 Y4.595 E100.81401
G0 F7200 X7.463 Y4.917
G1 F1800 X8.041 Y5.495 E100.89557
G0 F7200 X7.208 Y5.511
G1 F1800 X7.043 Y5.346 E100.91885
G0 F7200 X-2.089 Y7.184
G0 X-2.076 Y7.257
G1 F1800 X-2.642 Y6.691 E100.99872
G0 F7200 X-2.743 Y7.438
G1 F1800 X-3.451 Y6.73 E101.09863
G0 F7200 X-3.458 Y7.572
G1 F1800 X-4.454 Y6.576 E101.23918
G0 F7200 X-4.477 Y6.703
G0 X-4.172 Y7.706
G1 F1800 X-5.778 Y6.1 E101.4658
G1 X-5.884 Y5.994
G0 F7200 X-6.008 Y6.126
G0 X-7.154 Y4.907
G0 X-7.047 Y4.832
G1 F1800 X-15.272 Y-3.392 E102.62637
G0 F7200 X-15.642 Y-2.914
G1 F1800 X-10.038 Y2.689 E103.41708
G1 X-9.932 Y2.795
G0 F7200 X-9.841 Y2.618
G0 X-11.323 Y2.088
G0 X-11.373 Y2.203
G1 F1800 X-15.96 Y-2.384 E104.06436
G0 F7200 X-16.139 Y-1.714
G1 F1800 X-12.915 Y1.509 E104.51923
G1 X-12.809 Y1.615
G0 F7200 X-12.738 Y1.446
G0 X-14.353 Y0.751
G0 X-14.405 Y0.868
G1 F1800 X-15.831 Y-.557 E104.72038
G1 X-15.937 Y-.663
G0 F7200 X-15.761 Y-.731
G0 X-14.795 Y-3.785
G0 X-14.895 Y-3.865
G1 F1800 X-7.802 Y3.228 E105.72128
G0 F7200 X-7.929 Y3.256
G0 X-8.187 Y2.15
G0 X-8.06 Y2.122
G1 F1800 X-14.519 Y-4.337 E106.63271
G0 F7200 X-14.112 Y-4.778
G1 F1800 X-7.957 Y1.376 E107.50118
G0 F7200 X-7.769 Y0.715
G1 F1800 X-13.703 Y-5.218 E108.33846
G0 F7200 X-13.33 Y-5.693
G1 F1800 X-7.531 Y0.105 E109.15669
G0 F7200 X-7.236 Y-.448
G1 F1800 X-13.094 Y-6.306 E109.98332
G0 F7200 X-12.997 Y-7.057
G1 F1800 X-6.942 Y-1.002 E110.83774
G0 F7200 X-6.647 Y-1.556
G1 F1800 X-13.868 Y-8.777 E111.85671
G0 F7200 X-13.746 Y-8.808
G0 X-14.044 Y-9.955
G0 X-14.166 Y-9.924
G1 F1800 X-6.332 Y-2.09 E112.96217
G0 F7200 X-5.93 Y-2.536
G1 F1800 X-14.291 Y-10.897 E114.142
G0 F7200 X-14.228 Y-11.682
G1 F1800 X-5.335 Y-2.79 E115.39682
G0 F7200 X-4.689 Y-2.992
G1 F1800 X-13.92 Y-12.223 E116.69942
G0 F7200 X-13.655 Y-12.807
G1 F1800 X-4.091 Y-3.242 E118.04907
G0 F7200 X-3.493 Y-3.493
G1 F1800 X-13.193 Y-13.193 E119.41785
G0 F7200 X-12.595 Y-13.444
G1 F1800 X-2.896 Y-3.744 E120.78655
G0 F7200 X-2.298 Y-3.995
G1 F1800 X-11.842 Y-13.539 E122.13331
G0 F7200 X-10.87 Y-13.415
G1 F1800 X-1.7 Y-4.246 E123.42723
G0 F7200 X-1.155 Y-4.549
G1 F1800 X-9.9 Y-13.294 E124.66124
G0 F7200 X-8.972 Y-13.215
G1 F1800 X-1.015 Y-5.258 E125.78406
G0 F7200 X-.875 Y-5.966
G1 F1800 X-8.003 Y-13.094 E126.7899
G0 F7200 X-8.027 Y-12.969
G0 X-6.998 Y-12.778
G0 X-6.973 Y-12.913
G1 F1800 X-.736 Y-6.675 E127.67008
G0 F7200 X-.596 Y-7.384
G1 F1800 X-6.311 Y-13.099 E128.47652
G0 F7200 X-5.847 Y-13.483
G1 F1800 X-.456 Y-8.092 E129.23725
G0 F7200 X-.58 Y-8.117
G0 X-.632 Y-9.118
G1 F1800 X-5.383 Y-13.868 E129.9076
G0 F7200 X-4.909 Y-14.243
G1 F1800 X-.943 Y-10.277 E130.46724
G0 F7200 X-.804 Y-10.987
G1 F1800 X-4.429 Y-14.611 E130.9787
G0 F7200 X-3.968 Y-14.999
G1 F1800 X-.391 Y-11.422 E131.48345
G0 F7200 X0.159 Y-11.719
G1 F1800 X-3.498 Y-15.378 E131.99964
G0 F7200 X-2.975 Y-15.703
G1 F1800 X0.724 Y-12.003 E132.52168
G0 F7200 X1.315 Y-12.261
G1 F1800 X-2.062 Y-15.639 E132.99828
G0 F7200 X-2.088 Y-15.514
G0 X-1.021 Y-15.296
G0 X-.995 Y-15.42
G1 F1800 X2.254 Y-12.17 E133.45682
G1 X2.36 Y-12.064
G0 F7200 X2.422 Y-12.25
G0 X3.559 Y-11.876
G0 X3.519 Y-11.754
G1 F1800 X0.111 Y-15.162 E133.93772
G1 X0.005 Y-15.268
G0 F7200 X-0.048 Y-15.076
G0 X1.242 Y-14.726
G0 X1.275 Y-14.846
G1 F1800 X4.908 Y-11.214 E134.45031
G1 X5.014 Y-11.108
G0 F7200 X5.098 Y-11.25
G0 X1.522 Y-12.479
G0 X-1.267 Y-11.068
G0 X-6.541 Y-1.907
G0 X-7.743 Y0.349
G0 X-8.606 Y3.954
G0 X-8.724 Y4.002
G1 F1800 X-4.886 Y7.841 E134.99196
G0 F7200 X-5.64 Y7.935
G1 F1800 X-7.918 Y5.657 E135.31341
G1 X-8.024 Y5.551
G0 F7200 X-7.446 Y5.362
G1 F1500 E128.81341
;MESH:NONMESH
G0 F600 X-7.446 Y5.362 Z1.5
G0 F7200 X-7.56 Y1.924
G0 X-7.183 Y0.574
G0 X-6.024 Y-1.601
G0 X-.7 Y-4.084
G0 X0.573 Y-3.815
G0 X3.03 Y-5.546
;TIME_ELAPSED:60.995792
;LAYER:3
;TYPE:WALL-OUTER
;MESH:bunny.obj
G1 F1500 E135.31341
G1 F1800 X3.141 Y-5.495 E135.3256
G1 X4.675 Y-3.679 E135.5628
G1 X4.774 Y-3.448 E135.58788
G1 X5.458 Y-1.969 E135.75047
G1 X6.133 Y-.383 E135.92246
G1 X6.925 Y0.892 E136.07222
G1 X7.423 Y1.719 E136.16855
G1 X7.676 Y2.478 E136.24838
G1 X7.684 Y2.636 E136.26416
G1 X7.592 Y2.951 E136.29691
G1 X7.307 Y3.416 E136.35133
G1 X6.795 Y3.83 E136.41703
G1 X5.691 Y4.246 E136.53474
G1 X4.05 Y4.679 E136.70409
G1 X2.312 Y4.976 E136.88002
G1 X1.245 Y5.143 E136.98778
G1 X-.308 Y5.264 E137.14321
G1 X-2.303 Y5.398 E137.34272
G1 X-3.779 Y5.477 E137.49021
G1 X-4.259 Y5.396 E137.53878
G1 X-4.706 Y5.214 E137.58694
G1 X-5.315 Y4.617 E137.67203
G1 X-5.728 Y4.103 E137.73782
G1 X-6.328 Y2.885 E137.8733
G1 X-6.488 Y2.586 E137.90714
G1 X-6.577 Y2.317 E137.93541
G1 X-6.585 Y2.168 E137.9503
G1 X-6.434 Y1.656 E138.00356
G1 X-6.018 Y0.075 E138.16668
G1 X-5.863 Y-.147 E138.1937
G1 X-4.968 Y-.791 E138.30372
G1 X-3.22 Y-1.479 E138.49116
G1 X-2.557 Y-1.797 E138.56453
G1 X-.364 Y-2.545 E138.79573
G1 X1.356 Y-3.078 E138.9754
G1 X1.706 Y-3.223 E139.0132
G1 X1.953 Y-4.472 E139.14024
G1 X2.727 Y-5.458 E139.26532
G1 X2.835 Y-5.534 E139.27849
G1 X3.03 Y-5.546 E139.29799
G0 F7200 X3.141 Y-5.495
G0 X3.255 Y-5.36
G0 X4.018 Y-6.005
G0 X2.915 Y-7.192
G0 X-12.521 Y-6.961
G0 X-13.502 Y-6.746
G1 F1800 X-13.602 Y-6.417 E139.3323
G1 X-14.657 Y-5.28 E139.48706
G1 X-15.411 Y-4.454 E139.59866
G1 X-16.479 Y-3.092 E139.77136
G1 X-16.697 Y-2.855 E139.80349
G1 X-16.975 Y-2.079 E139.88574
G1 X-16.865 Y-1.322 E139.96206
G1 X-16.746 Y-.673 E140.0279
G1 X-16.511 Y-0.036 E140.09565
G1 X-16.151 Y0.543 E140.16368
G1 X-15.605 Y1.284 E140.25552
G1 X-15.1 Y1.521 E140.31118
G1 X-14.352 Y1.848 E140.39264
G1 X-13.505 Y2.203 E140.48427
G1 X-12.395 Y2.572 E140.60099
G1 X-11.839 Y2.811 E140.66138
G1 X-10.819 Y3.112 E140.76749
G1 X-10.258 Y3.301 E140.82656
G1 X-9.581 Y3.646 E140.90238
G1 X-9.497 Y3.737 E140.91473
G1 X-9.069 Y4.78 E141.02723
G1 X-9.004 Y5.046 E141.05455
G1 X-8.714 Y5.87 E141.14171
G1 X-8.287 Y7.015 E141.26364
G1 X-7.931 Y7.42 E141.31745
G1 X-7.7 Y7.698 E141.35351
G1 X-6.4 Y8.583 E141.51043
G1 X-5.967 Y8.814 E141.5594
G1 X-5.492 Y8.862 E141.60704
G1 X-4.837 Y8.816 E141.67256
G1 X-4.138 Y8.643 E141.74441
G1 X-3.522 Y8.532 E141.80686
G1 X-1.903 Y8.211 E141.97155
G1 X-1.215 Y8.082 E142.0414
G1 X1.754 Y7.463 E142.34401
G1 X2.733 Y7.316 E142.44279
G1 X4.891 Y7.057 E142.65967
G1 X6.57 Y6.81 E142.829
G1 X8.37 Y6.51 E143.01108
G1 X9.168 Y6.329 E143.09273
G1 X10.702 Y4.958 E143.29802
G1 X11.53 Y1.117 E143.69008
G1 X12.128 Y0.44 E143.78021
G1 X14.313 Y-.29 E144.01007
G1 X15.114 Y-1.079 E144.12226
G1 X16.674 Y-2.486 E144.33187
G1 X16.807 Y-3.706 E144.45433
G1 X16.108 Y-5.481 E144.64468
G1 X15.581 Y-6.618 E144.76972
G1 X14.301 Y-7.973 E144.95571
G1 X12.528 Y-9.297 E145.1765
G1 X12.47 Y-9.397 E145.18804
G1 X12.356 Y-9.936 E145.24301
G1 X12.191 Y-10.572 E145.30857
G1 X11.855 Y-11.337 E145.39194
G1 X11.523 Y-11.91 E145.45802
G1 X11.218 Y-12.533 E145.52723
G1 X10.636 Y-13.115 E145.60936
G1 X8.513 Y-13.996 E145.83871
G1 X8.376 Y-14.021 E145.8526
G1 X7.209 Y-14.343 E145.9734
G1 X3.817 Y-15.256 E146.3239
G1 X2.776 Y-15.515 E146.43094
G1 X0.561 Y-16.037 E146.65801
G1 X-.118 Y-16.235 E146.72858
G1 X-.972 Y-16.544 E146.8192
G1 X-1.695 Y-16.676 E146.89253
G1 X-2.273 Y-16.815 E146.95185
G1 X-3.528 Y-16.907 E147.07741
G1 X-5.237 Y-15.219 E147.31709
G1 X-5.417 Y-15.074 E147.34015
G1 X-6.184 Y-14.307 E147.44839
G1 X-6.541 Y-13.9 E147.50241
G1 X-6.966 Y-13.694 E147.54953
G1 X-7.086 Y-13.687 E147.56153
G1 X-7.811 Y-13.829 E147.63524
G1 X-9.535 Y-14.143 E147.81009
G1 X-10.738 Y-14.465 E147.93435
G1 X-11.324 Y-14.578 E147.9939
G1 X-11.966 Y-14.676 E148.0587
G1 X-12.526 Y-14.545 E148.11609
G1 X-12.88 Y-14.476 E148.15208
G1 X-14.019 Y-14.011 E148.27483
G1 X-15.033 Y-12.432 E148.46207
G1 X-15.209 Y-11.72 E148.53526
G1 X-15.227 Y-11.441 E148.56315
G1 X-15.078 Y-9.519 E148.75551
G1 X-14.775 Y-8.66 E148.84639
G1 X-14.471 Y-8.05 E148.9144
G1 X-14.196 Y-7.778 E148.95299
G1 X-13.574 Y-7.083 E149.04606
G1 X-13.502 Y-6.746 E149.08044
G0 F7200 X-13.589 Y-6.459
G0 X-12.935 Y-6.807
;TYPE:SKIN
G1 F1800 X-12.956 Y-6.518 E149.10936
G1 X-13.07 Y-6.203 E149.14278
G1 X-13.2 Y-6.008 E149.16617
G1 X-14.218 Y-4.915 E149.3152
G1 X-14.976 Y-4.084 E149.42743
G1 X-16.049 Y-2.717 E149.60083
G1 X-16.198 Y-2.555 E149.6228
G1 X-16.391 Y-2.021 E149.67945
G1 X-16.315 Y-1.49 E149.73297
G1 X-16.193 Y-.823 E149.80063
G1 X-15.998 Y-.293 E149.85698
G1 X-15.678 Y0.221 E149.9174
G1 X-15.219 Y0.845 E149.99469
G1 X-14.176 Y1.302 E150.10831
G1 X-13.305 Y1.669 E150.20262
G1 X-12.192 Y2.038 E150.31962
G1 X-11.644 Y2.274 E150.37915
G1 X-10.654 Y2.567 E150.48217
G1 X-9.944 Y2.815 E150.55721
G1 X-9.238 Y3.186 E150.63679
G1 X-9.003 Y3.448 E150.67191
G1 X-8.516 Y4.629 E150.79938
G1 X-8.459 Y4.87 E150.82409
G1 X-8.183 Y5.663 E150.90787
G1 X-7.787 Y6.719 E151.0204
G1 X-7.317 Y7.268 E151.09251
G1 X-6.106 Y8.093 E151.23872
G1 X-5.797 Y8.256 E151.27358
G1 X-5.481 Y8.289 E151.30529
G1 X-4.929 Y8.25 E151.3605
G1 X-4.24 Y8.08 E151.43131
G1 X-3.522 Y7.951 E151.5041
G1 X-1.345 Y7.525 E151.72544
G1 X1.636 Y6.903 E152.02929
G1 X2.664 Y6.749 E152.13301
G1 X4.794 Y6.495 E152.34705
G1 X6.49 Y6.245 E152.51811
G1 X8.221 Y5.957 E152.6932
G1 X8.9 Y5.804 E152.76265
G1 X10.182 Y4.658 E152.93423
G1 X10.967 Y1.022 E153.30539
G1 X11.105 Y0.738 E153.33689
G1 X11.675 Y0.091 E153.42293
G1 X11.934 Y-0.092 E153.45458
G1 X14.006 Y-.789 E153.6727
G1 X14.724 Y-1.494 E153.77311
G1 X16.13 Y-2.763 E153.96209
G1 X16.225 Y-3.627 E154.04882
G1 X15.584 Y-5.255 E154.2234
G1 X15.102 Y-6.292 E154.33751
G1 X13.919 Y-7.545 E154.50945
G1 X12.11 Y-8.898 E154.73485
G1 X11.939 Y-9.19 E154.76862
G1 X11.8 Y-9.803 E154.83134
G1 X11.649 Y-10.385 E154.89133
G1 X11.346 Y-11.078 E154.9668
G1 X11.029 Y-11.623 E155.02971
G1 X10.747 Y-12.195 E155.09334
G1 X10.31 Y-12.632 E155.15501
G1 X8.353 Y-13.444 E155.36642
G1 X8.224 Y-13.47 E155.37955
G1 X7.068 Y-13.789 E155.49921
G1 X3.622 Y-14.715 E155.85525
G1 X2.671 Y-14.952 E155.95304
G1 X0.43 Y-15.48 E156.18277
G1 X-.261 Y-15.682 E156.25461
G1 X-1.135 Y-15.994 E156.34721
G1 X-1.784 Y-16.112 E156.41303
G1 X-2.364 Y-16.249 E156.47249
G1 X-3.309 Y-16.32 E156.56705
G1 X-4.853 Y-14.796 E156.78352
G1 X-5.03 Y-14.653 E156.80622
G1 X-5.767 Y-13.917 E156.91015
G1 X-6.215 Y-13.426 E156.97647
G1 X-6.822 Y-13.135 E157.04364
G1 X-7.15 Y-13.121 E157.0764
G1 X-7.918 Y-13.269 E157.15444
G1 X-9.649 Y-13.584 E157.32999
G1 X-10.867 Y-13.907 E157.45573
G1 X-11.422 Y-14.016 E157.51216
G1 X-11.941 Y-14.096 E157.56456
G1 X-12.718 Y-13.926 E157.64392
G1 X-13.641 Y-13.549 E157.74341
G1 X-14.5 Y-12.207 E157.9024
G1 X-14.662 Y-11.552 E157.96972
G1 X-14.515 Y-9.636 E158.16146
G1 X-14.249 Y-8.884 E158.24105
G1 X-14.003 Y-8.391 E158.29603
G1 X-13.776 Y-8.165 E158.32799
G1 X-13.092 Y-7.399 E158.43046
G1 X-12.935 Y-6.807 E158.49157
G0 F7200 X-12.508 Y-6.9
G0 X2.915 Y-7.192
G0 X3.034 Y-6.124
G1 F1800 X3.434 Y-5.989 E158.53369
G1 X3.528 Y-5.92 E158.54533
G1 X5.157 Y-3.991 E158.79726
G1 X5.976 Y-2.207 E158.99313
G1 X6.639 Y-.649 E159.16208
G1 X7.408 Y0.589 E159.30749
G1 X7.937 Y1.461 E159.40926
G1 X8.258 Y2.419 E159.51008
G1 X8.267 Y2.578 E159.52597
G1 X8.123 Y3.162 E159.58598
G1 X7.717 Y3.818 E159.66296
G1 X7.08 Y4.333 E159.7447
G1 X5.852 Y4.794 E159.87557
G1 X4.196 Y5.231 E160.04647
G1 X2.481 Y5.527 E160.22012
G1 X1.287 Y5.712 E160.34068
G1 X-.265 Y5.833 E160.49601
G1 X-2.243 Y5.966 E160.69382
G1 X-3.766 Y6.049 E160.84601
G1 X-4.358 Y5.958 E160.90578
G1 X-4.886 Y5.765 E160.96187
G1 X-5.111 Y5.618 E160.98869
G1 X-5.762 Y4.974 E161.08006
G1 X-6.214 Y4.409 E161.15225
G1 X-7.042 Y2.742 E161.33798
G1 X-7.164 Y2.258 E161.38778
G1 X-7.168 Y2.131 E161.40046
G1 X-6.986 Y1.514 E161.46465
G1 X-6.536 Y-.156 E161.63722
G1 X-6.231 Y-.589 E161.69007
G1 X-5.249 Y-1.288 E161.81034
G1 X-3.45 Y-2.001 E162.00343
G1 X-2.813 Y-2.31 E162.07408
G1 X-.547 Y-3.086 E162.31307
G1 X1.203 Y-3.628 E162.49587
G1 X1.418 Y-4.718 E162.60672
G1 X2.321 Y-5.866 E162.75246
G1 X2.726 Y-6.098 E162.79903
G1 X3.034 Y-6.124 E162.82987
G0 F7200 X3.549 Y-6.559
G0 X5.487 Y-4.178
G0 X10.013 Y3.412
G0 X10.137 Y3.439
G1 F1800 X7.863 Y5.713 E163.15076
G0 F7200 X7.842 Y5.584
G0 X6.825 Y5.754
G0 X6.845 Y5.882
G1 F1800 X10.371 Y2.356 E163.64832
G0 F7200 X10.246 Y2.328
G0 X10.479 Y1.246
G0 X10.605 Y1.274
G1 F1800 X8.083 Y3.795 E164.00413
G0 F7200 X7.5 Y4.378
G1 F1800 X5.841 Y6.037 E164.23823
G0 F7200 X5.957 Y5.073
G1 F1800 X4.847 Y6.183 E164.39486
G0 F7200 X4.802 Y5.379
G1 F1800 X3.879 Y6.302 E164.52511
G0 F7200 X3.717 Y5.616
G1 F1800 X2.916 Y6.417 E164.63814
G0 F7200 X2.689 Y5.795
G1 F1800 X1.928 Y6.556 E164.74552
G0 F7200 X1.684 Y5.952
G1 F1800 X0.884 Y6.752 E164.85841
G0 F7200 X0.733 Y6.054
G1 F1800 X-.188 Y6.976 E164.98845
G0 F7200 X-.187 Y6.127
G1 F1800 X-1.26 Y7.2 E165.13986
G0 F7200 X-1.285 Y7.075
G0 X-1.097 Y6.188
G1 F1800 X-2.317 Y7.409 E165.31208
G0 F7200 X-2.342 Y7.278
G0 X-3.396 Y7.487
G0 X-3.372 Y7.614
G1 F1800 X-2.006 Y6.249 E165.50477
G0 F7200 X-2.907 Y6.301
G1 F1800 X-4.42 Y7.814 E165.71827
G0 F7200 X-4.45 Y7.69
G0 X-5.447 Y7.858
G0 X-5.439 Y7.985
G1 F1800 X-3.804 Y6.35 E165.94899
G0 F7200 X-4.524 Y6.221
G1 F1800 X-6.062 Y7.759 E166.16602
G0 F7200 X-6.567 Y7.416
G1 F1800 X-5.119 Y5.967 E166.37042
G0 F7200 X-5.58 Y5.58
G1 F1800 X-7.072 Y7.072 E166.58095
G0 F7200 X-7.472 Y6.624
G1 F1800 X-6 Y5.151 E166.78874
G0 F7200 X-6.381 Y4.684
G1 F1800 X-7.725 Y6.028 E166.97839
G0 F7200 X-7.954 Y5.408
G1 F1800 X-6.682 Y4.137 E167.15781
G0 F7200 X-6.963 Y3.569
G1 F1800 X-8.171 Y4.777 E167.32828
G0 F7200 X-8.389 Y4.147
G1 F1800 X-7.244 Y3.001 E167.48992
G0 F7200 X-7.446 Y2.355
G1 F1800 X-8.638 Y3.546 E167.65805
G0 F7200 X-8.978 Y3.038
G1 F1800 X-7.237 Y1.298 E167.90365
G1 X-7.131 Y1.192
G0 F7200 X-7.33 Y1.139
G0 X-7.056 Y0.102
G0 X-6.925 Y0.137
G1 F1800 X-9.497 Y2.709 E168.26659
G0 F7200 X-10.083 Y2.446
G1 F1800 X6.1 Y-13.737 E170.55019
G0 F7200 X5.432 Y-13.917
G1 F1800 X-10.719 Y2.234 E172.82927
G0 F7200 X-11.374 Y2.04
G1 F1800 X4.764 Y-14.098 E175.10651
G0 F7200 X4.096 Y-14.278
G1 F1800 X-11.984 Y1.801 E177.37551
G0 F7200 X-12.613 Y1.582
G1 F1800 X3.425 Y-14.456 E179.63864
G0 F7200 X2.744 Y-14.624
G1 F1800 X-13.246 Y1.367 E181.89507
G0 F7200 X-13.844 Y1.116
G1 F1800 X2.059 Y-14.787 E184.13916
G0 F7200 X1.372 Y-14.948
G1 F1800 X-14.436 Y0.859 E186.36977
G0 F7200 X-15.024 Y0.599
G1 F1800 X0.685 Y-15.11 E188.58648
G0 F7200 X0.015 Y-15.289
G1 F1800 X-15.385 Y0.111 E190.75958
G0 F7200 X-15.714 Y-.407
G1 F1800 X-.627 Y-15.494 E192.88852
G0 F7200 X-1.259 Y-15.711
G1 F1800 X-15.927 Y-1.042 E194.95841
G0 F7200 X-16.057 Y-1.761
G1 F1800 X-1.971 Y-15.847 E196.94609
G0 F7200 X-2.695 Y-15.972
G1 F1800 X-14.417 Y-4.25 E198.60019
G1 X-14.523 Y-4.144
G0 F7200 X-14.424 Y-4.053
G0 X-12.774 Y-5.929
G0 X-12.508 Y-6.902
G0 X-12.642 Y-6.873
G1 F1800 X-6.613 Y-12.902 E199.45095
G0 F7200 X-7.486 Y-12.878
G1 F1800 X-12.839 Y-7.525 E200.20632
G0 F7200 X-13.219 Y-7.993
G1 F1800 X-8.198 Y-13.015 E200.9149
G0 F7200 X-8.915 Y-13.145
G1 F1800 X-13.623 Y-8.437 E201.57925
G0 F7200 X-13.95 Y-8.959
G1 F1800 X-9.633 Y-13.276 E202.18843
G0 F7200 X-10.31 Y-13.448
G1 F1800 X-14.176 Y-9.582 E202.73396
G0 F7200 X-14.267 Y-10.34
G1 F1800 X-10.983 Y-13.623 E203.1973
G0 F7200 X-11.692 Y-13.763
G1 F1800 X-14.327 Y-11.128 E203.56913
G0 F7200 X-14.22 Y-12.083
G1 F1800 X-12.693 Y-13.611 E203.78467
G1 X-12.587 Y-13.717
G0 F7200 X-12.551 Y-13.522
G0 X-5.173 Y-1.787
G0 X-5.125 Y-1.662
G1 F1800 X6.769 Y-13.558 E205.46319
G0 F7200 X7.435 Y-13.375
G1 F1800 X-3.724 Y-2.215 E207.03791
G1 X-3.83 Y-2.109
G0 F7200 X-3.898 Y-2.286
G0 X-2.324 Y-2.933
G0 X-2.282 Y-2.808
G1 F1800 X8.101 Y-13.192 E208.50314
G0 F7200 X8.722 Y-12.965
G1 F1800 X-.992 Y-3.249 E209.87403
G1 X-1.098 Y-3.143
G0 F7200 X-1.16 Y-3.328
G0 X0.216 Y-3.77
G0 X0.253 Y-3.647
G1 F1800 X1.059 Y-4.454 E209.98783
G0 F7200 X0.936 Y-4.479
G0 X2.915 Y-7.192
G0 X3.027 Y-6.421
G1 F1800 X9.322 Y-12.716 E210.87613
G0 F7200 X9.922 Y-12.467
G1 F1800 X3.649 Y-6.194 E211.76132
G0 F7200 X4.059 Y-5.756
G1 F1800 X10.41 Y-12.107 E212.65751
G0 F7200 X10.72 Y-11.568
G1 F1800 X4.449 Y-5.297 E213.54242
G0 F7200 X4.838 Y-4.838
G1 F1800 X11.027 Y-11.027 E214.41575
G0 F7200 X11.294 Y-10.446
G1 F1800 X5.228 Y-4.379 E215.2718
G0 F7200 X5.547 Y-3.85
G1 F1800 X11.491 Y-9.794 E216.11056
G0 F7200 X11.647 Y-9.101
G1 F1800 X5.815 Y-3.27 E216.93345
G0 F7200 X6.083 Y-2.689
G1 F1800 X12 Y-8.606 E217.7684
G0 F7200 X12.486 Y-8.243
G1 F1800 X6.344 Y-2.102 E218.63503
G0 F7200 X6.598 Y-1.507
G1 F1800 X12.971 Y-7.879 E219.53426
G0 F7200 X13.456 Y-7.516
G1 F1800 X6.852 Y-.912 E220.46616
G0 F7200 X7.162 Y-.374
G1 F1800 X13.906 Y-7.118 E221.41781
G0 F7200 X14.318 Y-6.682
G1 F1800 X7.487 Y0.149 E222.38174
G0 F7200 X7.81 Y0.674
G1 F1800 X14.731 Y-6.245 E223.35822
G0 F7200 X15.04 Y-5.707
G1 F1800 X8.131 Y1.202 E224.33316
G0 F7200 X8.372 Y1.81
G1 F1800 X15.31 Y-5.127 E225.31212
G0 F7200 X15.549 Y-4.519
G1 F1800 X8.551 Y2.479 E226.29961
G1 X8.445 Y2.585
G0 F7200 X8.715 Y2.662
G0 X11.597 Y-.373
G0 X12.469 Y-.59
G1 F1800 X15.789 Y-3.91 E226.7681
G0 F7200 X15.868 Y-3.14
G1 F1800 X13.746 Y-1.018 E227.06753
G1 X13.64 Y-.912
G0 F7200 X13.422 Y-1.574
;MESH:NONMESH
G0 F600 X13.422 Y-1.574 Z1.9
G0 F7200 X7.6 Y3.617
G0 X5.811 Y4.566
G0 X4.107 Y5.014
G0 X1.831 Y5.389
G0 X-.704 Y5.69
G0 X-.79 Y4.399
;TIME_ELAPSED:95.097314
;LAYER:4
;TYPE:WALL-OUTER
;MESH:bunny.obj
G1 F1800 X-.877 Y4.258 E227.08407
G1 X-.882 Y4.119 E227.09794
G1 X-.603 Y2.683 E227.24391
G1 X0.14 Y1.686 E227.36798
G1 X0.298 Y1.592 E227.38632
G1 X3.475 Y1.409 E227.70385
G1 X3.952 Y0.907 E227.77294
G1 X4.244 Y0.68 E227.80985
G1 X4.425 Y0.653 E227.82811
G1 X5.893 Y0.897 E227.9766
G1 X6.025 Y0.968 E227.99155
G1 X6.089 Y1.052 E228.00209
G1 X6.615 Y2.401 E228.14656
G1 X6.598 Y2.571 E228.16361
G1 X6.208 Y2.989 E228.22065
G1 X5.785 Y3.457 E228.2836
G1 X4.77 Y3.848 E228.39213
G1 X3.283 Y4.181 E228.54418
G1 X-.563 Y4.477 E228.92907
G1 X-.79 Y4.399 E228.95302
G0 F7200 X-.877 Y4.258
G0 X-.881 Y4.123
G0 X-1.862 Y3.934
G0 X-12.251 Y-6.685
G0 X-13.252 Y-6.664
G1 F1800 X-13.296 Y-6.529 E228.96719
G1 X-13.557 Y-6.24 E229.00604
G1 X-13.765 Y-5.861 E229.04918
G1 X-14.273 Y-5.429 E229.11572
G1 X-15.429 Y-4.171 E229.28619
G1 X-16.299 Y-3.107 E229.42333
G1 X-16.76 Y-2.595 E229.49207
G1 X-16.811 Y-1.797 E229.57186
G1 X-16.704 Y-1.161 E229.63621
G1 X-16.605 Y-.535 E229.69945
G1 X-16.3 Y0.096 E229.76938
G1 X-15.864 Y0.705 E229.84412
G1 X-15.309 Y1.442 E229.93617
G1 X-14.78 Y1.665 E229.99346
G1 X-11.133 Y2.854 E230.37621
G1 X-10.241 Y3.095 E230.4684
G1 X-9.448 Y3.528 E230.55855
G1 X-9.036 Y4.385 E230.65344
G1 X-8.878 Y5.23 E230.73921
G1 X-8.418 Y6.494 E230.87343
G1 X-7.754 Y7.249 E230.97375
G1 X-7.315 Y7.778 E231.04234
G1 X-5.953 Y8.705 E231.20673
G1 X-5.553 Y8.791 E231.24756
G1 X-5.022 Y8.845 E231.30081
G1 X-4.58 Y8.842 E231.34492
G1 X-3.589 Y8.596 E231.4468
G1 X-2.55 Y8.406 E231.55219
G1 X-1.857 Y8.269 E231.62268
G1 X1.398 Y7.592 E231.95441
G1 X3.191 Y7.321 E232.13535
G1 X7.535 Y6.813 E232.57175
G1 X9.446 Y6.383 E232.7672
G1 X10.668 Y5.288 E232.93092
G1 X10.988 Y4.865 E232.98385
G1 X11.298 Y3.244 E233.14852
G1 X11.663 Y1.56 E233.32045
G1 X12.492 Y0.626 E233.44506
G1 X12.605 Y0.558 E233.45822
G1 X14.94 Y-.222 E233.70387
G1 X15.44 Y-.349 E233.75534
G1 X17.46 Y-1.866 E234.0074
G1 X17.685 Y-3.931 E234.21467
G1 X16.443 Y-7.087 E234.55309
G1 X15.975 Y-7.58 E234.62091
G1 X14.711 Y-8.524 E234.77833
G1 X13.917 Y-8.997 E234.87054
G1 X13.037 Y-9.539 E234.97367
G1 X12.724 Y-10.324 E235.05799
G1 X11.996 Y-11.971 E235.23767
G1 X11.651 Y-12.659 E235.31447
G1 X11.319 Y-12.942 E235.358
G1 X10.692 Y-13.354 E235.43286
G1 X9.62 Y-13.762 E235.54731
G1 X9.202 Y-13.97 E235.59389
G1 X8.376 Y-14.071 E235.67692
G1 X7.409 Y-14.276 E235.77556
G1 X6.067 Y-14.671 E235.91514
G1 X5.303 Y-14.881 E235.9942
G1 X3.446 Y-15.35 E236.18531
G1 X1.257 Y-15.918 E236.41096
G1 X0.73 Y-16.091 E236.46631
G1 X-0.08 Y-16.327 E236.55049
G1 X-.631 Y-16.526 E236.60895
G1 X-1.564 Y-16.841 E236.7072
G1 X-2.115 Y-16.921 E236.76276
G1 X-2.881 Y-16.975 E236.83938
G1 X-3.684 Y-16.772 E236.92203
G1 X-4.292 Y-16.292 E236.99932
G1 X-5.371 Y-15.226 E237.15066
G1 X-5.889 Y-14.677 E237.22598
G1 X-6.13 Y-14.232 E237.27647
G1 X-6.391 Y-13.928 E237.31645
G1 X-7.044 Y-13.601 E237.38932
G1 X-7.166 Y-13.583 E237.40163
G1 X-8.814 Y-13.897 E237.56902
G1 X-11 Y-14.607 E237.79836
G1 X-11.485 Y-14.734 E237.84839
G1 X-11.959 Y-14.824 E237.89653
G1 X-12.291 Y-14.746 E237.93056
G1 X-12.84 Y-14.522 E237.98972
G1 X-13.944 Y-13.934 E238.11453
G1 X-15.073 Y-12.274 E238.31484
G1 X-15.137 Y-11.405 E238.40178
G1 X-15.125 Y-11.258 E238.4165
G1 X-15.126 Y-10.746 E238.46759
G1 X-15.054 Y-10.211 E238.52145
G1 X-15.03 Y-9.902 E238.55238
G1 X-14.874 Y-8.91 E238.65258
G1 X-14.742 Y-8.586 E238.68749
G1 X-13.735 Y-7.601 E238.82804
G1 X-13.292 Y-7.119 E238.89336
G1 X-13.252 Y-6.664 E238.93894
G0 F7200 X-13.296 Y-6.529
G0 X-13.402 Y-6.411
G0 X-12.695 Y-7.081
;TYPE:SKIN
G1 F1800 X-12.693 Y-6.543 E238.99262
G1 X-12.853 Y-6.168 E239.0333
G1 X-13.09 Y-5.906 E239.06855
G1 X-13.347 Y-5.461 E239.11983
G1 X-13.879 Y-5.016 E239.18903
G1 X-14.998 Y-3.797 E239.35414
G1 X-15.874 Y-2.726 E239.4922
G1 X-16.202 Y-2.365 E239.54087
G1 X-16.238 Y-1.814 E239.59597
G1 X-16.054 Y-.707 E239.70794
G1 X-15.808 Y-.199 E239.76426
G1 X-15.425 Y0.338 E239.83007
G1 X-14.943 Y0.977 E239.90994
G1 X-14.581 Y1.13 E239.94915
G1 X-10.955 Y2.314 E240.32975
G1 X-10.054 Y2.552 E240.42274
G1 X-9.213 Y3.006 E240.5181
G1 X-8.949 Y3.254 E240.55424
G1 X-8.493 Y4.185 E240.65768
G1 X-8.402 Y4.673 E240.70721
G1 X-8.283 Y5.189 E240.76005
G1 X-7.918 Y6.198 E240.86712
G1 X-7.327 Y6.871 E240.95649
G1 X-6.93 Y7.349 E241.01849
G1 X-5.726 Y8.17 E241.16389
G1 X-4.993 Y8.274 E241.23776
G1 X-4.654 Y8.272 E241.27159
G1 X-3.69 Y8.033 E241.37069
G1 X-2.645 Y7.844 E241.47665
G1 X-1.986 Y7.713 E241.5437
G1 X1.279 Y7.032 E241.87649
G1 X3.105 Y6.757 E242.06074
G1 X7.438 Y6.25 E242.49604
G1 X9.177 Y5.857 E242.67394
G1 X10.244 Y4.9 E242.81695
G1 X10.452 Y4.626 E242.85128
G1 X10.736 Y3.138 E243.00243
G1 X11.086 Y1.52 E243.16761
G1 X11.242 Y1.177 E243.20521
G1 X12.14 Y0.165 E243.34021
G1 X12.387 Y0.03 E243.36829
G1 X14.776 Y-.767 E243.61958
G1 X15.188 Y-.873 E243.66203
G1 X16.919 Y-2.174 E243.8781
G1 X17.103 Y-3.854 E244.04673
G1 X15.956 Y-6.771 E244.35948
G1 X15.593 Y-7.154 E244.41214
G1 X14.393 Y-8.049 E244.56151
G1 X13.624 Y-8.508 E244.65087
G1 X12.735 Y-9.062 E244.75539
G1 X12.489 Y-9.361 E244.79402
G1 X12.198 Y-10.103 E244.87355
G1 X11.48 Y-11.726 E245.05063
G1 X11.191 Y-12.302 E245.11493
G1 X10.977 Y-12.484 E245.14296
G1 X10.433 Y-12.843 E245.208
G1 X9.455 Y-13.213 E245.31233
G1 X9.038 Y-13.414 E245.35852
G1 X8.257 Y-13.513 E245.43708
G1 X7.306 Y-13.712 E245.53402
G1 X5.975 Y-14.103 E245.67244
G1 X5.155 Y-14.329 E245.75731
G1 X3.304 Y-14.797 E245.94782
G1 X1.111 Y-15.366 E246.17388
G1 X0.56 Y-15.547 E246.23175
G1 X-.275 Y-15.791 E246.31855
G1 X-.858 Y-16.001 E246.38038
G1 X-1.695 Y-16.283 E246.46851
G1 X-2.177 Y-16.353 E246.51711
G1 X-2.833 Y-16.4 E246.58273
G1 X-3.422 Y-16.251 E246.64336
G1 X-3.914 Y-15.861 E246.706
G1 X-4.963 Y-14.826 E246.85304
G1 X-5.425 Y-14.338 E246.92009
G1 X-5.644 Y-13.93 E246.9663
G1 X-6.004 Y-13.48 E247.0238
G1 X-6.842 Y-13.067 E247.11702
G1 X-7.211 Y-13.007 E247.15432
G1 X-8.923 Y-13.336 E247.32827
G1 X-11.169 Y-14.064 E247.56386
G1 X-11.998 Y-14.25 E247.64863
G1 X-12.597 Y-14.004 E247.71324
G1 X-13.552 Y-13.496 E247.82118
G1 X-14.513 Y-12.079 E247.99201
G1 X-14.565 Y-11.405 E248.05947
G1 X-14.556 Y-10.784 E248.12144
G1 X-14.463 Y-9.971 E248.20309
G1 X-14.32 Y-9.061 E248.295
G1 X-14.26 Y-8.912 E248.31103
G1 X-13.337 Y-8.01 E248.4398
G1 X-12.788 Y-7.414 E248.52066
G1 X-12.695 Y-7.081 E248.55515
G0 F7200 X-12.26 Y-7.09
G0 X6.717 Y0.086
G0 X7.611 Y2.205
G0 X7.18 Y2.372
G1 F1800 X7.132 Y2.773 E248.59545
G1 X6.977 Y3.034 E248.62574
G1 X6.619 Y3.385 E248.67577
G1 X6.216 Y3.829 E248.7356
G1 X5.977 Y3.989 E248.76429
G1 X4.941 Y4.395 E248.87532
G1 X3.397 Y4.744 E249.03327
G1 X-.513 Y5.046 E249.42457
G1 X-.827 Y5.01 E249.45611
G1 X-1.179 Y4.814 E249.49631
G1 X-1.427 Y4.411 E249.54353
G1 X-1.459 Y4.166 E249.56818
G1 X-1.455 Y4.075 E249.57727
G1 X-1.141 Y2.455 E249.74192
G1 X-.297 Y1.316 E249.88337
G1 X-.103 Y1.149 E249.90891
G1 X0.275 Y1.02 E249.94877
G1 X3.218 Y0.851 E250.2429
G1 X3.565 Y0.488 E250.29301
G1 X4.048 Y0.146 E250.35206
G1 X4.44 Y0.079 E250.39174
G1 X6.034 Y0.344 E250.55298
G1 X6.374 Y0.518 E250.59109
G1 X6.584 Y0.769 E250.62374
G1 X7.161 Y2.233 E250.78076
G1 X7.18 Y2.372 E250.79475
G0 F7200 X7.611 Y2.205
G0 X10.99 Y-11.752
G0 X11.102 Y-11.807
G1 F1800 X10.417 Y-12.493 E250.89149
G0 F7200 X10.346 Y-12.386
G0 X8.924 Y-12.998
G0 X8.939 Y-13.122
G1 F1800 X11.798 Y-10.262 E251.29499
G1 X11.904 Y-10.156
G0 F7200 X11.738 Y-10.084
G0 X12.272 Y-8.91
G0 X14.293 Y-7.589
G0 X14.37 Y-7.691
G1 F1800 X15.855 Y-6.206 E251.50454
G1 X15.961 Y-6.1
G0 F7200 X15.783 Y-6.031
G0 X16.284 Y-4.761
G0 X16.405 Y-4.807
G1 F1800 X7.94 Y-13.272 E252.69904
G0 F7200 X7.919 Y-13.146
G0 X6.786 Y-13.419
G0 X6.823 Y-13.541
G1 F1800 X16.772 Y-3.592 E254.10296
G0 F7200 X16.688 Y-2.827
G1 F1800 X5.632 Y-13.884 E255.66315
G0 F7200 X5.599 Y-13.764
G0 X4.446 Y-14.068
G0 X4.477 Y-14.19
G1 F1800 X16.46 Y-2.206 E257.35415
G0 F7200 X15.976 Y-1.842
G1 F1800 X3.341 Y-14.478 E259.13715
G0 F7200 X3.309 Y-14.354
G0 X2.164 Y-14.651
G0 X2.196 Y-14.773
G1 F1800 X15.492 Y-1.478 E261.01329
G0 F7200 X14.989 Y-1.132
G1 F1800 X1.052 Y-15.069 E262.97995
G1 X0.946 Y-15.175
G0 F7200 X0.886 Y-14.989
G0 X-.209 Y-15.323
G0 X-.173 Y-15.446
G1 F1800 X14.336 Y-.936 E265.0274
G0 F7200 X13.699 Y-.725
G1 F1800 X-1.463 Y-15.887 E267.16692
G0 F7200 X-1.504 Y-15.767
G0 X-2.505 Y-15.948
G0 X-2.497 Y-16.073
G1 F1800 X13.062 Y-.514 E269.36247
G0 F7200 X12.425 Y-.302
G1 F1800 X-3.254 Y-15.982 E271.57501
G0 F7200 X-3.735 Y-15.615
G1 F1800 X11.884 Y0.004 E273.77902
G0 F7200 X11.484 Y0.453
G1 F1800 X-4.162 Y-15.193 E275.98684
G0 F7200 X-4.589 Y-14.772
G1 F1800 X11.086 Y0.903 E278.19875
G0 F7200 X10.792 Y1.458
G1 F1800 X-5.008 Y-14.342 E280.4283
G0 F7200 X-5.353 Y-13.838
G1 F1800 X10.641 Y2.155 E282.68516
G0 F7200 X10.49 Y2.853
G1 F1800 X-5.719 Y-13.356 E284.97243
G0 F7200 X-6.24 Y-13.029
G1 F1800 X10.349 Y3.56 E287.31331
G0 F7200 X10.212 Y4.273
G1 F1800 X7.035 Y1.095 E287.76169
G1 X6.929 Y0.989
G0 F7200 X7.111 Y0.919
G0 X7.654 Y2.315
G0 X7.475 Y2.384
G1 F1800 X9.897 Y4.806 E288.10346
G0 F7200 X9.45 Y5.207
G1 F1800 X7.302 Y3.06 E288.4065
G0 F7200 X6.911 Y3.517
G1 F1800 X8.986 Y5.592 E288.6993
G0 F7200 X8.294 Y5.748
G1 F1800 X6.502 Y3.956 E288.95217
G0 F7200 X6.003 Y4.306
G1 F1800 X7.602 Y5.905 E289.17781
G0 F7200 X6.863 Y6.014
G1 F1800 X5.391 Y4.543 E289.38545
G0 F7200 X4.746 Y4.746
G1 F1800 X6.103 Y6.103 E289.57694
G0 F7200 X5.343 Y6.192
G1 F1800 X4.053 Y4.902 E289.75897
G0 F7200 X3.35 Y5.048
G1 F1800 X4.584 Y6.281 E289.93303
G0 F7200 X3.824 Y6.369
G1 F1800 X2.563 Y5.108 E290.11098
G0 F7200 X1.775 Y5.169
G1 F1800 X3.064 Y6.458 E290.29287
G0 F7200 X2.326 Y6.569
G1 F1800 X0.987 Y5.23 E290.48181
G0 F7200 X0.2 Y5.291
G1 F1800 X1.588 Y6.68 E290.67775
G0 F7200 X0.869 Y6.809
G1 F1800 X-.606 Y5.332 E290.88603
G1 X-.712 Y5.226
G0 F7200 X-.693 Y5.489
G0 X-2.091 Y5.52
G0 X-1.907 Y4.167
G0 X-1.74 Y4.199
G1 F1800 X-12.411 Y-6.471 E292.39175
G0 F7200 X-12.691 Y-5.902
G1 F1800 X0.167 Y6.955 E294.20608
G0 F7200 X-.534 Y7.102
G1 F1800 X-13.039 Y-5.403 E295.97067
G0 F7200 X-13.459 Y-4.974
G1 F1800 X-1.236 Y7.248 E297.6954
G0 F7200 X-1.938 Y7.394
G1 F1800 X-13.891 Y-4.558 E299.38203
G0 F7200 X-14.298 Y-4.116
G1 F1800 X-2.645 Y7.536 E301.02632
G0 F7200 X-3.362 Y7.667
G1 F1800 X-14.704 Y-3.673 E302.62666
G0 F7200 X-15.089 Y-3.21
G1 F1800 X-9.213 Y2.665 E303.45575
G0 F7200 X-8.601 Y3.278
G1 F1800 X-4.063 Y7.816 E304.09611
G0 F7200 X-4.756 Y7.971
G1 F1800 X-8.105 Y4.622 E304.56869
G1 X-8.211 Y4.516
G0 F7200 X-8.002 Y4.479
G0 X-7.605 Y5.811
G0 X-7.723 Y5.853
G1 F1800 X-5.866 Y7.71 E304.83074
G1 X-5.76 Y7.816
G0 F7200 X-5.672 Y7.688
G0 X-1.765 Y3.428
G0 X-1.639 Y3.452
G1 F1800 X-12.469 Y-7.378 E306.35897
G1 X-12.575 Y-7.484
G0 F7200 X-12.409 Y-7.636
G0 X-14.022 Y-9.925
G0 X-14.149 Y-9.906
G1 F1800 X-1.501 Y2.741 E308.14367
G0 F7200 X-1.272 Y2.122
G1 F1800 X-14.255 Y-10.861 E309.97571
G0 F7200 X-14.241 Y-11.696
G1 F1800 X-.91 Y1.635 E311.85686
G0 F7200 X-.548 Y1.149
G1 F1800 X-13.999 Y-12.302 E313.75494
G0 F7200 X-13.656 Y-12.807
G1 F1800 X-0.038 Y0.81 E315.67651
G0 F7200 X0.692 Y0.692
G1 F1800 X-13.292 Y-13.292 E317.64981
G0 F7200 X-12.738 Y-13.587
G1 F1800 X1.495 Y0.647 E319.65831
G0 F7200 X2.298 Y0.601
G1 F1800 X-12.153 Y-13.85 E321.6975
G0 F7200 X-11.218 Y-13.763
G1 F1800 X3.092 Y0.547 E323.7168
G0 F7200 X3.531 Y0.137
G1 F1800 X-9.963 Y-13.357 E325.62094
G1 X-10.069 Y-13.463
G0 F7200 X-10.13 Y-13.274
G0 X-8.779 Y-12.873
G0 X-8.755 Y-12.998
G1 F1800 X4.094 Y-.147 E327.43422
G0 F7200 X4.951 Y-.139
G1 F1800 X-7.705 Y-12.796 E329.22019
G0 F7200 X-6.829 Y-12.769
G1 F1800 X5.97 Y0.031 E331.02633
G1 X6.076 Y0.137
G0 F7200 X6.112 Y-0.079
G0 X4.028 Y-.36
G0 X-10.605 Y1.966
G0 X-10.639 Y2.088
G1 F1800 X-15.471 Y-2.743 E331.70811
G0 F7200 X-15.865 Y-2.288
G1 F1800 X-11.881 Y1.694 E332.27016
G1 X-11.775 Y1.8
G0 F7200 X-11.715 Y1.616
G0 X-13.103 Y1.165
G0 X-13.141 Y1.283
G1 F1800 X-15.872 Y-1.447 E332.65546
G1 X-15.978 Y-1.553
G0 F7200 X-15.779 Y-1.598
G0 X-15.253 Y-.155
G0 X-15.355 Y-0.082
G1 F1800 X-14.402 Y0.871 E332.78994
G1 X-14.296 Y0.977
G0 F7200 X-14.074 Y0.318
;MESH:NONMESH
G0 F600 X-14.074 Y0.318 Z2.3
G0 F7200 X-12.248 Y-6.52
G0 X-12.996 Y-6.505
;TIME_ELAPSED:133.584814
;LAYER:5
;TYPE:WALL-OUTER
;MESH:bunny.obj
G1 F1800 X-13.334 Y-5.878 E332.86101
G1 X-13.953 Y-5.314 E332.94457
G1 X-14.559 Y-4.84 E333.02134
G1 X-15.392 Y-3.929 E333.14451
G1 X-16.066 Y-3.167 E333.24601
G1 X-16.413 Y-2.831 E333.29421
G1 X-16.594 Y-2.457 E333.33567
G1 X-16.611 Y-2.186 E333.36276
G1 X-16.557 Y-1.17 E333.46428
G1 X-16.406 Y-.422 E333.54042
G1 X-16.212 Y-0.052 E333.58211
G1 X-15.586 Y0.802 E333.68776
G1 X-14.99 Y1.358 E333.76909
G1 X-13.944 Y1.808 E333.88271
G1 X-11.306 Y2.664 E334.15944
G1 X-10.504 Y2.862 E334.24187
G1 X-9.431 Y3.321 E334.35832
G1 X-9.309 Y3.438 E334.37518
G1 X-8.864 Y4.568 E334.49636
G1 X-8.662 Y5.668 E334.60796
G1 X-8.551 Y5.97 E334.64006
G1 X-7.577 Y7.078 E334.78726
G1 X-6.932 Y7.858 E334.88825
G1 X-5.906 Y8.555 E335.01202
G1 X-4.83 Y8.785 E335.12181
G1 X-4.416 Y8.809 E335.16319
G1 X-2.953 Y8.529 E335.31181
G1 X-1.539 Y8.247 E335.45568
G1 X-.313 Y7.987 E335.58073
G1 X1.159 Y7.69 E335.73057
G1 X2.974 Y7.417 E335.91371
G1 X3.685 Y7.319 E335.98532
G1 X5.999 Y7.047 E336.2178
G1 X6.63 Y6.961 E336.28135
G1 X7.262 Y6.889 E336.34482
G1 X7.719 Y6.929 E336.39059
G1 X8.265 Y6.765 E336.44748
G1 X9.723 Y6.437 E336.59659
G1 X10.625 Y5.628 E336.71749
G1 X11.28 Y4.765 E336.82559
G1 X11.817 Y1.95 E337.11154
G1 X12.015 Y1.756 E337.1392
G1 X12.931 Y0.728 E337.27659
G1 X14.526 Y0.195 E337.44439
G1 X16.082 Y-.194 E337.60442
G1 X17.66 Y-1.382 E337.80151
G1 X18.147 Y-1.853 E337.86911
G1 X18.426 Y-2.885 E337.97578
G1 X18.563 Y-4.155 E338.10324
G1 X17.56 Y-6.698 E338.376
G1 X17.077 Y-7.525 E338.47156
G1 X15.866 Y-8.141 E338.60713
G1 X14.074 Y-9.217 E338.8157
G1 X13.23 Y-9.814 E338.91885
G1 X12.311 Y-12.147 E339.16905
G1 X12.055 Y-12.729 E339.23249
G1 X10.541 Y-13.594 E339.40647
G1 X9.793 Y-13.956 E339.48939
G1 X8.684 Y-14.092 E339.60088
G1 X7.743 Y-14.254 E339.69615
G1 X6.456 Y-14.53 E339.82749
G1 X6.071 Y-14.644 E339.86755
G1 X3.049 Y-15.405 E340.1785
G1 X2.039 Y-15.667 E340.28262
G1 X1.081 Y-15.982 E340.38324
G1 X-1.896 Y-17.009 E340.69747
G1 X-2.107 Y-17.03 E340.71862
G1 X-2.905 Y-16.863 E340.79997
G1 X-3.875 Y-16.58 E340.9008
G1 X-5.185 Y-15.548 E341.0672
G1 X-5.704 Y-15.023 E341.14086
G1 X-6.149 Y-14.116 E341.24166
G1 X-6.352 Y-13.853 E341.27481
G1 X-6.945 Y-13.526 E341.34238
G1 X-7.094 Y-13.499 E341.35749
G1 X-8.201 Y-13.711 E341.46996
G1 X-8.909 Y-13.897 E341.543
G1 X-11.414 Y-14.717 E341.806
G1 X-11.964 Y-14.851 E341.86248
G1 X-13.515 Y-14.025 E342.03782
G1 X-13.915 Y-13.761 E342.08564
G1 X-14.706 Y-12.598 E342.22598
G1 X-14.986 Y-11.995 E342.29232
G1 X-15.063 Y-11.011 E342.39081
G1 X-14.97 Y-10.329 E342.45949
G1 X-14.753 Y-8.975 E342.59631
G1 X-14.226 Y-8.412 E342.67326
G1 X-13.067 Y-7.287 E342.83443
G1 X-13.02 Y-7.154 E342.8485
G1 X-12.996 Y-6.505 E342.9133
G0 F7200 X-13.138 Y-6.241
G0 X-12.26 Y-5.769
G0 X-6.595 Y-12.582
G0 X-6.796 Y-12.957
;TYPE:SKIN
G1 F1800 X-7.154 Y-12.928 E342.94914
G1 X-8.289 Y-13.145 E343.06444
G1 X-9.087 Y-13.356 E343.14681
G1 X-11.86 Y-14.259 E343.4378
G1 X-13.223 Y-13.533 E343.59189
G1 X-13.506 Y-13.347 E343.62568
G1 X-14.207 Y-12.316 E343.75008
G1 X-14.425 Y-11.848 E343.80159
G1 X-14.489 Y-11.025 E343.88396
G1 X-14.406 Y-10.415 E343.94539
G1 X-14.216 Y-9.237 E344.06445
G1 X-13.817 Y-8.809 E344.12283
G1 X-12.652 Y-7.675 E344.28505
G1 X-12.455 Y-7.256 E344.33125
G1 X-12.424 Y-6.51 E344.40575
G1 X-12.48 Y-6.27 E344.43034
G1 X-12.884 Y-5.518 E344.51552
G1 X-13.568 Y-4.892 E344.60804
G1 X-14.17 Y-4.418 E344.68449
G1 X-14.908 Y-3.613 E344.79346
G1 X-15.652 Y-2.773 E344.90543
G1 X-15.944 Y-2.49 E344.946
G1 X-16.045 Y-2.283 E344.96898
G1 X-15.989 Y-1.243 E345.07291
G1 X-15.864 Y-.616 E345.1367
G1 X-15.727 Y-.356 E345.16602
G1 X-15.159 Y0.42 E345.26198
G1 X-14.672 Y0.874 E345.32841
G1 X-13.729 Y1.277 E345.43074
G1 X-11.149 Y2.114 E345.70138
G1 X-10.337 Y2.317 E345.78489
G1 X-9.078 Y2.852 E345.92139
G1 X-8.812 Y3.154 E345.96155
G1 X-8.314 Y4.405 E346.0959
G1 X-8.109 Y5.518 E346.20882
G1 X-8.051 Y5.673 E346.22533
G1 X-7.15 Y6.7 E346.36166
G1 X-6.547 Y7.429 E346.45605
G1 X-5.678 Y8.019 E346.56086
G1 X-4.752 Y8.218 E346.65537
G1 X-4.455 Y8.235 E346.68505
G1 X-3.062 Y7.969 E346.82656
G1 X-1.694 Y7.695 E346.96577
G1 X-.431 Y7.427 E347.09459
G1 X1.046 Y7.128 E347.24496
G1 X3.584 Y6.755 E347.50092
G1 X5.984 Y6.474 E347.74203
G1 X6.553 Y6.396 E347.79934
G1 X7.282 Y6.314 E347.87254
G1 X7.662 Y6.35 E347.91062
G1 X8.121 Y6.211 E347.95848
G1 X9.454 Y5.911 E348.09481
G1 X10.201 Y5.24 E348.195
G1 X10.744 Y4.526 E348.28451
G1 X11.245 Y1.895 E348.55175
G1 X11.361 Y1.615 E348.58199
G1 X11.604 Y1.359 E348.61721
G1 X12.529 Y0.329 E348.75534
G1 X12.815 Y0.163 E348.78834
G1 X14.335 Y-.342 E348.94815
G1 X15.83 Y-.721 E349.10204
G1 X17.289 Y-1.818 E349.28418
G1 X17.637 Y-2.154 E349.33245
G1 X17.864 Y-2.993 E349.41918
G1 X17.981 Y-4.077 E349.52797
G1 X17.046 Y-6.448 E349.78228
G1 X16.668 Y-7.093 E349.85687
G1 X15.591 Y-7.641 E349.97745
G1 X13.753 Y-8.746 E350.19144
G1 X12.879 Y-9.362 E350.29813
G1 X12.719 Y-9.564 E350.32384
G1 X11.632 Y-12.314 E350.61889
G1 X10.275 Y-13.088 E350.77477
G1 X9.63 Y-13.4 E350.84627
G1 X8.615 Y-13.526 E350.94832
G1 X7.645 Y-13.692 E351.04651
G1 X6.319 Y-13.975 E351.1818
G1 X5.919 Y-14.094 E351.22344
G1 X2.931 Y-14.846 E351.53088
G1 X1.86 Y-15.126 E351.64134
G1 X0.902 Y-15.44 E351.74193
G1 X-2.046 Y-16.458 E352.05313
G1 X-2.765 Y-16.308 E352.12642
G1 X-3.609 Y-16.063 E352.21411
G1 X-4.805 Y-15.119 E352.36614
G1 X-5.235 Y-14.685 E352.4271
G1 X-5.668 Y-13.803 E352.52514
G1 X-6.013 Y-13.381 E352.57953
G1 X-6.796 Y-12.957 E352.66838
G0 F7200 X-6.595 Y-12.582
G0 X-12.925 Y-13.208
G0 X-12.984 Y-13.319
G1 F1800 X-13.532 Y-12.771 E352.74571
G0 F7200 X-13.429 Y-12.7
G0 X-14.041 Y-11.279
G0 X-14.166 Y-11.289
G1 F1800 X-11.597 Y-13.857 E353.10815
G0 F7200 X-10.958 Y-13.649
G1 F1800 X-14.113 Y-10.494 E353.55335
G0 F7200 X-13.995 Y-9.763
G1 F1800 X-10.317 Y-13.441 E354.07236
G0 F7200 X-9.677 Y-13.232
G1 F1800 X-13.748 Y-9.161 E354.64682
G0 F7200 X-13.319 Y-8.741
G1 F1800 X-9.031 Y-13.029 E355.2519
G0 F7200 X-8.36 Y-12.853
G1 F1800 X-12.889 Y-8.323 E355.89107
G0 F7200 X-12.459 Y-7.904
G1 F1800 X-7.647 Y-12.717 E356.57016
G0 F7200 X-6.87 Y-12.645
G1 F1800 X-12.181 Y-7.334 E357.3196
G0 F7200 X-12.121 Y-6.545
G1 F1800 X-2.639 Y-16.027 E358.65761
G0 F7200 X-1.774 Y-16.044
G1 F1800 X-15.733 Y-2.085 E360.62738
G0 F7200 X-15.689 Y-1.281
G1 F1800 X-1.143 Y-15.827 E362.67998
G0 F7200 X-.512 Y-15.609
G1 F1800 X-15.518 Y-.603 E364.79749
G0 F7200 X-15.169 Y-.103
G1 F1800 X0.118 Y-15.392 E366.95479
G0 F7200 X0.749 Y-15.174
G1 F1800 X-14.784 Y0.359 E369.14666
G0 F7200 X-14.288 Y0.712
G1 F1800 X1.388 Y-14.965 E371.35878
G0 F7200 X2.04 Y-14.768
G1 F1800 X-13.693 Y0.965 E373.57888
G0 F7200 X-13.058 Y1.179
G1 F1800 X2.713 Y-14.593 E375.80441
G0 F7200 X3.389 Y-14.42
G1 F1800 X-12.417 Y1.386 E378.03481
G0 F7200 X-11.776 Y1.594
G1 F1800 X4.067 Y-14.25 E380.2705
G0 F7200 X4.746 Y-14.079
G1 F1800 X-11.136 Y1.802 E382.51155
G0 F7200 X-10.462 Y1.977
G1 F1800 X5.424 Y-13.909 E384.75323
G0 F7200 X6.093 Y-13.729
G1 F1800 X-9.837 Y2.201 E387.00113
G0 F7200 X-9.243 Y2.455
G1 F1800 X6.781 Y-13.569 E389.26229
G0 F7200 X7.481 Y-13.42
G1 F1800 X-8.729 Y2.789 E391.54962
G0 F7200 X-8.42 Y3.329
G1 F1800 X8.201 Y-13.292 E393.89503
G0 F7200 X8.939 Y-13.182
G1 F1800 X-8.178 Y3.935 E396.31042
G0 F7200 X-7.976 Y4.582
G1 F1800 X9.658 Y-13.052 E398.79877
G0 F7200 X10.225 Y-12.771
G1 F1800 X-7.844 Y5.299 E401.34857
G0 F7200 X-7.52 Y5.823
G1 F1800 X10.765 Y-12.462 E403.92878
G0 F7200 X11.305 Y-12.154
G1 F1800 X-7.123 Y6.274 E406.52917
G0 F7200 X-6.733 Y6.733
G1 F1800 X11.593 Y-11.593 E409.11517
G0 F7200 X11.833 Y-10.984
G1 F1800 X-6.348 Y7.196 E411.68063
G0 F7200 X-5.845 Y7.542
G1 F1800 X12.073 Y-10.376 E414.20906
G0 F7200 X12.312 Y-9.767
G1 F1800 X-5.256 Y7.802 E416.68816
G0 F7200 X-4.535 Y7.929
G1 F1800 X12.614 Y-9.22 E419.10807
G0 F7200 X13.087 Y-8.845
G1 F1800 X-3.505 Y7.748 E421.44945
G0 F7200 X-3.528 Y7.622
G0 X-2.472 Y7.414
G0 X-2.448 Y7.539
G1 F1800 X13.587 Y-8.495 E423.71209
G0 F7200 X14.116 Y-8.176
G1 F1800 X-1.381 Y7.321 E425.89889
G0 F7200 X-1.406 Y7.198
G0 X-.33 Y6.971
G0 X-.306 Y7.095
G1 F1800 X14.647 Y-7.858 E428.00892
G0 F7200 X15.176 Y-7.539
G1 F1800 X0.756 Y6.88 E430.04366
G0 F7200 X0.732 Y6.756
G0 X1.748 Y6.591
G0 X1.766 Y6.718
G1 F1800 X15.723 Y-7.237 E432.01301
G0 F7200 X16.285 Y-6.951
G1 F1800 X2.761 Y6.572 E433.92132
G0 F7200 X3.748 Y6.433
G1 F1800 X16.672 Y-6.489 E435.74489
G0 F7200 X16.935 Y-5.905
G1 F1800 X4.709 Y6.321 E437.47011
G0 F7200 X5.67 Y6.209
G1 F1800 X17.175 Y-5.296 E439.09359
G0 F7200 X17.416 Y-4.688
G1 F1800 X12.913 Y-.185 E439.72901
G1 X12.807 Y-0.079
G0 F7200 X12.747 Y-.262
G0 X14.147 Y-.731
G0 X14.186 Y-.61
G1 F1800 X17.656 Y-4.08 E440.21867
G0 F7200 X17.578 Y-3.153
G1 F1800 X15.327 Y-.902 E440.53631
G1 X15.221 Y-.796
G0 F7200 X15.172 Y-.996
G0 X12.392 Y-0.079
G0 X10.96 Y1.434
G0 X10.986 Y1.741
G1 F1800 X6.643 Y6.083 E441.14908
G0 F7200 X7.539 Y6.037
G1 F1800 X10.764 Y2.812 E441.60417
G0 F7200 X10.639 Y2.788
G0 X10.439 Y3.837
G0 X10.563 Y3.861
G1 F1800 X8.638 Y5.786 E441.8758
G1 X8.532 Y5.892
G0 F7200 X8.379 Y5.204
;MESH:NONMESH
G0 F600 X8.379 Y5.204 Z2.7
G0 F7200 X-6.45 Y-12.66
G0 X-6.865 Y-13.432
;TIME_ELAPSED:172.075167
;LAYER:6
;TYPE:WALL-OUTER
;MESH:bunny.obj
G1 F1800 X-6.97 Y-13.421 E441.88634
G1 X-7.626 Y-13.546 E441.95297
G1 X-9.057 Y-13.922 E442.1006
G1 X-9.173 Y-13.94 E442.11232
G1 X-10.524 Y-14.322 E442.25241
G1 X-11.016 Y-14.448 E442.30308
G1 X-12.084 Y-14.648 E442.4115
G1 X-13.224 Y-14.042 E442.54032
G1 X-13.865 Y-13.619 E442.61695
G1 X-14.397 Y-12.839 E442.71116
G1 X-14.895 Y-11.765 E442.82928
G1 X-14.939 Y-11.048 E442.90096
G1 X-14.765 Y-9.963 E443.01061
G1 X-14.578 Y-9.241 E443.08503
G1 X-13.276 Y-7.827 E443.27682
G1 X-12.792 Y-7.341 E443.34526
G1 X-12.751 Y-6.92 E443.38746
G1 X-12.636 Y-6.551 E443.42603
G1 X-12.652 Y-6.395 E443.44168
G1 X-12.964 Y-5.712 E443.5166
G1 X-13.828 Y-5.027 E443.62662
G1 X-14.033 Y-4.892 E443.65111
G1 X-14.777 Y-4.319 E443.74481
G1 X-15.312 Y-3.731 E443.82413
G1 X-15.741 Y-3.244 E443.88889
G1 X-16.128 Y-2.895 E443.94089
G1 X-16.36 Y-2.371 E443.99807
G1 X-16.351 Y-1.485 E444.08648
G1 X-16.202 Y-.334 E444.20228
G1 X-14.635 Y1.13 E444.41626
G1 X-14.013 Y1.416 E444.48457
G1 X-11.742 Y2.39 E444.73113
G1 X-10.661 Y2.624 E444.84149
G1 X-9.279 Y3.228 E444.99199
G1 X-9.079 Y3.451 E445.02187
G1 X-8.958 Y3.766 E445.05554
G1 X-8.638 Y4.431 E445.12918
G1 X-8.481 Y5.496 E445.2366
G1 X-8.348 Y5.833 E445.27275
G1 X-7.4 Y6.907 E445.41569
G1 X-6.548 Y7.937 E445.54906
G1 X-5.859 Y8.404 E445.63212
G1 X-4.144 Y8.771 E445.80711
G1 X-2.445 Y8.433 E445.97996
G1 X-1.352 Y8.244 E446.09064
G1 X0.987 Y7.767 E446.32883
G1 X2.016 Y7.613 E446.43265
G1 X5.552 Y7.127 E446.78879
G1 X6.917 Y6.971 E446.92588
G1 X7.64 Y7.023 E446.9982
G1 X7.861 Y7.063 E447.02061
G1 X9.029 Y6.709 E447.14239
G1 X10 Y6.491 E447.24169
G1 X10.582 Y5.969 E447.3197
G1 X11.57 Y4.667 E447.48278
G1 X11.935 Y2.741 E447.67838
G1 X12.272 Y1.879 E447.77073
G1 X12.897 Y1.357 E447.85198
G1 X13.321 Y0.877 E447.91589
G1 X14.09 Y0.619 E447.99682
G1 X16.726 Y-0.042 E448.26799
G1 X17.704 Y-.779 E448.39018
G1 X18.8 Y-1.84 E448.54239
G1 X19.411 Y-4.106 E448.77656
G1 X19.441 Y-4.379 E448.80397
G1 X19.193 Y-5.006 E448.87125
G1 X17.501 Y-7.915 E449.20704
G1 X16.796 Y-8.25 E449.28492
G1 X15.533 Y-8.7 E449.4187
G1 X14.066 Y-9.59 E449.58991
G1 X13.441 Y-10.038 E449.66664
G1 X12.469 Y-12.518 E449.93242
G1 X12.373 Y-12.618 E449.94625
G1 X11.537 Y-13.182 E450.04688
G1 X10.166 Y-13.96 E450.20417
G1 X9.261 Y-14.074 E450.29518
G1 X8.698 Y-14.133 E450.35167
G1 X8.348 Y-14.202 E450.38726
G1 X7.299 Y-14.375 E450.49335
G1 X6.259 Y-14.6 E450.59952
G1 X5.547 Y-14.723 E450.67162
G1 X2.823 Y-15.417 E450.9521
G1 X-1.898 Y-16.967 E451.4479
G1 X-2.562 Y-16.827 E451.51561
G1 X-4.067 Y-16.387 E451.67207
G1 X-4.559 Y-15.999 E451.73459
G1 X-5.522 Y-15.083 E451.8672
G1 X-5.844 Y-14.57 E451.92764
G1 X-6.006 Y-14.242 E451.96414
G1 X-6.431 Y-13.675 E452.03485
G1 X-6.865 Y-13.432 E452.08448
G0 F7200 X-6.97 Y-13.421
G0 X-7.161 Y-13.457
G0 X-6.678 Y-12.882
;TYPE:SKIN
G1 F1800 X-7.038 Y-12.855 E452.1205
G1 X-7.771 Y-12.993 E452.19492
G1 X-9.176 Y-13.363 E452.33989
G1 X-9.321 Y-13.387 E452.35456
G1 X-11.014 Y-13.866 E452.53012
G1 X-11.993 Y-14.049 E452.6295
G1 X-12.933 Y-13.55 E452.73569
G1 X-13.456 Y-13.205 E452.7982
G1 X-13.898 Y-12.557 E452.87647
G1 X-14.332 Y-11.623 E452.97923
G1 X-14.365 Y-11.074 E453.03411
G1 X-14.205 Y-10.082 E453.13437
G1 X-14.061 Y-9.521 E453.19216
G1 X-12.91 Y-8.272 E453.36164
G1 X-12.426 Y-7.782 E453.43036
G1 X-12.228 Y-7.41 E453.47241
G1 X-12.186 Y-7.024 E453.51115
G1 X-12.07 Y-6.621 E453.553
G1 X-12.116 Y-6.197 E453.59555
G1 X-12.451 Y-5.466 E453.67579
G1 X-12.641 Y-5.241 E453.70517
G1 X-13.491 Y-4.565 E453.81354
G1 X-13.701 Y-4.426 E453.83866
G1 X-14.39 Y-3.895 E453.92546
G1 X-14.871 Y-3.369 E453.99658
G1 X-15.315 Y-2.864 E454.06368
G1 X-15.655 Y-2.554 E454.10959
G1 X-15.788 Y-2.253 E454.14242
G1 X-15.781 Y-1.524 E454.21516
G1 X-15.661 Y-.61 E454.30715
G1 X-14.31 Y0.653 E454.49168
G1 X-13.752 Y0.907 E454.55286
G1 X-11.553 Y1.846 E454.79144
G1 X-10.497 Y2.076 E454.89928
G1 X-9.037 Y2.71 E455.0581
G1 X-8.841 Y2.846 E455.0819
G1 X-8.572 Y3.189 E455.1254
G1 X-8.434 Y3.538 E455.16285
G1 X-8.084 Y4.268 E455.24362
G1 X-7.924 Y5.35 E455.35276
G1 X-7.854 Y5.532 E455.37222
G1 X-6.974 Y6.528 E455.50483
G1 X-6.163 Y7.508 E455.63176
G1 X-5.631 Y7.868 E455.69585
G1 X-4.139 Y8.188 E455.84811
G1 X-2.558 Y7.873 E456.00897
G1 X-1.459 Y7.683 E456.12025
G1 X0.901 Y7.201 E456.36059
G1 X1.932 Y7.049 E456.46458
G1 X5.473 Y6.562 E456.82123
G1 X6.891 Y6.401 E456.96363
G1 X7.645 Y6.45 E457.03902
G1 X7.824 Y6.479 E457.05711
G1 X8.895 Y6.154 E457.16879
G1 X9.732 Y5.965 E457.25441
G1 X10.158 Y5.581 E457.31163
G1 X11.034 Y4.428 E457.45612
G1 X11.386 Y2.577 E457.64412
G1 X11.733 Y1.695 E457.73869
G1 X11.88 Y1.468 E457.76568
G1 X12.496 Y0.947 E457.84618
G1 X12.895 Y0.502 E457.90582
G1 X13.116 Y0.343 E457.93298
G1 X13.953 Y0.064 E458.02102
G1 X16.475 Y-.567 E458.28042
G1 X17.333 Y-1.214 E458.38764
G1 X18.29 Y-2.141 E458.52059
G1 X18.866 Y-4.28 E458.74162
G1 X18.679 Y-4.756 E458.79265
G1 X17.096 Y-7.476 E459.10667
G1 X16.576 Y-7.723 E459.16411
G1 X15.281 Y-8.185 E459.3013
G1 X13.734 Y-9.125 E459.48193
G1 X13.082 Y-9.591 E459.56189
G1 X12.882 Y-9.902 E459.59879
G1 X11.985 Y-12.192 E459.84419
G1 X11.239 Y-12.695 E459.93396
G1 X9.981 Y-13.407 E460.0782
G1 X9.157 Y-13.511 E460.16107
G1 X8.616 Y-13.569 E460.21536
G1 X8.246 Y-13.641 E460.25297
G1 X7.193 Y-13.814 E460.35945
G1 X6.15 Y-14.039 E460.46591
G1 X5.451 Y-14.161 E460.53671
G1 X2.651 Y-14.872 E460.82496
G1 X-1.927 Y-16.378 E461.30584
G1 X-2.421 Y-16.272 E461.35625
G1 X-3.8 Y-15.87 E461.49958
G1 X-4.185 Y-15.567 E461.54847
G1 X-5.077 Y-14.717 E461.67141
G1 X-5.346 Y-14.289 E461.72185
G1 X-5.582 Y-13.848 E461.77176
G1 X-6.068 Y-13.217 E461.85123
G1 X-6.678 Y-12.882 E461.92067
G0 F7200 X-6.474 Y-12.501
G0 X-15.28 Y-.996
G0 X-15.406 Y-.981
G1 F1800 X-13.916 Y0.508 E462.13085
G1 X-13.81 Y0.614
G0 F7200 X-13.731 Y0.446
G0 X-12.384 Y1.029
G0 X-12.433 Y1.142
G1 F1800 X-15.484 Y-1.907 E462.56124
G0 F7200 X-15.246 Y-2.518
G1 F1800 X-11.088 Y1.639 E463.14791
G1 X-10.982 Y1.745
G0 F7200 X-10.938 Y1.544
G0 X-9.801 Y1.912
G0 X-9.852 Y2.027
G1 F1800 X-14.835 Y-2.955 E463.85099
G0 F7200 X-14.434 Y-3.403
G1 F1800 X-3.314 Y7.716 E465.42008
G0 F7200 X-4.021 Y7.858
G1 F1800 X-7.879 Y3.999 E465.96455
G0 F7200 X-7.763 Y3.944
G0 X-7.537 Y5.048
G0 X-7.662 Y5.065
G1 F1800 X-5.041 Y7.686 E466.3344
G1 X-4.935 Y7.792
G0 F7200 X-4.892 Y7.591
G0 X-2.627 Y7.45
G0 X-2.606 Y7.575
G1 F1800 X-13.998 Y-3.816 E467.94187
G0 F7200 X-13.519 Y-4.185
G1 F1800 X-1.883 Y7.45 E469.58376
G0 F7200 X-1.169 Y7.315
G1 F1800 X-13.031 Y-4.545 E471.25748
G0 F7200 X-12.558 Y-4.922
G1 F1800 X-.465 Y7.171 E472.96393
G0 F7200 X0.239 Y7.027
G1 F1800 X-12.163 Y-5.375 E474.71399
G0 F7200 X-11.897 Y-5.957
G1 F1800 X0.948 Y6.888 E476.52655
G0 F7200 X1.689 Y6.78
G1 F1800 X-11.781 Y-6.69 E478.42732
G1 X-11.887 Y-6.796
G0 F7200 X-11.683 Y-6.86
G0 X-12.07 Y-8.032
G0 X-12.173 Y-7.93
G1 F1800 X2.433 Y6.676 E480.48838
G0 F7200 X3.179 Y6.573
G1 F1800 X-13.982 Y-10.588 E482.90998
G0 F7200 X-14.038 Y-11.493
G1 F1800 X3.925 Y6.47 E485.44476
G0 F7200 X4.671 Y6.368
G1 F1800 X-13.784 Y-12.087 E488.04896
G0 F7200 X-13.481 Y-12.633
G1 F1800 X5.417 Y6.265 E490.71567
G0 F7200 X6.179 Y6.179
G1 F1800 X-13.087 Y-13.087 E493.43431
G0 F7200 X-12.558 Y-13.407
G1 F1800 X6.949 Y6.1 E496.18696
G0 F7200 X7.852 Y6.155
G1 F1800 X-12.004 Y-13.701 E498.98885
G0 F7200 X-11.946 Y-13.591
G0 X-11.006 Y-13.551
G1 F1800 X8.503 Y5.958 E501.74178
G0 F7200 X9.176 Y5.782
G1 F1800 X-9.821 Y-13.215 E504.42247
G0 F7200 X-9.856 Y-13.095
G0 X-8.711 Y-12.799
G0 X-8.679 Y-12.921
G1 F1800 X9.768 Y5.526 E507.02554
G0 F7200 X10.165 Y5.074
G1 F1800 X-7.555 Y-12.646 E509.52602
G0 F7200 X-6.642 Y-12.582
G1 F1800 X10.532 Y4.592 E511.94946
G0 F7200 X10.806 Y4.017
G1 F1800 X-6.077 Y-12.865 E514.33176
G0 F7200 X-5.641 Y-13.278
G1 F1800 X10.941 Y3.305 E516.67173
G0 F7200 X11.077 Y2.592
G1 F1800 X-5.287 Y-13.772 E518.98087
G0 F7200 X-4.987 Y-14.321
G1 F1800 X11.302 Y1.968 E521.27942
G0 F7200 X11.573 Y1.39
G1 F1800 X-4.586 Y-14.768 E523.55956
G0 F7200 X-4.151 Y-15.182
G1 F1800 X12.003 Y0.972 E525.83906
G0 F7200 X12.44 Y0.56
G1 F1800 X-3.691 Y-15.571 E528.11532
G0 F7200 X-3.047 Y-15.775
G1 F1800 X12.875 Y0.147 E530.36209
G0 F7200 X13.48 Y-0.096
G1 F1800 X-2.39 Y-15.966 E532.60152
G0 F7200 X-1.494 Y-15.919
G1 F1800 X14.133 Y-.291 E534.80673
G0 F7200 X14.812 Y-.461
G1 F1800 X-.229 Y-15.503 E536.92924
G1 X-.335 Y-15.609
G0 F7200 X-.397 Y-15.422
G0 X0.993 Y-14.965
G0 X1.034 Y-15.087
G1 F1800 X15.491 Y-.63 E538.96928
G0 F7200 X16.17 Y-.8
G1 F1800 X2.298 Y-14.671 E540.9267
G1 X2.192 Y-14.777
G0 F7200 X2.131 Y-14.592
G0 X3.43 Y-14.231
G0 X3.462 Y-14.356
G1 F1800 X16.703 Y-1.115 E542.79515
G0 F7200 X17.181 Y-1.486
G1 F1800 X4.599 Y-14.067 E544.57054
G0 F7200 X4.567 Y-13.941
G0 X5.685 Y-13.685
G0 X5.706 Y-13.809
G1 F1800 X17.612 Y-1.903 E546.2506
G0 F7200 X18.031 Y-2.333
G1 F1800 X6.766 Y-13.598 E547.84021
G0 F7200 X6.739 Y-13.475
G0 X7.784 Y-13.284
G0 X7.805 Y-13.408
G1 F1800 X18.21 Y-3.002 E549.30854
G0 F7200 X18.39 Y-3.671
G1 F1800 X8.816 Y-13.244 E550.65947
G0 F7200 X9.781 Y-13.128
G1 F1800 X12.271 Y-10.639 E551.01076
G1 X12.377 Y-10.533
G0 F7200 X12.2 Y-10.465
G0 X12.672 Y-9.434
G0 X14.692 Y-8.043
G0 X14.758 Y-8.151
G1 F1800 X18.485 Y-4.425 E551.53661
G1 X18.591 Y-4.319
G0 F7200 X18.416 Y-4.251
G0 X17.286 Y-6.298
G0 X17.396 Y-6.361
G1 F1800 X16.231 Y-7.527 E551.70108
G1 X16.125 Y-7.633
G0 F7200 X15.892 Y-6.982
;MESH:NONMESH
G0 F600 X15.892 Y-6.982 Z3.1
G0 F7200 X-11.65 Y-6.185
G0 X-12.194 Y-6.433
;TIME_ELAPSED:210.906938
;LAYER:7
;TYPE:WALL-OUTER
;MESH:bunny.obj
G1 F1800 X-12.609 Y-5.513 E551.80178
G1 X-13.829 Y-4.603 E551.95365
G1 X-14.893 Y-3.908 E552.08046
G1 X-15.441 Y-3.297 E552.16235
G1 X-15.812 Y-2.96 E552.21236
G1 X-16.051 Y-2.328 E552.27978
G1 X-16.02 Y-1.667 E552.34581
G1 X-15.894 Y-.803 E552.43293
G1 X-15.659 Y-.395 E552.47991
G1 X-14.759 Y0.45 E552.60309
G1 X-14.15 Y0.965 E552.68267
G1 X-13.194 Y1.408 E552.78781
G1 X-11.994 Y1.936 E552.91862
G1 X-11.636 Y2.18 E552.96185
G1 X-10.819 Y2.377 E553.04571
G1 X-10.597 Y2.472 E553.0698
G1 X-9.88 Y2.745 E553.14635
G1 X-9.054 Y3.133 E553.23741
G1 X-8.815 Y3.332 E553.26845
G1 X-8.628 Y3.612 E553.30204
G1 X-8.358 Y4.36 E553.38139
G1 X-8.344 Y4.599 E553.40528
G1 X-8.254 Y5.094 E553.45548
G1 X-7.911 Y5.957 E553.54814
G1 X-7.223 Y6.736 E553.65185
G1 X-6.164 Y8.016 E553.81761
G1 X-5.813 Y8.253 E553.85987
G1 X-4.862 Y8.459 E553.95696
G1 X-3.76 Y8.62 E554.06809
G1 X-3.162 Y8.539 E554.1283
G1 X0.264 Y7.956 E554.47506
G1 X0.815 Y7.845 E554.53115
G1 X4.475 Y7.319 E554.90009
G1 X6.394 Y7.148 E555.09233
G1 X7.376 Y7.115 E555.19037
G1 X7.987 Y7.201 E555.25194
G1 X9.795 Y6.654 E555.44042
G1 X10.277 Y6.545 E555.48973
G1 X10.539 Y6.309 E555.52491
G1 X11.86 Y4.568 E555.74297
G1 X12.085 Y3.381 E555.86352
G1 X12.634 Y1.972 E556.01441
G1 X12.943 Y1.656 E556.05851
G1 X13.731 Y0.997 E556.16101
G1 X14.616 Y0.801 E556.25145
G1 X17.369 Y0.111 E556.53464
G1 X17.747 Y-.175 E556.58194
G1 X19.455 Y-1.825 E556.8189
G1 X20.01 Y-3.894 E557.03264
G1 X20.099 Y-4.558 E557.09949
G1 X20.05 Y-4.997 E557.14357
G1 X19.328 Y-5.892 E557.25831
G1 X17.923 Y-8.313 E557.53761
G1 X16.931 Y-8.753 E557.64589
G1 X15.785 Y-9.077 E557.76472
G1 X15.482 Y-9.06 E557.795
G1 X15.347 Y-9.099 E557.80902
G1 X15.044 Y-9.327 E557.84686
G1 X14.317 Y-9.765 E557.93155
G1 X13.655 Y-10.263 E558.0142
G1 X12.916 Y-12.149 E558.21632
G1 X12.569 Y-12.51 E558.26628
G1 X10.397 Y-13.977 E558.52781
G1 X8.619 Y-14.162 E558.70618
G1 X7.412 Y-14.4 E558.82893
G1 X6.859 Y-14.492 E558.88487
G1 X6.318 Y-14.609 E558.9401
G1 X5.1 Y-14.818 E559.0634
G1 X4.646 Y-14.876 E559.10907
G1 X2.556 Y-15.359 E559.32311
G1 X2.013 Y-15.556 E559.38075
G1 X1.101 Y-15.906 E559.47822
G1 X-1.894 Y-16.885 E559.79262
G1 X-3.342 Y-16.463 E559.94311
G1 X-3.802 Y-16.274 E559.99274
G1 X-4.206 Y-15.968 E560.0433
G1 X-5.36 Y-14.869 E560.20231
G1 X-5.827 Y-14.187 E560.28479
G1 X-6.696 Y-13.372 E560.40367
G1 X-6.862 Y-13.347 E560.42042
G1 X-7.392 Y-13.472 E560.47475
G1 X-8.845 Y-13.703 E560.62155
G1 X-9.317 Y-13.837 E560.67051
G1 X-10.207 Y-14.065 E560.76218
G1 X-10.412 Y-14.098 E560.7829
G1 X-12.213 Y-14.442 E560.96585
G1 X-12.933 Y-14.059 E561.04723
G1 X-13.815 Y-13.477 E561.15267
G1 X-14.087 Y-13.079 E561.20077
G1 X-14.806 Y-11.532 E561.37098
G1 X-14.823 Y-11.259 E561.39828
G1 X-14.745 Y-10.749 E561.44976
G1 X-14.429 Y-9.535 E561.57493
G1 X-13.855 Y-8.904 E561.66004
G1 X-13.715 Y-8.76 E561.68008
G1 X-12.879 Y-7.847 E561.8036
G1 X-12.616 Y-7.606 E561.8392
G1 X-12.417 Y-7.305 E561.8752
G1 X-12.371 Y-7.126 E561.89364
G1 X-12.198 Y-6.56 E561.9527
G1 X-12.194 Y-6.433 E561.96537
G0 F7200 X-12.317 Y-6.16
G0 X-11.407 Y-5.75
G0 X-8.01 Y2.733
G0 X-8.373 Y2.969
;TYPE:SKIN
G1 F1800 X-8.118 Y3.351 E562.0112
G1 X-7.801 Y4.209 E562.10247
G1 X-7.699 Y4.947 E562.17681
G1 X-7.42 Y5.653 E562.25255
G1 X-6.797 Y6.357 E562.34636
G1 X-5.779 Y7.587 E562.50567
G1 X-5.586 Y7.718 E562.52894
G1 X-4.759 Y7.898 E562.61339
G1 X-3.756 Y8.043 E562.71451
G1 X-3.129 Y7.957 E562.77766
G1 X0.16 Y7.395 E563.1106
G1 X0.716 Y7.283 E563.16719
G1 X4.399 Y6.753 E563.53847
G1 X6.341 Y6.58 E563.73301
G1 X7.392 Y6.545 E563.83793
G1 X7.941 Y6.619 E563.89321
G1 X9.693 Y6.091 E564.07579
G1 X10.047 Y6.01 E564.11202
G1 X11.325 Y4.329 E564.32273
G1 X11.536 Y3.214 E564.43596
G1 X12.14 Y1.67 E564.60138
G1 X12.577 Y1.218 E564.66412
G1 X13.395 Y0.534 E564.77051
G1 X13.61 Y0.441 E564.79389
G1 X14.543 Y0.23 E564.88933
G1 X17.117 Y-.415 E565.15411
G1 X17.375 Y-.61 E565.18638
G1 X18.945 Y-2.126 E565.40414
G1 X19.449 Y-4.009 E565.59864
G1 X19.524 Y-4.568 E565.65492
G1 X19.501 Y-4.766 E565.67481
G1 X18.878 Y-5.536 E565.77364
G1 X17.519 Y-7.867 E566.04287
G1 X16.738 Y-8.214 E566.12815
G1 X15.714 Y-8.503 E566.23431
G1 X15.349 Y-8.502 E566.27073
G1 X15.047 Y-8.612 E566.3028
G1 X14.723 Y-8.854 E566.34315
G1 X13.973 Y-9.309 E566.43068
G1 X13.331 Y-9.799 E566.51127
G1 X13.125 Y-10.053 E566.5439
G1 X12.429 Y-11.831 E566.73442
G1 X12.197 Y-12.072 E566.7678
G1 X10.198 Y-13.423 E567.00854
G1 X8.527 Y-13.599 E567.17619
G1 X7.309 Y-13.839 E567.30006
G1 X6.769 Y-13.929 E567.35469
G1 X6.211 Y-14.048 E567.41162
G1 X5.014 Y-14.254 E567.53281
G1 X4.571 Y-14.31 E567.57737
G1 X2.427 Y-14.802 E567.79685
G1 X1.821 Y-15.02 E567.86112
G1 X0.911 Y-15.369 E567.95836
G1 X-1.9 Y-16.288 E568.25346
G1 X-3.14 Y-15.926 E568.38235
G1 X-3.514 Y-15.774 E568.42263
G1 X-3.835 Y-15.531 E568.4628
G1 X-4.923 Y-14.496 E568.61264
G1 X-5.388 Y-13.817 E568.69475
G1 X-6.302 Y-12.963 E568.81957
G1 X-6.597 Y-12.811 E568.85268
G1 X-6.897 Y-12.774 E568.88284
G1 X-7.502 Y-12.912 E568.94476
G1 X-8.956 Y-13.144 E569.09167
G1 X-9.466 Y-13.285 E569.14447
G1 X-10.326 Y-13.505 E569.23305
G1 X-12.123 Y-13.842 E569.41548
G1 X-12.642 Y-13.567 E569.47408
G1 X-13.406 Y-13.063 E569.56541
G1 X-13.588 Y-12.796 E569.59765
G1 X-14.244 Y-11.389 E569.75255
G1 X-14.185 Y-10.867 E569.80497
G1 X-13.91 Y-9.811 E569.91385
G1 X-13.511 Y-9.371 E569.97312
G1 X-13.305 Y-9.157 E570.00276
G1 X-12.475 Y-8.251 E570.12536
G1 X-12.17 Y-7.965 E570.16708
G1 X-11.892 Y-7.53 E570.21859
G1 X-11.635 Y-6.661 E570.30901
G1 X-11.671 Y-6.211 E570.35406
G1 X-12.084 Y-5.29 E570.45477
G1 X-12.276 Y-5.052 E570.48528
G1 X-13.499 Y-4.135 E570.63781
G1 X-14.518 Y-3.47 E570.75922
G1 X-15.019 Y-2.913 E570.83397
G1 X-15.302 Y-2.654 E570.87225
G1 X-15.475 Y-2.233 E570.91766
G1 X-15.451 Y-1.724 E570.96851
G1 X-15.344 Y-.992 E571.04232
G1 X-15.208 Y-.755 E571.06959
G1 X-14.379 Y0.024 E571.1831
G1 X-13.841 Y0.479 E571.2534
G1 X-12.909 Y0.91 E571.35586
G1 X-11.72 Y1.435 E571.48555
G1 X-11.404 Y1.648 E571.52358
G1 X-10.663 Y1.829 E571.59969
G1 X-9.647 Y2.224 E571.70846
G1 X-8.741 Y2.649 E571.80831
G1 X-8.373 Y2.969 E571.85697
G0 F7200 X-8.01 Y2.733
G0 X-11.537 Y-7.681
G0 X-13.661 Y-11.625
G0 X-13.775 Y-11.679
G1 F1800 X-11.95 Y-13.505 E572.11457
G0 F7200 X-11.236 Y-13.37
G1 F1800 X-13.846 Y-10.76 E572.48287
G0 F7200 X-13.671 Y-10.087
G1 F1800 X-10.522 Y-13.236 E572.92722
G0 F7200 X-9.842 Y-13.067
G1 F1800 X-13.309 Y-9.601 E573.41638
G0 F7200 X-12.902 Y-9.159
G1 F1800 X-9.171 Y-12.89 E573.94287
G0 F7200 X-8.453 Y-12.759
G1 F1800 X-12.495 Y-8.717 E574.51324
G0 F7200 X-12.076 Y-8.287
G1 F1800 X-7.721 Y-12.643 E575.12785
G0 F7200 X-7.021 Y-12.494
G1 F1800 X-11.708 Y-7.807 E575.78923
G0 F7200 X-11.478 Y-7.189
G1 F1800 X-3.02 Y-15.647 E576.98275
G1 X-2.914 Y-15.753
G0 F7200 X-2.859 Y-15.564
G0 X-1.859 Y-15.959
G1 F1800 X-11.361 Y-6.458 E578.32351
G1 X-11.467 Y-6.352
G0 F7200 X-11.192 Y-6.227
G0 X-11.699 Y-5.1
G0 X-11.816 Y-5.154
G1 F1800 X-1.22 Y-15.75 E579.81872
G0 F7200 X-.581 Y-15.54
G1 F1800 X-15.045 Y-1.076 E581.85975
G0 F7200 X-14.639 Y-.633
G1 F1800 X0.057 Y-15.331 E583.93365
G0 F7200 X0.697 Y-15.122
G1 F1800 X-14.202 Y-.222 E586.03613
G0 F7200 X-13.744 Y0.168
G1 F1800 X1.315 Y-14.892 E588.16119
G0 F7200 X1.933 Y-14.661
G1 F1800 X-13.181 Y0.453 E590.29394
G0 F7200 X-12.598 Y0.719
G1 F1800 X2.58 Y-14.459 E592.43572
G0 F7200 X3.27 Y-14.301
G1 F1800 X-12.009 Y0.978 E594.59175
G0 F7200 X-11.443 Y1.261
G1 F1800 X3.96 Y-14.142 E596.76528
G0 F7200 X4.661 Y-13.995
G1 F1800 X-10.817 Y1.483 E598.9494
G0 F7200 X-10.183 Y1.698
G1 F1800 X5.398 Y-13.883 E601.14804
G0 F7200 X6.121 Y-13.758
G1 F1800 X-9.569 Y1.932 E603.36207
G0 F7200 X-8.989 Y2.201
G1 F1800 X6.827 Y-13.615 E605.59388
G0 F7200 X7.546 Y-13.486
G1 F1800 X-8.444 Y2.504 E607.85024
G0 F7200 X-8.032 Y2.94
G1 F1800 X8.255 Y-13.346 E610.14844
G0 F7200 X9.003 Y-13.246
G1 F1800 X-7.743 Y3.5 E612.51148
G0 F7200 X-7.513 Y4.118
G1 F1800 X9.77 Y-13.164 E614.95023
G0 F7200 X10.386 Y-12.932
G1 F1800 X-7.406 Y4.861 E617.46095
G0 F7200 X-7.167 Y5.47
G1 F1800 X10.893 Y-12.59 E620.00941
G0 F7200 X11.399 Y-12.248
G1 F1800 X-6.775 Y5.926 E622.57395
G0 F7200 X-6.384 Y6.384
G1 F1800 X11.906 Y-11.906 E625.15487
G0 F7200 X12.266 Y-11.418
G1 F1800 X-5.999 Y6.848 E627.73233
G0 F7200 X-5.615 Y7.312
G1 F1800 X12.505 Y-10.808 E630.28926
G0 F7200 X12.744 Y-10.199
G1 F1800 X-4.994 Y7.539 E632.79228
G0 F7200 X-4.271 Y7.665
G1 F1800 X13.063 Y-9.669 E635.2383
G0 F7200 X13.519 Y-9.276
G1 F1800 X-3.456 Y7.698 E637.63358
G0 F7200 X-3.472 Y7.572
G0 X-2.465 Y7.407
G0 X-2.444 Y7.535
G1 F1800 X14.02 Y-8.929 E639.95683
G0 F7200 X14.548 Y-8.609
G1 F1800 X-1.42 Y7.36 E642.21016
G0 F7200 X-1.44 Y7.233
G0 X-.417 Y7.058
G0 X-.397 Y7.185
G1 F1800 X15.074 Y-8.285 E644.39321
G0 F7200 X15.802 Y-8.165
G1 F1800 X0.647 Y6.989 E646.53168
G0 F7200 X0.623 Y6.863
G0 X1.621 Y6.719
G0 X1.639 Y6.846
G1 F1800 X16.464 Y-7.979 E648.62364
G0 F7200 X17.071 Y-7.737
G1 F1800 X2.63 Y6.703 E650.66135
G0 F7200 X2.613 Y6.577
G0 X3.605 Y6.434
G0 X3.622 Y6.559
G1 F1800 X17.493 Y-7.311 E652.61863
G0 F7200 X17.805 Y-6.774
G1 F1800 X4.597 Y6.433 E654.48235
G0 F7200 X5.528 Y6.35
G1 F1800 X18.117 Y-6.238 E656.25873
G0 F7200 X18.429 Y-5.701
G1 F1800 X6.45 Y6.276 E657.94895
G0 F7200 X7.328 Y6.247
G1 F1800 X11.759 Y1.816 E658.57421
G1 X11.865 Y1.71
G0 F7200 X11.691 Y1.641
G0 X11.11 Y3.165
G0 X11.235 Y3.189
G1 F1800 X8.196 Y6.228 E659.00305
G1 X8.09 Y6.334
G0 F7200 X8.034 Y6.143
G0 X9.376 Y5.737
G0 X9.412 Y5.861
G1 F1800 X10.956 Y4.316 E659.22099
G1 X11.062 Y4.21
G0 F7200 X10.923 Y4.155
G0 X11.182 Y3.106
G0 X11.832 Y1.448
G0 X13.218 Y0.123
G0 X13.325 Y0.251
G1 F1800 X18.768 Y-5.192 E659.98906
G0 F7200 X19.147 Y-4.722
G1 F1800 X14.493 Y-0.068 E660.64579
G0 F7200 X14.463 Y-.191
G0 X15.594 Y-.474
G0 X15.624 Y-.351
G1 F1800 X19.084 Y-3.81 E661.13396
G0 F7200 X18.963 Y-3.842
G0 X18.652 Y-2.685
G0 X18.774 Y-2.652
G1 F1800 X16.755 Y-.633 E661.41887
G1 X16.649 Y-.527
G0 F7200 X16.6 Y-.727
G0 X-12.257 Y-4.529
G0 X-12.335 Y-4.635
G1 F1800 X-15.154 Y-1.816 E661.81666
G1 X-15.26 Y-1.71
G0 F7200 X-14.525 Y-1.815
;MESH:NONMESH
G0 F600 X-14.525 Y-1.815 Z3.5
G0 F7200 X-12.121 Y-4.596
G0 X-6.17 Y-12.521
G0 X-6.529 Y-13.18
;TIME_ELAPSED:250.130926
;LAYER:8
;TYPE:WALL-OUTER
;MESH:bunny.obj
G1 F1800 X-6.906 Y-13.161 E661.85432
G1 X-8.234 Y-13.384 E661.98869
G1 X-9.404 Y-13.683 E662.10918
G1 X-9.868 Y-13.717 E662.1556
G1 X-10.414 Y-13.866 E662.21208
G1 X-12.341 Y-14.235 E662.40785
G1 X-12.642 Y-14.076 E662.44181
G1 X-13.772 Y-13.333 E662.57675
G1 X-14.448 Y-11.877 E662.73693
G1 X-14.675 Y-11.345 E662.79464
G1 X-14.276 Y-9.807 E662.95319
G1 X-13.458 Y-8.961 E663.07061
G1 X-12.518 Y-8.15 E663.19448
G1 X-12.12 Y-7.618 E663.26078
G1 X-11.783 Y-7.058 E663.32599
G1 X-11.647 Y-6.47 E663.38621
G1 X-11.866 Y-5.815 E663.45512
G1 X-12.216 Y-5.319 E663.5157
G1 X-12.599 Y-4.91 E663.57161
G1 X-13.719 Y-4.086 E663.71035
G1 X-15.145 Y-3.292 E663.8732
G1 X-15.574 Y-2.563 E663.9576
G1 X-15.708 Y-2.256 E663.99103
G1 X-15.591 Y-1.317 E664.08545
G1 X-15.19 Y-.617 E664.16594
G1 X-14.585 Y0.042 E664.2552
G1 X-13.774 Y0.731 E664.36139
G1 X-13.217 Y0.984 E664.42243
G1 X-12.483 Y1.375 E664.50541
G1 X-12.311 Y1.454 E664.5243
G1 X-11.57 Y1.962 E664.61394
G1 X-11.296 Y2.03 E664.64211
G1 X-10.3 Y2.35 E664.74649
G1 X-8.817 Y3.042 E664.90979
G1 X-8.475 Y3.327 E664.95421
G1 X-8.187 Y3.776 E665.00743
G1 X-8 Y4.301 E665.06304
G1 X-7.982 Y4.722 E665.10509
G1 X-7.843 Y5.193 E665.15409
G1 X-7.473 Y6.083 E665.25026
G1 X-7.046 Y6.566 E665.31459
G1 X-5.763 Y8.115 E665.51528
G1 X-4.005 Y8.373 E665.69257
G1 X-3.234 Y8.445 E665.76984
G1 X-2.14 Y8.298 E665.87998
G1 X-1.023 Y8.114 E665.99294
G1 X0.213 Y7.938 E666.11751
G1 X0.934 Y7.971 E666.18952
G1 X2.025 Y7.819 E666.29944
G1 X3.362 Y7.609 E666.43448
G1 X6.046 Y7.322 E666.70382
G1 X7.535 Y7.261 E666.85251
G1 X8.114 Y7.339 E666.91081
G1 X10.524 Y6.614 E667.16192
G1 X11.123 Y5.813 E667.26173
G1 X12.15 Y4.47 E667.43042
G1 X12.248 Y3.974 E667.48087
G1 X12.781 Y2.618 E667.62625
G1 X13.059 Y1.976 E667.69606
G1 X13.438 Y1.58 E667.75075
G1 X13.941 Y1.171 E667.81544
G1 X14.198 Y1.065 E667.84318
G1 X17.953 Y0.239 E668.22681
G1 X18.392 Y-.153 E668.28553
G1 X20.108 Y-1.811 E668.52362
G1 X20.379 Y-2.824 E668.62826
G1 X20.621 Y-4.637 E668.81076
G1 X20.474 Y-5.981 E668.94567
G1 X18.555 Y-8.344 E669.2494
G1 X18.359 Y-8.686 E669.28874
G1 X17.254 Y-9.085 E669.40596
G1 X16.516 Y-9.3 E669.48266
G1 X15.858 Y-9.272 E669.54838
G1 X15.713 Y-9.221 E669.56371
G1 X15.393 Y-9.28 E669.59618
G1 X15.197 Y-9.454 E669.62233
G1 X14.627 Y-9.871 E669.6928
G1 X14.552 Y-9.954 E669.70396
G1 X13.874 Y-10.483 E669.78977
G1 X13.362 Y-11.78 E669.9289
G1 X12.765 Y-12.403 E670.015
G1 X10.97 Y-13.614 E670.23106
G1 X9.989 Y-13.975 E670.33536
G1 X8.742 Y-14.159 E670.46113
G1 X6.274 Y-14.634 E670.71191
G1 X3.702 Y-14.969 E670.97071
G1 X2.236 Y-15.311 E671.12092
G1 X1.121 Y-15.713 E671.23918
G1 X-.764 Y-16.436 E671.44063
G1 X-1.79 Y-16.771 E671.54832
G1 X-2.271 Y-16.641 E671.59804
G1 X-3.399 Y-16.172 E671.71993
G1 X-4.402 Y-15.413 E671.84544
G1 X-5.225 Y-14.63 E671.95878
G1 X-5.544 Y-14.19 E672.01301
G1 X-5.645 Y-14.037 E672.03131
G1 X-6.163 Y-13.511 E672.10497
G1 X-6.359 Y-13.264 E672.13643
G1 X-6.529 Y-13.18 E672.15535
G0 F7200 X-6.829 Y-13.165
G0 X-6.323 Y-12.633
;TYPE:SKIN
G1 F1800 X-6.95 Y-12.593 E672.21804
G1 X-8.377 Y-12.831 E672.36239
G1 X-9.508 Y-13.119 E672.47885
G1 X-9.975 Y-13.156 E672.52559
G1 X-10.543 Y-13.309 E672.58429
G1 X-12.267 Y-13.639 E672.75943
G1 X-13.323 Y-12.946 E672.88546
G1 X-14.078 Y-11.319 E673.06443
G1 X-13.761 Y-10.097 E673.1904
G1 X-13.065 Y-9.376 E673.29039
G1 X-12.086 Y-8.529 E673.41956
G1 X-11.631 Y-7.914 E673.4959
G1 X-11.25 Y-7.271 E673.57047
G1 X-11.1 Y-6.632 E673.63596
G1 X-11.09 Y-6.335 E673.66562
G1 X-11.351 Y-5.553 E673.74788
G1 X-11.784 Y-4.947 E673.82219
G1 X-12.202 Y-4.494 E673.88369
G1 X-13.425 Y-3.597 E674.03503
G1 X-14.733 Y-2.867 E674.18449
G1 X-15.128 Y-2.196 E674.26219
G1 X-15.04 Y-1.506 E674.33159
G1 X-14.724 Y-.953 E674.39514
G1 X-14.189 Y-.37 E674.4741
G1 X-13.468 Y0.243 E674.56853
G1 X-12.966 Y0.47 E674.6235
G1 X-12.229 Y0.864 E674.70689
G1 X-12.038 Y0.954 E674.72795
G1 X-11.335 Y1.431 E674.81272
G1 X-11.139 Y1.481 E674.83291
G1 X-10.044 Y1.838 E674.94783
G1 X-8.519 Y2.556 E675.11601
G1 X-8.045 Y2.947 E675.17732
G1 X-7.653 Y3.555 E675.24951
G1 X-7.44 Y4.193 E675.31662
G1 X-7.415 Y4.625 E675.3598
G1 X-7.307 Y4.989 E675.39768
G1 X-6.983 Y5.778 E675.48279
G1 X-6.622 Y6.185 E675.53707
G1 X-5.466 Y7.581 E675.71792
G1 X-3.938 Y7.806 E675.87203
G1 X-3.245 Y7.871 E675.94148
G1 X-2.222 Y7.734 E676.04447
G1 X-1.142 Y7.555 E676.1537
G1 X0.17 Y7.369 E676.28592
G1 X0.907 Y7.399 E676.35952
G1 X1.942 Y7.255 E676.46379
G1 X3.273 Y7.046 E676.59823
G1 X6.017 Y6.752 E676.87359
G1 X7.516 Y6.688 E677.0233
G1 X8.064 Y6.758 E677.07842
G1 X10.178 Y6.121 E677.29873
G1 X10.665 Y5.47 E677.37985
G1 X11.615 Y4.229 E677.53579
G1 X11.698 Y3.816 E677.57782
G1 X12.254 Y2.399 E677.72971
G1 X12.579 Y1.65 E677.81118
G1 X13.044 Y1.167 E677.87807
G1 X13.63 Y0.686 E677.95372
G1 X14.017 Y0.522 E677.99566
G1 X17.716 Y-.295 E678.37364
G1 X19.598 Y-2.111 E678.6346
G1 X19.818 Y-2.938 E678.71999
G1 X20.046 Y-4.647 E678.89202
G1 X19.924 Y-5.751 E679.00285
G1 X18.116 Y-7.979 E679.28915
G1 X17.973 Y-8.218 E679.31694
G1 X17.079 Y-8.541 E679.41179
G1 X16.443 Y-8.726 E679.47788
G1 X15.957 Y-8.706 E679.52641
G1 X15.698 Y-8.652 E679.55281
G1 X15.122 Y-8.778 E679.61164
G1 X14.837 Y-9.01 E679.64831
G1 X14.24 Y-9.45 E679.72231
G1 X14.161 Y-9.535 E679.73389
G1 X13.48 Y-10.068 E679.82018
G1 X13.361 Y-10.239 E679.84097
G1 X12.875 Y-11.462 E679.97228
G1 X12.393 Y-11.965 E680.04179
G1 X10.708 Y-13.103 E680.24468
G1 X9.851 Y-13.418 E680.33578
G1 X8.621 Y-13.601 E680.45986
G1 X6.184 Y-14.071 E680.70751
G1 X3.636 Y-14.399 E680.96385
G1 X2.079 Y-14.764 E681.12342
G1 X0.93 Y-15.177 E681.24524
G1 X-.954 Y-15.899 E681.44656
G1 X-1.803 Y-16.176 E681.53567
G1 X-2.072 Y-16.102 E681.56351
G1 X-3.109 Y-15.674 E681.67545
G1 X-4.031 Y-14.976 E681.79083
G1 X-4.794 Y-14.253 E681.89572
G1 X-5.233 Y-13.64 E681.97095
G1 X-5.736 Y-13.131 E682.04235
G1 X-5.962 Y-12.855 E682.07795
G1 X-6.323 Y-12.633 E682.12023
G0 F7200 X-6.299 Y-12.193
G0 X-11.48 Y-4.733
G0 X-14.689 Y-2.092
G0 X-14.81 Y-2.082
G1 F1800 X-12.175 Y0.552 E682.49199
G1 X-12.069 Y0.658
G0 F7200 X-11.998 Y0.498
G0 X-10.466 Y1.247
G0 X-10.506 Y1.372
G1 F1800 X-14.519 Y-2.639 E683.05813
G0 F7200 X-13.975 Y-2.945
G1 F1800 X-9.063 Y1.967 E683.75126
G1 X-8.957 Y2.073
G0 F7200 X-8.88 Y1.909
G0 X-7.828 Y2.632
G0 X-7.141 Y3.717
G0 X-7.268 Y3.762
G1 F1800 X-3.484 Y7.546 E684.28523
G0 F7200 X-2.689 Y7.492
G1 F1800 X-13.431 Y-3.249 E685.80097
G0 F7200 X-12.925 Y-3.591
G1 F1800 X-1.95 Y7.383 E687.34959
G0 F7200 X-1.221 Y7.263
G1 F1800 X-12.435 Y-3.949 E688.93186
G0 F7200 X-11.953 Y-4.316
G1 F1800 X-.478 Y7.158 E690.55104
G0 F7200 X0.286 Y7.074
G1 F1800 X-11.551 Y-4.763 E692.22137
G0 F7200 X-11.195 Y-5.255
G1 F1800 X1.125 Y7.064 E693.95978
G0 F7200 X1.869 Y6.96
G1 F1800 X-10.936 Y-5.845 E695.76671
G0 F7200 X-10.797 Y-6.554
G1 F1800 X2.603 Y6.846 E697.65759
G0 F7200 X3.343 Y6.737
G1 F1800 X-11.239 Y-7.845 E699.71527
G1 X-11.345 Y-7.951
G0 F7200 X-11.205 Y-8.034
G0 X-13.611 Y-11.219
G0 X-13.734 Y-11.188
G1 F1800 X4.108 Y6.654 E702.23297
G0 F7200 X4.874 Y6.571
G1 F1800 X-13.515 Y-11.818 E704.82786
G0 F7200 X-13.246 Y-12.397
G1 F1800 X5.64 Y6.489 E707.49287
G0 F7200 X6.432 Y6.432
G1 F1800 X-12.877 Y-12.877 E710.21758
G0 F7200 X-12.365 Y-13.213
G1 F1800 X7.247 Y6.398 E712.98498
G0 F7200 X8.122 Y6.425
G1 F1800 X-11.484 Y-13.181 E715.7516
G0 F7200 X-11.507 Y-13.059
G0 X-10.452 Y-12.839
G0 X-10.417 Y-12.963
G1 F1800 X8.775 Y6.229 E718.45979
G0 F7200 X9.427 Y6.033
G1 F1800 X-9.381 Y-12.776 E721.11388
G0 F7200 X-9.412 Y-12.655
G0 X-8.287 Y-12.379
G0 X-8.265 Y-12.508
G1 F1800 X10.043 Y5.8 E723.69733
G0 F7200 X10.405 Y5.314
G1 F1800 X-7.247 Y-12.339 E726.18829
G0 F7200 X-6.388 Y-12.327
G1 F1800 X10.774 Y4.834 E728.60996
G0 F7200 X11.141 Y4.353
G1 F1800 X-5.813 Y-12.602 E731.00243
G0 F7200 X-5.404 Y-13.041
G1 F1800 X11.406 Y3.769 E733.3745
G0 F7200 X11.634 Y3.148
G1 F1800 X-4.986 Y-13.471 E735.71969
G0 F7200 X-4.631 Y-13.965
G1 F1800 X11.874 Y2.54 E738.04873
G0 F7200 X12.125 Y1.943
G1 F1800 X-4.209 Y-14.391 E740.35363
G0 F7200 X-3.767 Y-14.798
G1 F1800 X12.415 Y1.384 E742.63708
G0 F7200 X12.833 Y0.954
G1 F1800 X-3.283 Y-15.163 E744.9113
G0 F7200 X-2.762 Y-15.49
G1 F1800 X13.296 Y0.568 E747.17725
G0 F7200 X13.846 Y0.27
G1 F1800 X-2.161 Y-15.738 E749.43608
G0 F7200 X-1.255 Y-15.68
G1 F1800 X14.527 Y0.102 E751.6631
G0 F7200 X15.221 Y-0.051
G1 F1800 X0.101 Y-15.172 E753.79676
G1 X-0.005 Y-15.278
G0 F7200 X-0.073 Y-15.1
G0 X1.409 Y-14.548
G0 X1.452 Y-14.669
G1 F1800 X15.916 Y-.205 E755.83779
G0 F7200 X16.611 Y-.359
G1 F1800 X2.649 Y-14.321 E757.80798
G0 F7200 X2.62 Y-14.196
G0 X3.718 Y-13.959
G0 X3.734 Y-14.084
G1 F1800 X17.306 Y-.512 E759.72313
G0 F7200 X17.836 Y-.831
G1 F1800 X4.709 Y-13.958 E761.57549
G0 F7200 X5.683 Y-13.832
G1 F1800 X18.268 Y-1.248 E763.3513
G0 F7200 X18.7 Y-1.664
G1 F1800 X6.699 Y-13.665 E765.04477
G0 F7200 X6.675 Y-13.54
G0 X7.726 Y-13.337
G0 X7.75 Y-13.462
G1 F1800 X19.132 Y-2.08 E766.6509
G0 F7200 X19.426 Y-2.635
G1 F1800 X8.79 Y-13.27 E768.15168
G0 F7200 X8.772 Y-13.146
G0 X9.789 Y-13.12
G1 F1800 X19.569 Y-3.341 E769.53167
G0 F7200 X19.668 Y-4.089
G1 F1800 X15.349 Y-8.409 E770.1412
G0 F7200 X16.204 Y-8.403
G1 F1800 X19.717 Y-4.889 E770.63699
G1 X19.823 Y-4.783
G0 F7200 X19.602 Y-4.76
G0 X18.707 Y-6.571
G0 X18.805 Y-6.65
G1 F1800 X17.321 Y-8.133 E770.84633
G1 X17.215 Y-8.239
G0 F7200 X17.15 Y-8.061
G0 X14.979 Y-8.376
G0 X13.09 Y-9.906
G0 X12.596 Y-10.992
G0 X12.719 Y-11.039
G1 F1800 X11.663 Y-12.095 E770.99535
G1 X11.557 Y-12.201
G0 F7200 X11.47 Y-12.073
G0 X-6.92 Y4.797
G0 X-7.046 Y4.833
G1 F1800 X-4.453 Y7.426 E771.36125
G1 X-4.347 Y7.532
G0 F7200 X-4.244 Y6.824
;MESH:NONMESH
G0 F600 X-4.244 Y6.824 Z3.9
G0 F7200 X-6.382 Y-12.188
G0 X-6.424 Y-12.932
;TIME_ELAPSED:289.007979
;LAYER:9
;TYPE:WALL-OUTER
;MESH:bunny.obj
G1 F1800 X-7.053 Y-12.927 E771.42401
G1 X-8 Y-13.147 E771.52102
G1 X-8.601 Y-13.301 E771.58292
G1 X-9.409 Y-13.432 E771.6646
G1 X-9.995 Y-13.287 E771.72483
G1 X-12.422 Y-13.996 E771.97712
G1 X-13.548 Y-12.908 E772.13336
G1 X-14.117 Y-11.572 E772.27825
G1 X-14.083 Y-10.12 E772.42317
G1 X-12.843 Y-9.045 E772.58692
G1 X-12.199 Y-8.403 E772.67765
G1 X-11.723 Y-7.766 E772.757
G1 X-11.158 Y-6.839 E772.86532
G1 X-11.057 Y-6.488 E772.90177
G1 X-11.093 Y-6.178 E772.93291
G1 X-11.327 Y-5.766 E772.98018
G1 X-11.804 Y-5.095 E773.06233
G1 X-12.227 Y-4.596 E773.1276
G1 X-12.701 Y-4.117 E773.19484
G1 X-13.523 Y-3.519 E773.29627
G1 X-14.613 Y-2.879 E773.42239
G1 X-15.131 Y-2.476 E773.48788
G1 X-15.323 Y-2.12 E773.52824
G1 X-15.286 Y-1.826 E773.5578
G1 X-14.663 Y-.742 E773.68256
G1 X-14.241 Y-.284 E773.7447
G1 X-13.789 Y0.164 E773.8082
G1 X-13.409 Y0.485 E773.85783
G1 X-12.701 Y0.848 E773.93722
G1 X-12.028 Y1.386 E774.02319
G1 X-11.484 Y1.778 E774.0901
G1 X-10.54 Y2.085 E774.18915
G1 X-9.734 Y2.415 E774.27605
G1 X-8.577 Y2.958 E774.40358
G1 X-8.145 Y3.305 E774.45887
G1 X-7.742 Y3.951 E774.53484
G1 X-7.652 Y4.196 E774.56088
G1 X-7.636 Y4.407 E774.582
G1 X-7.394 Y5.248 E774.66932
G1 X-7.085 Y6.151 E774.76455
G1 X-6.868 Y6.394 E774.79705
G1 X-6.209 Y7.193 E774.9004
G1 X-5.339 Y7.807 E775.00665
G1 X-4.663 Y8.043 E775.07809
G1 X-3.927 Y8.153 E775.15235
G1 X-3.523 Y8.248 E775.19376
G1 X-2.84 Y8.311 E775.2622
G1 X-1.9 Y8.189 E775.35678
G1 X-1.011 Y8.101 E775.44591
G1 X-.619 Y8.045 E775.48543
G1 X0.242 Y8.07 E775.57137
G1 X1.114 Y8.124 E775.65855
G1 X1.184 Y8.136 E775.66563
G1 X2.22 Y8.08 E775.76916
G1 X3.925 Y7.902 E775.94021
G1 X4.85 Y7.822 E776.03285
G1 X5.717 Y7.717 E776.11999
G1 X7.467 Y7.408 E776.29731
G1 X8.049 Y7.44 E776.35547
G1 X8.252 Y7.473 E776.37599
G1 X9.758 Y7.018 E776.53297
G1 X10.819 Y6.502 E776.65069
G1 X12.282 Y4.589 E776.89099
G1 X12.476 Y4.415 E776.91699
G1 X13.091 Y2.842 E777.08552
G1 X13.456 Y1.997 E777.17736
G1 X14.084 Y1.365 E777.26626
G1 X14.596 Y1.149 E777.32171
G1 X17.452 Y0.522 E777.61347
G1 X18.223 Y0.434 E777.6909
G1 X18.461 Y0.258 E777.72044
G1 X20.755 Y-1.795 E778.02761
G1 X21.144 Y-4.717 E778.32174
G1 X21.015 Y-5.902 E778.44068
G1 X20.775 Y-6.503 E778.50525
G1 X19.023 Y-8.612 E778.77883
G1 X18.534 Y-9.067 E778.84548
G1 X17.255 Y-9.53 E778.9812
G1 X16.636 Y-9.521 E779.04297
G1 X16.093 Y-9.477 E779.09733
G1 X15.816 Y-9.383 E779.12652
G1 X15.437 Y-9.456 E779.16503
G1 X14.897 Y-9.907 E779.23523
G1 X14.466 Y-10.41 E779.30132
G1 X14.066 Y-10.751 E779.35377
G1 X13.808 Y-11.411 E779.42448
G1 X12.96 Y-12.295 E779.54671
G1 X11.671 Y-13.166 E779.70194
G1 X10.901 Y-13.483 E779.78502
G1 X10.413 Y-13.664 E779.83696
G1 X9.698 Y-14.036 E779.91738
G1 X9.017 Y-14.171 E779.98665
G1 X8.099 Y-14.417 E780.08148
G1 X7.945 Y-14.491 E780.09853
G1 X6.837 Y-14.81 E780.21358
G1 X6.558 Y-14.921 E780.24354
G1 X6.112 Y-14.923 E780.28804
G1 X5.347 Y-14.787 E780.36557
G1 X3.895 Y-14.868 E780.51068
G1 X2.658 Y-15.081 E780.63592
G1 X1.82 Y-15.276 E780.72177
G1 X0.23 Y-15.858 E780.89072
G1 X-1.077 Y-16.36 E781.03042
G1 X-1.766 Y-16.585 E781.10274
G1 X-2.997 Y-16.071 E781.23585
G1 X-4.597 Y-14.86 E781.43607
G1 X-5.142 Y-14.34 E781.51123
G1 X-5.538 Y-13.723 E781.58438
G1 X-5.568 Y-13.657 E781.59162
