;FLAVOR:Marlin
;TIME:6599
;Filament used: 9.69469m
;Layer height: 0.3
;MINX:-24.2
;MINY:-18.599
;MINZ:0.3
;MAXX:24.186
;MAXY:18.583
;MAXZ:47.7
;Generated with Cura_SteamEngine 4.13.1
M104 S200
M105
M109 S200
M82 ;absolute extrusion mode

G92 E0
G92 E0
;LAYER_COUNT:160
;LAYER:0
M107
;MESH:bunny.stl
G0 F3600 X-10.477 Y1.308 Z0.3
;TYPE:WALL-INNER
G1 F1722 X-10.003 Y2.356 E0.05738
G1 X-9.437 Y3.321 E0.1132
G1 X-9.342 Y3.673 E0.13139
G1 X-9.968 Y2.606 E0.1681
G1 X-11.505 Y2.104 E0.24877
G1 X-11.951 Y1.977 E0.27191
G1 X-12.792 Y1.429 E0.32199
G1 X-13.246 Y0.994 E0.35335
G1 X-13.29 Y-.289 E0.4174
G1 X-13.954 Y-1.437 E0.48357
G1 X-14.218 Y-2.15 E0.5215
G1 X-13.583 Y-4.506 E0.64323
G1 X-13.284 Y-5.455 E0.69287
G1 X-13.049 Y-5.842 E0.71546
G1 X-11.332 Y-6.466 E0.8066
G1 X-11.112 Y-5.601 E0.85113
G1 X-11.368 Y-5.257 E0.87253
G1 X-11.67 Y-4.776 E0.90086
G1 X-11.652 Y-4.127 E0.93325
G1 X-11.652 Y-3.484 E0.96533
G1 X-11.217 Y-2.57 E1.01583
G1 X-10.87 Y-2.041 E1.0474
G1 X-10.252 Y-2.029 E1.07823
G1 X-9 Y-2.087 E1.14076
G1 X-8.628 Y-2.051 E1.15941
G1 X-7.702 Y-2.068 E1.20562
G1 X-6.779 Y-1.999 E1.25179
G1 X-7.19 Y-1.376 E1.28903
G1 X-7.936 Y-.776 E1.33679
G1 X-9.366 Y0.29 E1.42578
G1 X-10.477 Y1.308 E1.50095
G0 F3600 X-9.993 Y1.407
;TYPE:WALL-OUTER
G1 F1722 X-9.647 Y2.172 E1.54284
G1 X-9.065 Y3.166 E1.60031
G1 X-8.632 Y4.763 E1.68286
G1 X-8.58 Y5.34 E1.71176
G1 X-9.057 Y5.115 E1.73807
G1 X-9.416 Y4.337 E1.78082
G1 X-10.236 Y2.939 E1.86168
G1 X-11.622 Y2.487 E1.93441
G1 X-12.117 Y2.346 E1.96009
G1 X-13.044 Y1.742 E2.01529
G1 X-13.64 Y1.17 E2.0565
G1 X-13.686 Y-.175 E2.12364
G1 X-14.318 Y-1.268 E2.18663
G1 X-14.637 Y-2.131 E2.23254
G1 X-13.965 Y-4.626 E2.36145
G1 X-13.652 Y-5.621 E2.41349
G1 X-13.379 Y-6.069 E2.43966
G1 X-13.33 Y-6.266 E2.44979
G1 X-13.151 Y-6.23 E2.4589
G1 X-11.053 Y-6.993 E2.57028
G1 X-10.677 Y-5.515 E2.64636
G1 X-11.038 Y-5.031 E2.67649
G1 X-11.267 Y-4.666 E2.69798
G1 X-11.252 Y-4.127 E2.72488
G1 X-11.252 Y-3.574 E2.75247
G1 X-10.868 Y-2.767 E2.79706
G1 X-10.651 Y-2.437 E2.81676
G1 X-10.257 Y-2.429 E2.83643
G1 X-8.994 Y-2.488 E2.89951
G1 X-8.612 Y-2.451 E2.91865
G1 X-7.69 Y-2.468 E2.96466
G1 X-6.62 Y-2.388 E3.01819
G1 X-6.11 Y-3.146 E3.06377
G1 X-5.884 Y-3.404 E3.08088
G1 X-5.709 Y-3.868 E3.10562
G1 X-5.565 Y-4.08 E3.11841
G1 X-5.245 Y-4.064 E3.13439
G1 X-4.887 Y-4.558 E3.16483
G1 X-4.9 Y-4.186 E3.17062
G1 X-5.069 Y-3.608 E3.20066
G1 X-6.607 Y-1.562 E3.32836
G1 X-6.886 Y-1.107 E3.35499
G1 X-7.686 Y-.463 E3.40622
G1 X-9.111 Y0.599 E3.49489
G1 X-9.993 Y1.407 E3.55457
G0 F3600 X-9.911 Y1.589
G0 X-10.597 Y1.99
;TYPE:SKIN
G1 F1722 X-11.391 Y1.731 E3.59623
G1 X-11.786 Y1.619 E3.61672
G1 X-12.554 Y1.118 E3.66246
G1 X-12.862 Y0.824 E3.68371
G1 X-12.904 Y-.4 E3.74481
G1 X-13.598 Y-1.599 E3.81392
G1 X-13.809 Y-2.17 E3.8443
G1 X-13.211 Y-4.389 E3.95895
G1 X-12.926 Y-5.293 E4.00624
G1 X-12.787 Y-5.522 E4.0196
G1 X-11.603 Y-5.952 E4.08245
G1 X-11.535 Y-5.684 E4.09624
G1 X-11.69 Y-5.478 E4.10911
G1 X-12.064 Y-4.883 E4.14417
G1 X-12.042 Y-4.127 E4.1819
G1 X-12.042 Y-3.396 E4.21837
G1 X-11.558 Y-2.379 E4.27456
G1 X-11.083 Y-1.655 E4.31776
G1 X-10.246 Y-1.639 E4.35953
G1 X-9.005 Y-1.695 E4.4215
G1 X-8.643 Y-1.661 E4.43964
G1 X-7.703 Y-1.678 E4.48655
G1 X-7.482 Y-1.642 E4.49772
G1 X-8.17 Y-1.088 E4.54179
G1 X-9.615 Y-0.011 E4.6317
G1 X-10.949 Y1.211 E4.72196
G1 X-10.597 Y1.99 E4.76461
G0 F3600 X-12.699 Y0.311
G1 F1722 X-11.496 Y1.513 E4.84945
G0 F3600 X-11.073 Y1.371
G1 F1722 X-12.72 Y-.275 E4.96562
G1 X-12.79 Y-.345
G0 F3600 X-13.267 Y-1.388
G1 F1722 X-10.929 Y0.949 E5.13054
G0 F3600 X-10.634 Y0.678
G1 F1722 X-13.592 Y-2.279 E5.33921
G0 F3600 X-13.472 Y-2.724
G1 F1722 X-10.339 Y0.408 E5.56022
G0 F3600 X-10.043 Y0.138
G1 F1722 X-13.352 Y-3.169 E5.79362
G0 F3600 X-13.232 Y-3.615
G1 F1722 X-11.344 Y-1.728 E5.92679
G0 F3600 X-11.091 Y-1.475
G1 F1722 X-9.748 Y-.132 E6.02155
G0 F3600 X-9.426 Y-.375
G1 F1722 X-10.515 Y-1.464 E6.09838
G0 F3600 X-9.956 Y-1.471
G1 F1722 X-9.101 Y-.616 E6.15871
G0 F3600 X-8.778 Y-.858
G1 F1722 X-9.415 Y-1.495 E6.20365
G0 F3600 X-8.852 Y-1.499
G1 F1722 X-8.454 Y-1.1 E6.23177
G0 F3600 X-8.134 Y-1.346
G1 F1722 X-8.275 Y-1.487 E6.24172
G0 F3600 X-10.78 Y-2.204
G0 X-12.052 Y-3.001
G1 F1722 X-13.112 Y-4.061 E6.31651
G0 F3600 X-12.986 Y-4.5
G1 F1722 X-12.221 Y-3.736 E6.37045
G0 F3600 X-12.226 Y-4.306
G1 F1722 X-12.85 Y-4.931 E6.41451
G0 F3600 X-12.689 Y-5.335
G1 F1722 X-12.243 Y-4.889 E6.44598
G0 F3600 X-12.042 Y-5.254
G1 F1722 X-12.295 Y-5.507 E6.46383
G0 F3600 X-11.881 Y-5.658
G1 F1722 X-11.822 Y-5.6 E6.46795
;MESH:NONMESH
G0 F600 X-11.822 Y-5.6 Z0.6
G0 F3600 X-10.913 Y-5.561
G0 X-9.865 Y-5.827
G0 X-5.647 Y-5.923
G0 X7.086 Y-5.898
;TIME_ELAPSED:6.072900
;LAYER:1
M106 S255
;TYPE:WALL-INNER
;MESH:bunny.stl
G1 F2700 X7.329 Y-5.817 E6.48073
G1 X7.537 Y-4.514 E6.54656
G1 X7.73 Y-4.268 E6.56216
G1 X6.854 Y-3.109 E6.63464
G1 X6.784 Y-2.282 E6.67605
G1 X6.828 Y-1.947 E6.69291
G1 X6.537 Y-2.347 E6.70385
G1 X6.399 Y-2.657 E6.72078
G1 X6.279 Y-3.134 E6.74532
G1 X6.121 Y-3.887 E6.78371
G1 X6.12 Y-3.996 E6.78915
G1 X6.419 Y-4.956 E6.83931
G1 X6.431 Y-5.346 E6.85878
G1 X6.296 Y-5.69 E6.87721
G1 X6.349 Y-5.753 E6.88132
G1 X6.93 Y-6.403 E6.92481
G1 X7.086 Y-5.898 E6.95118
G0 F5400 X6.947 Y-2.286
G0 X7.16 Y-1.32
G0 X10.685 Y-.397
G1 F2700 X10.947 Y-.691 E6.97083
G1 X10.701 Y-.212 E6.97996
G1 X10.388 Y0.483 E7.01799
G1 X10.117 Y1.147 E7.05377
G1 X9.905 Y1.822 E7.08907
G1 X9.477 Y2.882 E7.1461
G1 X9.166 Y3.182 E7.16766
G1 X9.248 Y2.969 E7.16783
G1 X9.191 Y2.619 E7.18152
G1 X8.497 Y1.193 E7.26064
G1 X8.477 Y1.156 E7.26274
G1 X7.564 Y-.901 E7.37502
G1 X7.471 Y-1.036 E7.38319
G1 X8.136 Y-.825 E7.418
G1 X8.815 Y-.703 E7.45242
G1 X9.388 Y-.619 E7.48131
G1 X10.045 Y-.485 E7.51476
G1 X10.685 Y-.397 E7.54699
G0 F5400 X9.079 Y2.978
G0 X7.579 Y4.439
G0 X6.131 Y5.225
G0 X-1.874 Y6.395
G0 X-5.068 Y6.28
G0 X-6.717 Y5.226
G0 X-7.663 Y3.363
G0 X-8.205 Y1.389
G0 X-6.321 Y-1.812
G0 X-4.326 Y-4.595
G0 X-6.425 Y-8.424
G1 F2700 X-7.414 Y-8.199 E7.5976
G1 X-7.783 Y-8.017 E7.61812
G1 X-8.739 Y-6.834 E7.69401
G1 X-8.878 Y-6.512 E7.7115
G1 X-9.131 Y-6.337 E7.72685
G1 X-10.119 Y-5 E7.80979
G1 X-10.233 Y-4.618 E7.82968
G1 X-10.638 Y-3.887 E7.87137
G1 X-10.448 Y-3.223 E7.90583
G1 X-10.106 Y-2.541 E7.94389
G1 X-9.133 Y-2.532 E7.99244
G1 X-8.116 Y-2.56 E8.0432
G1 X-7.906 Y-2.605 E8.05391
G1 X-7.016 Y-2.906 E8.10078
G1 X-6.201 Y-3.31 E8.14617
G1 X-5.584 Y-3.981 E8.19164
G1 X-5.228 Y-4.723 E8.2327
G1 X-5.243 Y-4.951 E8.2441
G1 X-5.314 Y-5.718 E8.28253
G1 X-5.402 Y-6.262 E8.31002
G1 X-5.638 Y-6.977 E8.34759
G1 X-5.896 Y-7.554 E8.37912
G1 X-6.425 Y-8.424 E8.42992
G0 F5400 X-4.8 Y-12.925
G1 F2700 X-2.786 Y-6.068 E8.78647
G1 X-3.045 Y-4.756 E8.85319
G1 X-4.894 Y-3.978 E8.95327
G1 X-6.455 Y-1.901 E9.08289
G1 X-7.057 Y-.807 E9.14519
G1 X-7.929 Y0.878 E9.23985
G1 X-8.409 Y1.355 E9.27361
G1 X-8.16 Y1.86 E9.3017
G1 X-7.909 Y2.869 E9.35357
G1 X-7.818 Y3.413 E9.38109
G1 X-6.991 Y5.066 E9.4733
G1 X-6.838 Y5.341 E9.489
G1 X-6.545 Y5.525 E9.50626
G1 X-5.119 Y6.44 E9.59079
G1 X-2.21 Y6.549 E9.73602
G1 X-1.863 Y6.557 E9.75334
G1 X-1.286 Y6.457 E9.78256
G1 X2.952 Y5.845 E9.99618
G1 X3.367 Y5.789 E10.01708
G1 X4.364 Y5.641 E10.06736
G1 X5.523 Y5.476 E10.12577
G1 X6.18 Y5.381 E10.15889
G1 X6.547 Y5.191 E10.17951
G1 X6.963 Y4.976 E10.20287
G1 X7.451 Y4.734 E10.23004
G1 X7.571 Y4.653 E10.23727
G1 X7.177 Y5.015 E10.25062
G1 X6.897 Y5.396 E10.27066
G1 X6.681 Y5.449 E10.27815
G1 X6.257 Y5.598 E10.29306
G1 X5.575 Y5.838 E10.3203
G1 X3.802 Y6.436 E10.41365
G1 X2.115 Y6.77 E10.49945
G1 X-.123 Y7.275 E10.61391
G1 X-1.84 Y7.707 E10.70224
G1 X-2.487 Y7.847 E10.73527
G1 X-3.157 Y7.972 E10.76927
G1 X-4.668 Y8.205 E10.84554
G1 X-5.337 Y8.165 E10.87898
G1 X-6.026 Y8.145 E10.91337
G1 X-6.128 Y8.134 E10.91849
G1 X-6.267 Y7.804 E10.93635
G1 X-6.613 Y7.406 E10.96266
G1 X-6.997 Y7.168 E10.9852
G1 X-7.734 Y7.125 E11.02203
G1 X-7.874 Y7.012 E11.03101
G1 X-8.128 Y6.599 E11.0552
G1 X-8.384 Y6.031 E11.08628
G1 X-9.271 Y4.557 E11.17211
G1 X-9.551 Y4.043 E11.20131
G1 X-9.842 Y3.496 E11.23222
G1 X-10.412 Y3.322 E11.26195
G1 X-12.723 Y2.117 E11.39198
G1 X-13.958 Y1.288 E11.46619
G1 X-14.797 Y0.788 E11.51492
G1 X-15.189 Y0.715 E11.53481
G1 X-15.621 Y0.752 E11.55644
G1 X-15.809 Y0.528 E11.57103
G1 X-15.895 Y0.123 E11.59169
G1 X-16.151 Y-.682 E11.63383
G1 X-16.291 Y-.998 E11.65108
G1 X-16.345 Y-1.853 E11.69382
G1 X-16.256 Y-2.42 E11.72245
G1 X-15.896 Y-3.097 E11.76071
G1 X-15.524 Y-3.815 E11.80105
G1 X-14.537 Y-5.398 E11.89412
G1 X-14.116 Y-5.979 E11.92991
G1 X-13.72 Y-6.594 E11.96641
G1 X-13.537 Y-7.679 E12.0213
G1 X-13.495 Y-8.83 E12.07876
G1 X-13.667 Y-10.996 E12.18717
G1 X-13.721 Y-11.013 E12.18999
G1 X-13.688 Y-11.116 E12.1928
G1 X-13.381 Y-11.354 E12.21218
G1 X-12.713 Y-11.744 E12.25077
G1 X-12.327 Y-12.105 E12.27714
G1 X-12.134 Y-12.211 E12.28812
G1 X-11.358 Y-12.334 E12.32732
G1 X-10.496 Y-12.768 E12.37547
G1 X-8.733 Y-12.977 E12.46404
G1 X-8.346 Y-13.022 E12.48348
G1 X-5.851 Y-12.82 E12.60836
G1 X-4.824 Y-13.037 E12.66073
G1 X-4.398 Y-13.127 E12.68245
G1 X-4.8 Y-12.925 E12.6861
G0 F5400 X-4.322 Y-12.718
;TYPE:WALL-OUTER
G1 F1800 X-2.375 Y-6.088 E13.03084
G1 X-2.694 Y-4.469 E13.11317
G1 X-4.639 Y-3.651 E13.21844
G1 X-6.118 Y-1.683 E13.34126
G1 X-6.693 Y-.636 E13.40085
G1 X-6.709 Y-.61 E13.40237
G1 X-7.602 Y1.116 E13.49933
G1 X-7.923 Y1.436 E13.52194
G1 X-7.783 Y1.72 E13.53774
G1 X-7.515 Y2.794 E13.59296
G1 X-7.433 Y3.288 E13.61795
G1 X-6.637 Y4.879 E13.7067
G1 X-6.538 Y5.057 E13.71686
G1 X-6.329 Y5.188 E13.72917
G1 X-4.995 Y6.044 E13.80825
G1 X-2.198 Y6.149 E13.94789
G1 X-1.893 Y6.156 E13.96311
G1 X-1.343 Y6.061 E13.99095
G1 X2.895 Y5.449 E14.20458
G1 X3.311 Y5.393 E14.22552
G1 X4.305 Y5.245 E14.27566
G1 X6.056 Y4.995 E14.3639
G1 X6.785 Y4.618 E14.40485
G1 X7.249 Y4.388 E14.43069
G1 X7.393 Y4.29 E14.43938
G1 X8.453 Y3.355 E14.50989
G1 X8.783 Y3.064 E14.53184
G1 X8.836 Y2.926 E14.53922
G1 X8.806 Y2.741 E14.54857
G1 X8.141 Y1.376 E14.62432
G1 X8.117 Y1.332 E14.62682
G1 X7.213 Y-.705 E14.73801
G1 X6.811 Y-1.289 E14.77338
G1 X6.19 Y-2.144 E14.8261
G1 X6.019 Y-2.528 E14.84707
G1 X5.891 Y-3.036 E14.87321
G1 X5.721 Y-3.846 E14.9145
G1 X5.72 Y-4.056 E14.92497
G1 X6.021 Y-5.023 E14.9755
G1 X6.029 Y-5.276 E14.98813
G1 X5.834 Y-5.771 E15.01467
G1 X6.049 Y-6.016 E15.03093
G1 X7.104 Y-7.197 E15.10994
G1 X7.408 Y-6.212 E15.16137
G1 X7.686 Y-6.119 E15.17599
G1 X7.916 Y-4.679 E15.24875
G1 X8.234 Y-4.272 E15.27452
G1 X7.243 Y-2.96 E15.35655
G1 X7.186 Y-2.291 E15.39004
G1 X7.288 Y-1.514 E15.42914
G1 X8.232 Y-1.214 E15.47856
G1 X8.879 Y-1.098 E15.51135
G1 X9.454 Y-1.014 E15.54034
G1 X10.112 Y-.879 E15.57385
G1 X10.528 Y-.822 E15.5948
G1 X11.005 Y-1.358 E15.6306
G1 X11.523 Y-2.045 E15.67352
G1 X12.173 Y-2.73 E15.72064
G1 X12.638 Y-3.38 E15.76051
G1 X12.62 Y-3.333 E15.76302
G1 X12.396 Y-2.657 E15.77451
G1 X12.244 Y-2.198 E15.79863
G1 X11.559 Y-1.007 E15.86717
G1 X11.062 Y-0.038 E15.92151
G1 X10.756 Y0.641 E15.95866
G1 X10.494 Y1.283 E15.99326
G1 X10.283 Y1.954 E16.02835
G1 X9.816 Y3.111 E16.0906
G1 X9.325 Y3.585 E16.12465
G1 X7.481 Y5.279 E16.24957
G1 X7.261 Y5.599 E16.26894
G1 X7.1 Y5.759 E16.28027
G1 X6.795 Y5.833 E16.29593
G1 X5.703 Y6.217 E16.35368
G1 X3.908 Y6.823 E16.4482
G1 X2.198 Y7.161 E16.53516
G1 X-0.03 Y7.664 E16.64911
G1 X-1.747 Y8.096 E16.73744
G1 X-2.402 Y8.238 E16.77088
G1 X-3.089 Y8.366 E16.80574
G1 X-4.649 Y8.606 E16.88449
G1 X-5.354 Y8.565 E16.91972
G1 X-6.049 Y8.545 E16.95441
G1 X-6.405 Y8.504 E16.97229
G1 X-6.611 Y8.018 E16.99862
G1 X-6.875 Y7.714 E17.01871
G1 X-7.122 Y7.561 E17.0332
G1 X-7.886 Y7.516 E17.07139
G1 X-8.179 Y7.28 E17.09016
G1 X-8.481 Y6.789 E17.11892
G1 X-8.739 Y6.217 E17.15022
G1 X-9.614 Y4.763 E17.23488
G1 X-9.902 Y4.235 E17.26489
G1 X-10.117 Y3.83 E17.28777
G1 X-10.565 Y3.694 E17.31112
G1 X-12.925 Y2.463 E17.44392
G1 X-14.172 Y1.626 E17.51885
G1 X-14.94 Y1.168 E17.56346
G1 X-15.209 Y1.118 E17.57711
G1 X-15.793 Y1.168 E17.60635
G1 X-16.179 Y0.709 E17.63627
G1 X-16.282 Y0.226 E17.66091
G1 X-16.526 Y-.54 E17.70102
G1 X-16.685 Y-.9 E17.72065
G1 X-16.747 Y-1.872 E17.76925
G1 X-16.64 Y-2.549 E17.80344
G1 X-16.25 Y-3.283 E17.84491
G1 X-15.872 Y-4.013 E17.88592
G1 X-14.866 Y-5.626 E17.98076
G1 X-14.446 Y-6.205 E18.01645
G1 X-14.101 Y-6.741 E18.04825
G1 X-13.936 Y-7.72 E18.09778
G1 X-13.896 Y-8.821 E18.15275
G1 X-14.045 Y-10.697 E18.24663
G1 X-14.223 Y-10.754 E18.25596
G1 X-14.069 Y-11.239 E18.28135
G1 X-14.027 Y-11.359 E18.28769
G1 X-13.6 Y-11.69 E18.31464
G1 X-12.945 Y-12.072 E18.35247
G1 X-12.687 Y-12.291 E18.36936
G1 X-12.639 Y-12.439 E18.37712
G1 X-12.558 Y-12.435 E18.38117
G1 X-12.264 Y-12.595 E18.39786
G1 X-11.482 Y-12.719 E18.43737
G1 X-10.613 Y-13.157 E18.48592
G1 X-8.792 Y-13.373 E18.5774
G1 X-8.426 Y-13.438 E18.59595
G1 X-8.301 Y-13.42 E18.60225
G1 X-5.877 Y-13.223 E18.72358
G1 X-3.738 Y-13.676 E18.83266
G1 X-3.502 Y-13.84 E18.847
G1 X-2.37 Y-14.145 E18.90549
G1 X-.757 Y-14.58 E18.98884
G1 X-.39 Y-14.696 E19.00804
G1 X-1.882 Y-13.945 E19.06442
G1 X-4.322 Y-12.718 E19.20068
G0 F5400 X-4.266 Y-12.527
G0 X-4.554 Y-12.443
G0 X-6.361 Y-8.124
G0 X-6.617 Y-7.97
G1 F1800 X-7.279 Y-7.819 E19.23455
G1 X-7.527 Y-7.697 E19.24834
G1 X-8.394 Y-6.625 E19.31713
G1 X-8.557 Y-6.248 E19.33762
G1 X-8.849 Y-6.046 E19.35533
G1 X-9.756 Y-4.819 E19.43146
G1 X-9.863 Y-4.46 E19.45015
G1 X-10.208 Y-3.838 E19.48563
G1 X-10.074 Y-3.369 E19.50997
G1 X-9.858 Y-2.939 E19.53397
G1 X-9.137 Y-2.932 E19.56995
G1 X-8.163 Y-2.959 E19.61856
G1 X-8.012 Y-2.991 E19.62626
G1 X-7.17 Y-3.276 E19.67061
G1 X-6.445 Y-3.635 E19.71097
G1 X-5.919 Y-4.208 E19.74978
G1 X-5.634 Y-4.801 E19.7826
G1 X-5.642 Y-4.919 E19.7885
G1 X-5.711 Y-5.668 E19.82603
G1 X-5.792 Y-6.167 E19.85125
G1 X-6.011 Y-6.832 E19.88618
G1 X-6.251 Y-7.368 E19.91548
G1 X-6.617 Y-7.97 E19.95063
G0 F5400 X-6.811 Y-7.926
G0 X-6.877 Y-8.219
G0 X-3.385 Y-8.743
G0 X-2.343 Y-9.049
G0 X8.131 Y-11.683
G0 X8.561 Y-12.432
G0 X8.843 Y-12.33
G1 F1800 X8.878 Y-12.247 E19.95512
G1 X8.549 Y-12.44 E19.96722
G1 X8.843 Y-12.33
G0 F5400 X8.878 Y-12.247
G0 X8.784 Y-12.302
G0 X8.815 Y-12.289
G0 X8.39 Y-11.532
G0 X7.935 Y-7.435
G0 X7.101 Y-7.178
G0 X6.772 Y-5.592
;TYPE:SKIN
G1 F1800 X6.981 Y-5.522 E19.97821
G1 X7.168 Y-4.353 E20.03728
G1 X7.237 Y-4.264 E20.04289
G1 X6.614 Y-3.438 E20.09451
G1 X6.511 Y-3.931 E20.11964
G1 X6.511 Y-3.941 E20.12014
G1 X6.807 Y-4.891 E20.16978
G1 X6.823 Y-5.414 E20.19588
G1 X6.772 Y-5.592 E20.20512
G0 F5400 X6.947 Y-2.286
G0 X7.139 Y-1.373
G0 X8.206 Y-.416
G1 F1800 X8.753 Y-.318 E20.23285
G1 X9.327 Y-.234 E20.26179
G1 X9.979 Y-.101 E20.29499
G1 X10.209 Y-0.069 E20.30657
G1 X10.029 Y0.329 E20.32837
G1 X9.75 Y1.014 E20.36527
G1 X9.535 Y1.697 E20.40099
G1 X9.372 Y2.1 E20.42268
G1 X8.831 Y0.99 E20.48428
G1 X8.206 Y-.416 E20.56105
G0 F5400 X8.555 Y-0.07
G1 F1800 X8.641 Y-.156 E20.56711
G0 F5400 X8.73 Y0.32
G1 F1800 X9.132 Y-0.081 E20.59544
G0 F5400 X9.61 Y0.006
G1 F1800 X8.904 Y0.712 E20.64525
G0 F5400 X9.084 Y1.098
G1 F1800 X9.818 Y0.363 E20.69708
G1 X9.888 Y0.293
G0 F5400 X9.48 Y1.267
G1 F1800 X9.269 Y1.478 E20.71196
G0 F5400 X9.079 Y2.978
G0 X7.579 Y4.439
G0 X6.276 Y5.146
G0 X2.344 Y6.327
G1 F1800 X2.035 Y6.388 E20.72768
G1 X-.213 Y6.895 E20.84265
G1 X-1.929 Y7.327 E20.93093
G1 X-2.529 Y7.457 E20.96156
G1 X-3.227 Y7.588 E20.99699
G1 X-4.686 Y7.813 E21.07064
G1 X-5.32 Y7.775 E21.10233
G1 X-5.863 Y7.759 E21.12943
G1 X-5.932 Y7.595 E21.13831
G1 X-6.357 Y7.106 E21.17063
G1 X-6.876 Y6.784 E21.2011
G1 X-7.581 Y6.743 E21.23633
G1 X-7.786 Y6.411 E21.2558
G1 X-8.038 Y5.85 E21.28648
G1 X-8.921 Y4.383 E21.37191
G1 X-9.208 Y3.856 E21.40185
G1 X-9.573 Y3.17 E21.44061
G1 X-10.267 Y2.959 E21.4768
G1 X-12.517 Y1.785 E21.60342
G1 X-13.749 Y0.958 E21.67745
G1 X-14.657 Y0.417 E21.73018
G1 X-15.17 Y0.321 E21.75621
G1 X-15.448 Y0.346 E21.77014
G1 X-15.517 Y0.023 E21.78662
G1 X-15.786 Y-.82 E21.83076
G1 X-15.905 Y-1.091 E21.84553
G1 X-15.953 Y-1.835 E21.88273
G1 X-15.88 Y-2.296 E21.90601
G1 X-15.551 Y-2.916 E21.94103
G1 X-15.185 Y-3.622 E21.9807
G1 X-14.206 Y-5.191 E22.07297
G1 X-13.794 Y-5.759 E22.10798
G1 X-13.349 Y-6.45 E22.14898
G1 X-13.149 Y-7.64 E22.20918
G1 X-13.105 Y-8.838 E22.26899
G1 X-13.272 Y-10.945 E22.37444
G1 X-13.165 Y-11.028 E22.3812
G1 X-12.479 Y-11.43 E22.42086
G1 X-12.094 Y-11.788 E22.44709
G1 X-12.008 Y-11.835 E22.45198
G1 X-11.237 Y-11.958 E22.49093
G1 X-10.383 Y-12.388 E22.53864
G1 X-8.331 Y-12.63 E22.64172
G1 X-5.826 Y-12.426 E22.76711
G1 X-5.105 Y-12.579 E22.80388
G1 X-3.187 Y-6.049 E23.14343
G1 X-3.387 Y-5.035 E23.19499
G1 X-4.965 Y-4.371 E23.2804
G1 X-4.832 Y-4.647 E23.29569
G1 X-4.855 Y-4.982 E23.31244
G1 X-4.926 Y-5.767 E23.35176
G1 X-5.022 Y-6.355 E23.38149
G1 X-5.274 Y-7.118 E23.42158
G1 X-5.55 Y-7.736 E23.45534
G1 X-6.238 Y-8.867 E23.52139
G1 X-7.545 Y-8.569 E23.58827
G1 X-8.033 Y-8.329 E23.6154
G1 X-9.076 Y-7.037 E23.69824
G1 X-9.192 Y-6.769 E23.71281
G1 X-9.406 Y-6.622 E23.72576
G1 X-10.474 Y-5.177 E23.81541
G1 X-10.595 Y-4.769 E23.83664
G1 X-11.057 Y-3.935 E23.88421
G1 X-10.813 Y-3.081 E23.92852
G1 X-10.348 Y-2.153 E23.9803
G1 X-9.129 Y-2.142 E24.04112
G1 X-8.069 Y-2.172 E24.09403
G1 X-7.803 Y-2.228 E24.10759
G1 X-6.866 Y-2.545 E24.15694
G1 X-6.217 Y-2.866 E24.19306
G1 X-6.783 Y-2.113 E24.24006
G1 X-7.401 Y-.99 E24.30401
G1 X-8.248 Y0.645 E24.39587
G1 X-8.883 Y1.276 E24.44054
G1 X-8.528 Y1.993 E24.48045
G1 X-8.289 Y2.954 E24.52986
G1 X-8.193 Y3.535 E24.55923
G1 X-7.336 Y5.248 E24.6548
G1 X-7.13 Y5.618 E24.67592
G1 X-6.756 Y5.853 E24.69796
G1 X-5.24 Y6.826 E24.78783
G1 X-2.222 Y6.939 E24.93851
G1 X-1.834 Y6.947 E24.95787
G1 X-1.23 Y6.843 E24.98844
G1 X2.344 Y6.327 E25.1686
G0 F5400 X-2.579 Y7.105
G1 F1800 X-2.798 Y7.324 E25.18405
G0 F5400 X-3.124 Y7.084
G1 F1800 X-3.486 Y7.445 E25.20956
G0 F5400 X-3.669 Y7.063
G1 F1800 X-4.154 Y7.548 E25.24378
G0 F5400 X-4.215 Y7.043
G1 F1800 X-4.797 Y7.625 E25.28484
G0 F5400 X-5.331 Y7.594
G1 F1800 X-4.76 Y7.022 E25.32516
G0 F5400 X-5.301 Y6.998
G1 F1800 X-5.787 Y7.484 E25.35945
G0 F5400 X-6.05 Y7.182
G1 F1800 X-5.646 Y6.777 E25.38799
G0 F5400 X-5.99 Y6.556
G1 F1800 X-6.339 Y6.905 E25.41262
G0 F5400 X-6.689 Y6.689
G1 F1800 X-6.334 Y6.334 E25.43766
G0 F5400 X-6.68 Y6.114
G1 F1800 X-7.153 Y6.588 E25.47107
G0 F5400 X-7.561 Y6.43
G1 F1800 X-7.025 Y5.894 E25.50889
G0 F5400 X-7.328 Y5.631
G1 F1800 X-7.749 Y6.052 E25.53859
G0 F5400 X-7.933 Y5.67
G1 F1800 X-7.528 Y5.265 E25.56717
G0 F5400 X-7.716 Y4.888
G1 F1800 X-8.146 Y5.318 E25.59751
G0 F5400 X-8.358 Y4.964
G1 F1800 X-7.905 Y4.511 E25.62947
G0 F5400 X-8.093 Y4.133
G1 F1800 X-8.571 Y4.611 E25.66319
G0 F5400 X-8.782 Y4.257
G1 F1800 X-8.282 Y3.756 E25.69851
G0 F5400 X-8.41 Y3.319
G1 F1800 X-8.983 Y3.891 E25.7389
G0 F5400 X-9.18 Y3.523
G1 F1800 X-8.501 Y2.844 E25.78681
G0 F5400 X-8.613 Y2.391
G1 F1800 X-9.376 Y3.153 E25.84061
G0 F5400 X-9.724 Y2.935
G1 F1800 X-8.746 Y1.957 E25.90961
G0 F5400 X-8.933 Y1.579
G1 F1800 X-10.159 Y2.805 E25.99611
G0 F5400 X-10.535 Y2.616
G1 F1800 X-8.328 Y0.408 E26.15186
G1 X-8.258 Y0.338
G0 F5400 X-7.717 Y-.767
G1 F1800 X-10.907 Y2.422 E26.3769
G0 F5400 X-11.279 Y2.228
G1 F1800 X-7.047 Y-2.003 E26.67545
G0 F5400 X-7.462 Y-2.153
G1 F1800 X-11.65 Y2.034 E26.9709
G0 F5400 X-12.022 Y1.84
G1 F1800 X-8.193 Y-1.989 E27.24106
G0 F5400 X-8.775 Y-1.972
G1 F1800 X-12.394 Y1.646 E27.49636
G0 F5400 X-12.735 Y1.421
G1 F1800 X-9.349 Y-1.964 E27.73523
G0 F5400 X-9.909 Y-1.969
G1 F1800 X-13.074 Y1.195 E27.9585
G0 F5400 X-13.413 Y0.968
G1 F1800 X-10.463 Y-1.982 E28.16664
G0 F5400 X-10.651 Y-2.358
G1 F1800 X-13.756 Y0.745 E28.38564
G0 F5400 X-14.11 Y0.533
G1 F1800 X-10.84 Y-2.735 E28.61629
G0 F5400 X-11.013 Y-3.128
G1 F1800 X-14.464 Y0.322 E28.85974
G0 F5400 X-14.897 Y0.189
G1 F1800 X-11.139 Y-3.568 E29.12485
G0 F5400 X-11.167 Y-4.106
G1 F1800 X-15.325 Y0.052 E29.41822
G0 F5400 X-15.456 Y-.382
G1 F1800 X-10.661 Y-5.178 E29.75657
G1 X-10.591 Y-5.248
G0 F5400 X-9.043 Y-7.36
G1 F1800 X-15.593 Y-.811 E30.21867
G0 F5400 X-15.733 Y-1.237
G1 F1800 X-5.089 Y-11.881 E30.96967
G0 F5400 X-5.217 Y-12.318
G1 F1800 X-15.767 Y-1.769 E31.71399
G1 X-15.837 Y-1.699
G0 F5400 X-15.527 Y-2.574
G1 F1800 X-5.855 Y-12.246 E32.3964
G0 F5400 X-6.378 Y-12.289
G1 F1800 X-14.849 Y-3.818 E32.99408
G1 X-14.919 Y-3.748
G0 F5400 X-13.827 Y-5.405
G1 F1800 X-6.901 Y-12.331 E33.48274
G0 F5400 X-7.423 Y-12.375
G1 F1800 X-13.129 Y-6.669 E33.88533
G0 F5400 X-13.015 Y-7.349
G1 F1800 X-7.947 Y-12.417 E34.24291
G0 F5400 X-8.502 Y-12.427
G1 F1800 X-12.955 Y-7.974 E34.55709
G0 F5400 X-12.934 Y-8.561
G1 F1800 X-9.145 Y-12.351 E34.82446
G0 F5400 X-9.786 Y-12.275
G1 F1800 X-12.945 Y-9.116 E35.04734
G0 F5400 X-12.987 Y-9.639
G1 F1800 X-10.502 Y-12.124 E35.22267
G1 X-10.432 Y-12.194
G0 F5400 X-11.451 Y-11.741
G1 F1800 X-13.028 Y-10.164 E35.33394
G0 F5400 X-13.07 Y-10.688
G1 F1800 X-12.619 Y-11.139 E35.36576
G0 F5400 X-7.725 Y-8.679
G1 F1800 X-4.96 Y-11.444 E35.56085
G0 F5400 X-4.832 Y-11.006
G1 F1800 X-6.952 Y-8.886 E35.71042
G0 F5400 X-6.219 Y-9.054
G1 F1800 X-4.703 Y-10.569 E35.81735
G0 F5400 X-4.574 Y-10.132
G1 F1800 X-5.956 Y-8.751 E35.91482
G0 F5400 X-5.742 Y-8.399
G1 F1800 X-4.446 Y-9.695 E36.00626
G0 F5400 X-4.318 Y-9.258
G1 F1800 X-5.528 Y-8.047 E36.09167
G0 F5400 X-5.328 Y-7.682
G1 F1800 X-4.189 Y-8.821 E36.17203
G0 F5400 X-4.061 Y-8.383
G1 F1800 X-5.153 Y-7.291 E36.24908
G0 F5400 X-5.003 Y-6.875
G1 F1800 X-3.932 Y-7.946 E36.32464
G0 F5400 X-3.804 Y-7.509
G1 F1800 X-4.862 Y-6.45 E36.39933
G0 F5400 X-4.775 Y-5.972
G1 F1800 X-3.676 Y-7.071 E36.47687
G0 F5400 X-3.547 Y-6.634
G1 F1800 X-4.717 Y-5.465 E36.55938
G0 F5400 X-4.671 Y-4.944
G1 F1800 X-3.418 Y-6.197 E36.64779
G0 F5400 X-3.46 Y-5.59
G1 F1800 X-4.137 Y-4.912 E36.69559
G1 X-4.207 Y-4.842
G0 F5400 X-6.321 Y-1.812
G0 X-8.205 Y1.389
G0 X-7.663 Y3.363
G0 X-6.717 Y5.226
G0 X-5.068 Y6.28
G0 X-2.194 Y6.383
G0 X2.706 Y6.061
;TYPE:SKIN
G1 F1800 X2.527 Y6.24 E36.7019
G0 F5400 X2.568 Y6.482
G1 F1800 X3.037 Y6.013 E36.71845
G0 F5400 X3.364 Y5.969
G1 F1800 X2.904 Y6.429 E36.73468
G0 F5400 X3.256 Y6.359
G1 F1800 X3.696 Y5.92 E36.75018
G0 F5400 X4.028 Y5.871
G1 F1800 X3.609 Y6.289 E36.76494
G0 F5400 X4.007 Y6.175
G1 F1800 X4.36 Y5.822 E36.7774
G0 F5400 X4.433 Y6.031
G1 F1800 X4.69 Y5.774 E36.78646
G0 F5400 X4.859 Y5.888
G1 F1800 X5.02 Y5.727 E36.79214
G0 F5400 X5.287 Y5.743
G1 F1800 X5.35 Y5.68 E36.79437
G0 F5400 X7.672 Y4.49
G1 F1800 X8.96 Y3.201 E36.83982
G0 F5400 X9.094 Y3.35
G1 F1800 X7.796 Y4.648 E36.88561
G0 F5400 X7.845 Y4.172
;MESH:NONMESH
G0 F600 X7.845 Y4.172 Z0.9
G0 F5400 X9.079 Y2.978
G0 X8.484 Y-.865
G0 X8.579 Y-1.393
;TIME_ELAPSED:29.014791
;LAYER:2
;TYPE:WALL-INNER
;MESH:bunny.stl
G1 F3600 X9.978 Y-1.002 E36.95808
G1 X10.625 Y-.907 E36.99071
G1 X11.204 Y-1.527 E37.03303
G1 X11.667 Y-2.232 E37.07511
G1 X12.281 Y-3.534 E37.14693
G1 X12.491 Y-3.929 E37.16925
G1 X12.177 Y-4.902 E37.22026
G1 X11.718 Y-4.994 E37.24361
G1 X11.357 Y-4.608 E37.26998
G1 X10.193 Y-4.073 E37.33389
G1 X9.988 Y-3.753 E37.35285
G1 X9.514 Y-2.931 E37.40019
G1 X8.441 Y-2.126 E37.46711
G1 X8.579 Y-1.393 E37.50432
G0 F7200 X8.695 Y2.944
G0 X8.344 Y5.621
G1 F3600 X8.381 Y5.806 E37.51374
G1 X7.256 Y6.066 E37.57134
G1 X5.973 Y6.305 E37.63645
G1 X3.938 Y6.634 E37.7393
G1 X2.7 Y6.855 E37.80204
G1 X2.098 Y6.973 E37.83264
G1 X1.321 Y7.157 E37.87248
G1 X-.975 Y7.655 E37.98969
G1 X-1.902 Y7.849 E38.03694
G1 X-4.82 Y8.393 E38.18503
G1 X-5.037 Y8.427 E38.19599
G1 X-6.186 Y8.321 E38.25356
G1 X-6.639 Y8.02 E38.28069
G1 X-7.261 Y7.635 E38.31718
G1 X-7.403 Y7.627 E38.32428
G1 X-7.906 Y7.371 E38.35244
G1 X-7.949 Y7.285 E38.35724
G1 X-8.51 Y5.756 E38.43849
G1 X-9.156 Y4.679 E38.50115
G1 X-9.36 Y4.219 E38.52625
G1 X-9.619 Y3.596 E38.55991
G1 X-10.258 Y3.317 E38.5947
G1 X-10.575 Y3.225 E38.61117
G1 X-11.214 Y2.951 E38.64585
G1 X-13.119 Y2.05 E38.75099
G1 X-13.644 Y1.825 E38.77948
G1 X-14.883 Y1.09 E38.85136
G1 X-15.521 Y0.971 E38.88374
G1 X-15.843 Y0.72 E38.9041
G1 X-16.197 Y0.13 E38.93843
G1 X-16.22 Y0.071 E38.94159
G1 X-16.361 Y-.472 E38.96958
G1 X-16.476 Y-.883 E38.99087
G1 X-16.597 Y-1.156 E39.00577
G1 X-16.741 Y-1.919 E39.04451
G1 X-16.467 Y-2.661 E39.08397
G1 X-16.062 Y-3.256 E39.11988
G1 X-15.634 Y-3.874 E39.15738
G1 X-14.865 Y-4.85 E39.21937
G1 X-14.676 Y-5.158 E39.2374
G1 X-13.847 Y-6.275 E39.3068
G1 X-13.64 Y-6.867 E39.33809
G1 X-13.725 Y-7.245 E39.35742
G1 X-13.988 Y-7.538 E39.37706
G1 X-14.164 Y-7.93 E39.3985
G1 X-14.441 Y-8.87 E39.44739
G1 X-14.6 Y-9.486 E39.47913
G1 X-14.684 Y-10.217 E39.51584
G1 X-14.787 Y-11.028 E39.55662
G1 X-14.774 Y-11.356 E39.573
G1 X-14.573 Y-11.98 E39.60571
G1 X-14.296 Y-12.546 E39.63715
G1 X-13.853 Y-13.194 E39.67631
G1 X-13.22 Y-13.339 E39.70871
G1 X-12.712 Y-13.529 E39.73577
G1 X-12.233 Y-13.947 E39.76748
G1 X-11.279 Y-13.895 E39.81515
G1 X-10.361 Y-13.797 E39.86121
G1 X-6.955 Y-13.525 E40.03168
G1 X-6.713 Y-13.501 E40.04381
G1 X-6.491 Y-13.675 E40.05788
G1 X-4.284 Y-15.254 E40.19327
G1 X-3.893 Y-15.506 E40.21647
G1 X-3.087 Y-15.987 E40.2633
G1 X-2.815 Y-16.041 E40.27714
G1 X-2.225 Y-16.137 E40.30696
G1 X-1.726 Y-16.035 E40.33237
G1 X-.83 Y-15.734 E40.37953
G1 X-.193 Y-15.547 E40.41265
G1 X0.971 Y-15.148 E40.47404
G1 X1.831 Y-14.959 E40.51797
G1 X4.47 Y-14.301 E40.65366
G1 X5.295 Y-14.077 E40.69631
G1 X8.428 Y-13 E40.86159
G1 X9.415 Y-12.694 E40.91314
G1 X9.991 Y-12.153 E40.95257
G1 X10.206 Y-11.708 E40.97722
G1 X10.576 Y-11.158 E41.0103
G1 X10.778 Y-10.62 E41.03897
G1 X11.034 Y-9.582 E41.0923
G1 X11.203 Y-8.729 E41.13569
G1 X11.8 Y-8.284 E41.17284
G1 X14.211 Y-5.733 E41.34795
G1 X15.205 Y-3.587 E41.46594
G1 X15.275 Y-3.408 E41.47553
G1 X15.118 Y-3.266 E41.48609
G1 X12.035 Y-.225 E41.70214
G1 X11.416 Y-0.018 E41.7347
G1 X11.069 Y0.376 E41.7609
G1 X10.799 Y1.621 E41.82445
G1 X9.858 Y3.66 E41.93649
G1 X9.532 Y4.338 E41.97402
G1 X9.093 Y4.977 E42.0127
G1 X8.344 Y5.621 E42.06198
G0 F7200 X8.695 Y2.944
G0 X8.204 Y-10.11
G1 F3600 X5.783 Y-11.531 E42.20204
G1 X1.186 Y-13.042 E42.44345
G1 X-1.943 Y-11.467 E42.61822
G1 X-.806 Y-7.6 E42.81931
G1 X-1.462 Y-4.289 E42.98771
G1 X-5.556 Y-2.567 E43.20929
G1 X-5.968 Y-2.021 E43.24342
G1 X-6.37 Y-1.283 E43.28534
G1 X-7.045 Y-0.026 E43.35653
G1 X-7.471 Y0.833 E43.40436
G1 X-7.73 Y1.75 E43.4519
G1 X-7.4 Y3.322 E43.53204
G1 X-6.856 Y4.512 E43.59732
G1 X-6.498 Y5.021 E43.62836
G1 X-5.95 Y5.533 E43.66578
G1 X-4.824 Y6.032 E43.72722
G1 X-4.572 Y6.103 E43.74029
G1 X-2.97 Y6.297 E43.82079
G1 X-1.784 Y6.241 E43.88003
G1 X-.884 Y6.165 E43.92509
G1 X0.793 Y5.89 E44.00987
G1 X1.912 Y5.694 E44.06655
G1 X5.716 Y5.04 E44.25912
G1 X6.533 Y4.923 E44.30029
G1 X6.897 Y4.715 E44.32121
G1 X7.876 Y4.131 E44.37808
G1 X8.658 Y3.461 E44.42946
G1 X8.86 Y2.966 E44.45613
G1 X8.769 Y2.193 E44.49496
G1 X8.425 Y1.527 E44.53236
G1 X7.442 Y-0.039 E44.6246
G1 X7.434 Y-0.055 E44.6255
G1 X6.815 Y-1.037 E44.68341
G1 X6.415 Y-1.68 E44.72119
G1 X6.029 Y-2.458 E44.76452
G1 X5.865 Y-2.962 E44.79096
G1 X5.763 Y-3.259 E44.80663
G1 X5.738 Y-3.813 E44.8343
G1 X5.694 Y-4.179 E44.85269
G1 X5.711 Y-4.805 E44.88393
G1 X5.306 Y-6.008 E44.94726
G1 X4.79 Y-7.152 E45.00987
G1 X4.652 Y-7.468 E45.02707
G1 X5.232 Y-8.099 E45.06983
G1 X8.204 Y-10.11 E45.24886
G0 F7200 X5.718 Y-11.383
G0 X1.2 Y-12.865
G0 X-1.74 Y-11.379
G0 X-8.198 Y-4.121
G1 F3600 X-7.712 Y-3.278 E45.29741
G1 X-6.31 Y-3.738 E45.37102
G1 X-5.941 Y-3.919 E45.39153
G1 X-5.643 Y-4.37 E45.41849
G1 X-5.671 Y-4.756 E45.4378
G1 X-5.848 Y-5.529 E45.47737
G1 X-6.553 Y-5.712 E45.5137
G1 X-7.03 Y-5.185 E45.54917
G1 X-7.064 Y-5.089 E45.55425
G1 X-7.227 Y-4.996 E45.56361
G1 X-8.198 Y-4.121 E45.62882
G0 F7200 X-7.69 Y-4.04
;TYPE:WALL-OUTER
G1 F1800 X-7.528 Y-3.759 E45.645
G1 X-6.461 Y-4.109 E45.70103
G1 X-6.215 Y-4.23 E45.7147
G1 X-6.052 Y-4.477 E45.72947
G1 X-6.068 Y-4.696 E45.74042
G1 X-6.184 Y-5.203 E45.76637
G1 X-6.419 Y-5.264 E45.77848
G1 X-6.68 Y-4.976 E45.79787
G1 X-6.737 Y-4.815 E45.8064
G1 X-6.991 Y-4.67 E45.82099
G1 X-7.69 Y-4.04 E45.86793
G0 F7200 X-7.59 Y-3.867
G0 X-7.849 Y-3.718
G0 X-6.369 Y-3.887
G0 X-.807 Y-6.735
G0 X-1.74 Y-11.379
G0 X1.2 Y-12.865
G0 X5.718 Y-11.383
G0 X7.607 Y-10.344
G0 X7.455 Y-10.086
G1 F1800 X5.617 Y-11.164 E45.97424
G1 X1.218 Y-12.61 E46.20526
G1 X-1.465 Y-11.26 E46.35511
G1 X-.395 Y-7.62 E46.54439
G1 X-1.111 Y-4.002 E46.72839
G1 X-5.302 Y-2.24 E46.95521
G1 X-5.631 Y-1.804 E46.98246
G1 X-6.018 Y-1.093 E47.02285
G1 X-6.69 Y0.158 E47.09369
G1 X-7.096 Y0.977 E47.1393
G1 X-7.318 Y1.764 E47.18009
G1 X-7.018 Y3.196 E47.25309
G1 X-6.508 Y4.312 E47.3143
G1 X-6.195 Y4.757 E47.34145
G1 X-5.726 Y5.195 E47.37346
G1 X-4.688 Y5.655 E47.43011
G1 X-4.493 Y5.71 E47.44021
G1 X-2.955 Y5.896 E47.5175
G1 X-1.81 Y5.842 E47.57469
G1 X-.933 Y5.768 E47.6186
G1 X0.726 Y5.496 E47.70247
G1 X1.843 Y5.3 E47.75905
G1 X5.659 Y4.644 E47.95223
G1 X6.401 Y4.538 E47.98962
G1 X6.695 Y4.37 E48.00651
G1 X7.642 Y3.805 E48.06153
G1 X8.324 Y3.22 E48.10636
G1 X8.451 Y2.91 E48.12307
G1 X8.38 Y2.312 E48.15312
G1 X8.077 Y1.725 E48.18607
G1 X7.093 Y0.158 E48.27839
G1 X7.085 Y0.142 E48.27928
G1 X6.475 Y-.826 E48.33636
G1 X6.075 Y-1.469 E48.37414
G1 X5.868 Y-1.832 E48.39499
G1 X5.654 Y-2.316 E48.42139
G1 X5.486 Y-2.835 E48.44861
G1 X5.366 Y-3.184 E48.46702
G1 X5.339 Y-3.78 E48.49678
G1 X5.293 Y-4.162 E48.51598
G1 X5.309 Y-4.745 E48.54508
G1 X4.933 Y-5.862 E48.60388
G1 X4.425 Y-6.988 E48.66551
G1 X4.181 Y-7.547 E48.69593
G1 X4.966 Y-8.402 E48.75384
G1 X7.455 Y-10.086 E48.90377
G0 F7200 X7.283 Y-10.187
G0 X7.435 Y-10.445
G0 X11.927 Y-4.85
G0 X11.868 Y-4.556
G1 F1800 X11.615 Y-4.262 E48.92312
G1 X11.492 Y-4.23 E48.92946
G1 X10.467 Y-3.759 E48.98574
G1 X10.33 Y-3.545 E48.99842
G1 X9.821 Y-2.661 E49.04931
G1 X8.88 Y-1.955 E49.108
G1 X8.926 Y-1.711 E49.12039
G1 X10.061 Y-1.394 E49.17918
G1 X10.476 Y-1.333 E49.20011
G1 X10.888 Y-1.775 E49.23025
G1 X11.317 Y-2.428 E49.26923
G1 X11.919 Y-3.705 E49.33967
G1 X12.058 Y-3.967 E49.35446
G1 X11.868 Y-4.556 E49.38534
G0 F7200 X11.738 Y-4.405
G0 X11.507 Y-4.622
G0 X12.313 Y-3.945
G0 X8.587 Y5.545
G0 X8.782 Y5.772
G1 F1800 X8.826 Y5.992 E49.39653
G1 X8.651 Y6.155 E49.40846
G1 X7.346 Y6.456 E49.47528
G1 X6.037 Y6.7 E49.54171
G1 X4.005 Y7.028 E49.6444
G1 X2.774 Y7.248 E49.70679
G1 X2.183 Y7.364 E49.73684
G1 X1.406 Y7.548 E49.77667
G1 X-.89 Y8.045 E49.89387
G1 X-1.829 Y8.242 E49.94174
G1 X-4.758 Y8.788 E50.09039
G1 X-5.024 Y8.83 E50.10382
G1 X-6.313 Y8.711 E50.1684
G1 X-6.839 Y8.397 E50.19897
G1 X-6.899 Y8.33 E50.20345
G1 X-7.385 Y8.029 E50.23197
G1 X-7.509 Y8.022 E50.23817
G1 X-8.205 Y7.667 E50.27715
G1 X-8.314 Y7.449 E50.28931
G1 X-8.872 Y5.929 E50.37009
G1 X-9.512 Y4.863 E50.43212
G1 X-9.726 Y4.381 E50.45843
G1 X-9.927 Y3.898 E50.48453
G1 X-10.394 Y3.694 E50.50996
G1 X-10.714 Y3.601 E50.52658
G1 X-11.372 Y3.319 E50.5623
G1 X-13.283 Y2.415 E50.66777
G1 X-13.825 Y2.183 E50.69718
G1 X-15.026 Y1.47 E50.76686
G1 X-15.589 Y1.365 E50.79544
G1 X-15.657 Y1.372 E50.79885
G1 X-16.144 Y0.993 E50.82963
G1 X-16.283 Y0.77 E50.84274
G1 X-16.558 Y0.306 E50.86965
G1 X-16.601 Y0.195 E50.87559
G1 X-16.747 Y-.368 E50.90461
G1 X-16.853 Y-.747 E50.92424
G1 X-16.981 Y-1.036 E50.94001
G1 X-17.155 Y-1.953 E50.98658
G1 X-16.825 Y-2.847 E51.03412
G1 X-16.391 Y-3.484 E51.07258
G1 X-15.958 Y-4.11 E51.11055
G1 X-15.194 Y-5.079 E51.17211
G1 X-15.01 Y-5.379 E51.18967
G1 X-14.204 Y-6.465 E51.25714
G1 X-14.055 Y-6.891 E51.27966
G1 X-14.092 Y-7.055 E51.28805
G1 X-14.327 Y-7.317 E51.30561
G1 X-14.541 Y-7.795 E51.33173
G1 X-14.825 Y-8.757 E51.38178
G1 X-14.994 Y-9.413 E51.41557
G1 X-15.081 Y-10.169 E51.45354
G1 X-15.188 Y-11.011 E51.49588
G1 X-15.172 Y-11.425 E51.51655
G1 X-14.946 Y-12.128 E51.55339
G1 X-14.642 Y-12.749 E51.58789
G1 X-14.141 Y-13.481 E51.63214
G1 X-14.056 Y-13.558 E51.63787
G1 X-13.335 Y-13.723 E51.67477
G1 X-12.92 Y-13.878 E51.69687
G1 X-12.382 Y-14.348 E51.73251
G1 X-12.352 Y-14.354 E51.73404
G1 X-11.236 Y-14.293 E51.7898
G1 X-10.324 Y-14.195 E51.83556
G1 X-6.923 Y-13.924 E52.00577
G1 X-6.833 Y-13.915 E52.01028
G1 X-6.724 Y-14 E52.01718
G1 X-4.507 Y-15.586 E52.15318
G1 X-4.11 Y-15.842 E52.17674
G1 X-3.232 Y-16.366 E52.22775
G1 X-2.879 Y-16.436 E52.24571
G1 X-2.217 Y-16.544 E52.27917
G1 X-1.625 Y-16.423 E52.30932
G1 X-.71 Y-16.116 E52.35747
G1 X-0.08 Y-15.931 E52.39023
G1 X1.079 Y-15.534 E52.45135
G1 X1.917 Y-15.35 E52.49415
G1 X4.575 Y-14.687 E52.63082
G1 X5.418 Y-14.458 E52.6744
G1 X5.768 Y-14.336 E52.6929
G1 X8.552 Y-13.38 E52.83975
G1 X9.509 Y-13.083 E52.88974
G1 X9.611 Y-13.059 E52.89497
G1 X10.319 Y-12.393 E52.94346
G1 X10.554 Y-11.908 E52.97035
G1 X10.935 Y-11.341 E53.00443
G1 X11.159 Y-10.743 E53.03629
G1 X11.426 Y-9.66 E53.09194
G1 X11.565 Y-8.958 E53.12764
G1 X12.068 Y-8.584 E53.15892
G1 X14.546 Y-5.961 E53.33894
G1 X15.568 Y-3.755 E53.46023
G1 X15.703 Y-3.41 E53.47872
G1 X15.684 Y-3.238 E53.48735
G1 X15.393 Y-2.975 E53.50692
G1 X12.251 Y0.124 E53.72709
G1 X11.645 Y0.327 E53.75898
G1 X11.438 Y0.562 E53.7746
G1 X11.181 Y1.748 E53.83514
G1 X10.219 Y3.833 E53.9497
G1 X9.879 Y4.541 E53.98889
G1 X9.395 Y5.245 E54.03151
G1 X8.782 Y5.772 E54.07184
G0 F7200 X8.821 Y5.968
G0 X8.531 Y5.903
G0 X7.924 Y5.511
;TYPE:SKIN
G1 F1800 X7.184 Y5.682 E54.10973
G1 X5.873 Y5.926 E54.17626
G1 X3.872 Y6.25 E54.27739
G1 X2.628 Y6.471 E54.34043
G1 X2.016 Y6.591 E54.37154
G1 X1.205 Y6.783 E54.41312
G1 X-.942 Y7.249 E54.52273
G1 X-1.974 Y7.465 E54.57533
G1 X-4.888 Y8.009 E54.72322
G1 X-5.054 Y8.035 E54.73161
G1 X-6.051 Y7.942 E54.78156
G1 X-6.428 Y7.692 E54.80413
G1 X-7.14 Y7.251 E54.84591
G1 X-7.302 Y7.241 E54.85401
G1 X-7.607 Y7.087 E54.87106
G1 X-8.157 Y5.587 E54.95077
G1 X-8.81 Y4.497 E55.01416
G1 X-9.004 Y4.061 E55.03797
G1 X-9.319 Y3.301 E55.07901
G1 X-10.125 Y2.95 E55.12287
G1 X-10.434 Y2.86 E55.13893
G1 X-11.053 Y2.595 E55.17252
G1 X-12.959 Y1.695 E55.27768
G1 X-13.473 Y1.473 E55.30561
G1 X-14.743 Y0.719 E55.3793
G1 X-15.357 Y0.604 E55.41046
G1 X-15.547 Y0.456 E55.42248
G1 X-15.847 Y-0.044 E55.45157
G1 X-15.985 Y-.573 E55.47884
G1 X-16.221 Y-1.272 E55.51565
G1 X-16.337 Y-1.886 E55.54683
G1 X-16.117 Y-2.482 E55.57852
G1 X-15.742 Y-3.034 E55.61181
G1 X-15.328 Y-3.632 E55.6481
G1 X-14.545 Y-4.626 E55.71123
G1 X-14.362 Y-4.926 E55.72876
G1 X-13.498 Y-6.09 E55.80108
G1 X-13.235 Y-6.844 E55.84092
G1 X-13.367 Y-7.43 E55.87089
G1 X-13.66 Y-7.756 E55.89276
G1 X-13.794 Y-8.057 E55.9092
G1 X-14.067 Y-8.981 E55.95727
G1 X-14.215 Y-9.557 E55.98694
G1 X-14.296 Y-10.264 E56.02244
G1 X-14.396 Y-11.038 E56.06138
G1 X-14.386 Y-11.29 E56.07396
G1 X-14.213 Y-11.826 E56.10206
G1 X-13.954 Y-12.354 E56.1314
G1 X-13.617 Y-12.848 E56.16123
G1 X-13.107 Y-12.965 E56.18734
G1 X-12.509 Y-13.188 E56.21918
G1 X-12.096 Y-13.549 E56.24654
G1 X-11.302 Y-13.505 E56.28622
G1 X-10.398 Y-13.409 E56.33157
G1 X-6.994 Y-13.137 E56.50194
G1 X-6.596 Y-13.097 E56.5219
G1 X-6.264 Y-13.357 E56.54293
G1 X-4.057 Y-14.936 E56.67832
G1 X-3.688 Y-15.174 E56.70023
G1 X-2.945 Y-15.618 E56.74341
G1 X-2.745 Y-15.657 E56.75358
G1 X-2.232 Y-15.741 E56.77951
G1 X-1.831 Y-15.658 E56.79994
G1 X-.947 Y-15.362 E56.84645
G1 X-.311 Y-15.175 E56.87952
G1 X0.866 Y-14.772 E56.94159
G1 X1.742 Y-14.58 E56.98633
G1 X4.368 Y-13.925 E57.12136
G1 X5.175 Y-13.706 E57.16308
G1 X8.307 Y-12.629 E57.32831
G1 X9.213 Y-12.349 E57.37562
G1 X9.671 Y-11.919 E57.40696
G1 X9.867 Y-11.513 E57.42946
G1 X10.228 Y-10.976 E57.46174
G1 X10.406 Y-10.501 E57.48705
G1 X10.652 Y-9.506 E57.53818
G1 X10.85 Y-8.506 E57.58904
G1 X11.541 Y-7.99 E57.63207
G1 X13.886 Y-5.511 E57.80231
G1 X14.812 Y-3.51 E57.91231
G1 X11.828 Y-.567 E58.12141
G1 X11.193 Y-.355 E58.15481
G1 X10.71 Y0.195 E58.19133
G1 X10.429 Y1.491 E58.25749
G1 X9.504 Y3.496 E58.36765
G1 X9.197 Y4.136 E58.40306
G1 X8.799 Y4.715 E58.43811
G1 X7.917 Y5.475 E58.4962
G1 X7.924 Y5.511 E58.49803
G0 F7200 X8.104 Y4.449
G1 F1800 X8.983 Y3.695 E58.55581
G1 X9.259 Y3.02 E58.59219
G1 X9.148 Y2.077 E58.63956
G1 X8.764 Y1.334 E58.68129
G1 X7.779 Y-.235 E58.77371
G1 X7.773 Y-.248 E58.77442
G1 X7.145 Y-1.245 E58.83321
G1 X6.757 Y-1.87 E58.86991
G1 X6.391 Y-2.604 E58.91083
G1 X6.235 Y-3.085 E58.93606
G1 X6.151 Y-3.333 E58.94912
G1 X6.126 Y-3.845 E58.9747
G1 X6.084 Y-4.201 E58.99258
G1 X6.103 Y-4.864 E59.02567
G1 X5.669 Y-6.151 E59.09343
G1 X5.111 Y-7.391 E59.16127
G1 X5.489 Y-7.803 E59.18917
G1 X8.935 Y-10.133 E59.3967
G1 X5.945 Y-11.888 E59.56967
G1 X1.155 Y-13.463 E59.82123
G1 X-2.409 Y-11.669 E60.02029
G1 X-1.207 Y-7.581 E60.23288
G1 X-1.803 Y-4.568 E60.38611
G1 X-5.804 Y-2.885 E60.60266
G1 X-6.297 Y-2.233 E60.64344
G1 X-6.713 Y-1.469 E60.68684
G1 X-7.392 Y-.206 E60.75838
G1 X-7.836 Y0.692 E60.80836
G1 X-8.132 Y1.736 E60.8625
G1 X-7.773 Y3.445 E60.94962
G1 X-7.196 Y4.707 E61.01885
G1 X-6.794 Y5.278 E61.05369
G1 X-6.168 Y5.863 E61.09644
G1 X-4.957 Y6.4 E61.16253
G1 X-4.648 Y6.487 E61.17854
G1 X-2.984 Y6.689 E61.26217
G1 X-1.759 Y6.631 E61.32336
G1 X-.836 Y6.553 E61.36957
G1 X0.858 Y6.274 E61.45522
G1 X1.98 Y6.078 E61.51205
G1 X5.778 Y5.425 E61.70431
G1 X6.662 Y5.299 E61.74886
G1 X7.094 Y5.052 E61.77368
G1 X8.104 Y4.449 E61.83237
G0 F7200 X8.437 Y3.597
G0 X9.896 Y-.62
G1 F1800 X10.771 Y-.492 E61.87649
G1 X11.512 Y-1.285 E61.93064
G1 X12.008 Y-2.041 E61.97575
G1 X12.626 Y-3.351 E62.04801
G1 X12.912 Y-3.892 E62.07854
G1 X12.478 Y-5.239 E62.14914
G1 X11.582 Y-5.419 E62.19474
G1 X11.124 Y-4.931 E62.22813
G1 X9.926 Y-4.379 E62.29394
G1 X9.655 Y-3.956 E62.319
G1 X9.216 Y-3.195 E62.36283
G1 X8.012 Y-2.292 E62.43791
G1 X8.24 Y-1.083 E62.4993
G1 X9.896 Y-.62 E62.58508
G0 F7200 X8.524 Y3.363
G0 X7.784 Y3.998
G0 X6.48 Y4.768
G0 X-.903 Y6.005
G0 X-2.967 Y6.136
G0 X-4.766 Y5.882
G0 X-5.862 Y5.396
G0 X-6.715 Y4.432
G0 X-7.247 Y3.269
G0 X-7.564 Y1.757
G0 X-5.674 Y-3.615
G1 F1800 X-5.245 Y-4.266 E62.62398
G1 X-5.285 Y-4.814 E62.65139
G1 X-5.52 Y-5.847 E62.70424
G1 X-6.684 Y-6.149 E62.76424
G1 X-7.371 Y-5.39 E62.81531
G1 X-8.693 Y-4.199 E62.90409
G1 X-7.891 Y-2.808 E62.98419
G1 X-6.162 Y-3.376 E63.07499
G1 X-5.674 Y-3.615 E63.1021
G0 F7200 X-14.736 Y0.536
G1 F1800 X-15.78 Y-.506 E63.17569
G1 X-15.85 Y-.576
G0 F7200 X-16.049 Y-1.342
G1 F1800 X-13.403 Y1.304 E63.36238
G1 X-13.333 Y1.374
G0 F7200 X-12.367 Y1.774
G1 F1800 X-16.113 Y-1.971 E63.62664
G0 F7200 X-15.96 Y-2.383
G1 F1800 X-11.295 Y2.281 E63.95575
G1 X-11.225 Y2.351
G0 F7200 X-10.299 Y2.711
G1 F1800 X-15.734 Y-2.723 E64.33918
G0 F7200 X-15.504 Y-3.059
G1 F1800 X-9.357 Y3.087 E64.77285
G0 F7200 X-9.108 Y3.336
G1 F1800 X-4.661 Y7.783 E65.08661
G0 F7200 X-4.185 Y7.694
G1 F1800 X-5.54 Y6.338 E65.18225
G1 X-5.61 Y6.268
G0 F7200 X-4.645 Y6.668
G1 F1800 X-3.708 Y7.604 E65.24832
G0 F7200 X-3.232 Y7.515
G1 F1800 X-4.001 Y6.746 E65.30258
G0 F7200 X-3.357 Y6.824
G1 F1800 X-2.755 Y7.426 E65.34505
G0 F7200 X-2.279 Y7.337
G1 F1800 X-2.757 Y6.858 E65.37882
G0 F7200 X-2.218 Y6.832
G1 F1800 X-1.805 Y7.245 E65.40795
G0 F7200 X-1.68 Y6.805
G1 F1800 X-1.337 Y7.147 E65.43212
G0 F7200 X-1.158 Y6.76
G1 F1800 X-.87 Y7.049 E65.45247
G0 F7200 X-.649 Y6.704
G1 F1800 X-.405 Y6.948 E65.46969
G0 F7200 X-.164 Y6.624
G1 F1800 X0.058 Y6.846 E65.48535
G0 F7200 X0.321 Y6.544
G1 F1800 X0.523 Y6.746 E65.49961
G0 F7200 X0.806 Y6.463
G1 F1800 X0.988 Y6.645 E65.51245
G0 F7200 X1.289 Y6.38
G1 F1800 X1.447 Y6.538 E65.52359
G0 F7200 X1.77 Y6.296
G1 F1800 X1.904 Y6.43 E65.53305
G0 F7200 X2.252 Y6.212
G1 F1800 X2.375 Y6.335 E65.54173
G0 F7200 X2.735 Y6.129
G1 F1800 X2.852 Y6.246 E65.54998
G0 F7200 X3.218 Y6.047
G1 F1800 X3.333 Y6.161 E65.55806
G0 F7200 X3.7 Y5.963
G1 F1800 X3.813 Y6.076 E65.56603
G0 F7200 X4.183 Y5.881
G1 F1800 X4.3 Y5.997 E65.57425
G0 F7200 X4.666 Y5.798
G1 F1800 X4.787 Y5.918 E65.58276
G0 F7200 X5.149 Y5.715
G1 F1800 X5.274 Y5.839 E65.59154
G0 F7200 X5.632 Y5.632
G1 F1800 X5.761 Y5.761 E65.60064
G0 F7200 X6.123 Y5.557
G1 F1800 X6.238 Y5.673 E65.60879
G0 F7200 X6.618 Y5.487
G1 F1800 X6.716 Y5.584 E65.61567
G0 F7200 X7.007 Y5.31
G1 F1800 X7.191 Y5.494 E65.62865
G0 F7200 X7.364 Y5.101
G1 F1800 X7.65 Y5.388 E65.64887
G0 F7200 X7.995 Y5.167
G1 F1800 X7.718 Y4.889 E65.66845
G0 F7200 X8.072 Y4.678
G1 F1800 X8.299 Y4.905 E65.68446
G0 F7200 X8.603 Y4.643
G1 F1800 X8.395 Y4.435 E65.69914
G0 F7200 X8.7 Y4.174
G1 F1800 X8.849 Y4.323 E65.70965
G0 F7200 X9.072 Y3.981
G1 F1800 X9.004 Y3.913 E65.71445
G0 F7200 X9.613 Y2.825
G1 F1800 X9.389 Y2.601 E65.73025
G0 F7200 X9.792 Y2.438
G1 F1800 X9.262 Y1.908 E65.76765
G0 F7200 X9.97 Y2.051
G1 F1800 X8.505 Y0.586 E65.87101
G1 X8.435 Y0.516
G0 F7200 X8.908 Y-.708
G1 F1800 X10.398 Y0.782 E65.97614
G0 F7200 X10.298 Y1.247
G1 F1800 X8.123 Y-.927 E66.12956
G1 X8.077 Y-.973
G1 X6.733 Y-2.317 E66.22439
G1 X6.663 Y-2.387
G0 F7200 X6.368 Y-3.247
G1 F1800 X7.945 Y-1.67 E66.33565
G0 F7200 X7.813 Y-2.368
G1 F1800 X6.301 Y-3.88 E66.44233
G0 F7200 X6.27 Y-4.477
G1 F1800 X8.136 Y-2.611 E66.57399
G0 F7200 X8.459 Y-2.853
G1 F1800 X6.211 Y-5.102 E66.73263
G1 X6.141 Y-5.172
G0 F7200 X5.923 Y-5.955
G1 F1800 X8.782 Y-3.096 E66.93435
G0 F7200 X9.096 Y-3.348
G1 F1800 X5.514 Y-6.93 E67.18708
G0 F7200 X5.481 Y-7.529
G1 F1800 X9.304 Y-3.706 E67.45681
G0 F7200 X9.511 Y-4.065
G1 F1800 X5.789 Y-7.786 E67.71939
G0 F7200 X6.127 Y-8.015
G1 F1800 X9.731 Y-4.41 E67.9737
G0 F7200 X10.064 Y-4.642
G1 F1800 X6.464 Y-8.243 E68.22774
G0 F7200 X6.802 Y-8.471
G1 F1800 X10.452 Y-4.821 E68.48526
G0 F7200 X10.839 Y-4.999
G1 F1800 X7.139 Y-8.699 E68.74632
G0 F7200 X7.476 Y-8.927
G1 F1800 X11.165 Y-5.238 E69.0066
G0 F7200 X11.439 Y-5.53
G1 F1800 X7.814 Y-9.156 E69.2624
G0 F7200 X8.152 Y-9.384
G1 F1800 X12.022 Y-5.514 E69.53545
G1 X12.092 Y-5.444
G0 F7200 X12.841 Y-4.695
G1 F1800 X14.288 Y-3.247 E69.63757
G0 F7200 X14.003 Y-2.967
G1 F1800 X13.101 Y-3.868 E69.70118
G0 F7200 X12.906 Y-3.498
G1 F1800 X13.718 Y-2.686 E69.75847
G0 F7200 X13.434 Y-2.404
G1 F1800 X12.715 Y-3.123 E69.8092
G0 F7200 X12.534 Y-2.738
G1 F1800 X13.149 Y-2.124 E69.85256
G0 F7200 X12.864 Y-1.843
G1 F1800 X12.353 Y-2.354 E69.88861
G0 F7200 X12.172 Y-1.969
G1 F1800 X12.579 Y-1.562 E69.91733
G0 F7200 X12.295 Y-1.281
G1 F1800 X11.95 Y-1.626 E69.94167
G0 F7200 X11.725 Y-1.284
G1 F1800 X12.01 Y-1 E69.96174
G0 F7200 X11.722 Y-.722
G1 F1800 X11.468 Y-.976 E69.97966
G0 F7200 X11.195 Y-.683
G1 F1800 X11.298 Y-.58 E69.98693
G0 F7200 X10.691 Y-0.056
G1 F1800 X10.38 Y-.367 E70.00887
G0 F7200 X10.499 Y0.317
G1 F1800 X9.693 Y-.489 E70.06574
G1 X9.623 Y-.559
G0 F7200 X7.553 Y-.931
G1 F1800 X10.149 Y1.664 E70.24887
G1 X10.219 Y1.734
G0 F7200 X14.572 Y-3.529
G1 F1800 X8.489 Y-9.612 E70.67806
G0 F7200 X8.826 Y-9.84
G1 F1800 X14.143 Y-4.524 E71.05316
G1 X14.213 Y-4.454
G0 F7200 X12.168 Y-7.064
G1 F1800 X11.254 Y-7.978 E71.11765
G1 X11.184 Y-8.048
G0 F7200 X10.651 Y-8.582
G1 F1800 X9.164 Y-10.068 E71.22253
G0 F7200 X8.831 Y-10.402
G1 F1800 X6.003 Y-13.229 E71.42203
G1 X5.933 Y-13.299
G0 F7200 X6.864 Y-12.934
G1 F1800 X10.511 Y-9.287 E71.67934
G0 F7200 X10.337 Y-10.027
G1 F1800 X7.726 Y-12.638 E71.86356
G1 X7.656 Y-12.708
G0 F7200 X8.571 Y-12.358
G1 F1800 X10.085 Y-10.844 E71.97038
G1 X10.155 Y-10.774
G0 F7200 X7.462 Y-11.205
G1 F1800 X5.141 Y-13.526 E72.13414
G1 X5.071 Y-13.596
G0 F7200 X4.362 Y-13.739
G1 F1800 X6.092 Y-12.009 E72.2562
G1 X6.162 Y-11.939
G0 F7200 X5.221 Y-12.314
G1 F1800 X3.607 Y-13.928 E72.37008
G0 F7200 X2.853 Y-14.116
G1 F1800 X4.379 Y-12.591 E72.47771
G1 X4.449 Y-12.521
G0 F7200 X3.536 Y-12.868
G1 F1800 X2.1 Y-14.304 E72.57903
G0 F7200 X1.359 Y-14.479
G1 F1800 X2.693 Y-13.145 E72.67315
G1 X2.763 Y-13.075
G0 F7200 X1.85 Y-13.423
G1 F1800 X0.601 Y-14.671 E72.76124
G1 X0.531 Y-14.741
G0 F7200 X-.258 Y-14.965
G1 F1800 X1.081 Y-13.626 E72.85571
G0 F7200 X0.704 Y-13.437
G1 F1800 X-1.07 Y-15.212 E72.98091
G1 X-1.14 Y-15.282
G0 F7200 X-1.913 Y-15.489
G1 F1800 X0.328 Y-13.248 E73.13903
G0 F7200 X-0.048 Y-13.058
G1 F1800 X-2.502 Y-15.513 E73.31221
G0 F7200 X-2.954 Y-15.4
G1 F1800 X-.424 Y-12.869 E73.49075
G0 F7200 X-.8 Y-12.679
G1 F1800 X-3.309 Y-15.188 E73.66777
G0 F7200 X-3.662 Y-14.975
G1 F1800 X-1.176 Y-12.49 E73.84314
G0 F7200 X-1.552 Y-12.3
G1 F1800 X-4.003 Y-14.751 E74.01607
G0 F7200 X-4.333 Y-14.515
G1 F1800 X-1.928 Y-12.111 E74.18572
G0 F7200 X-2.305 Y-11.922
G1 F1800 X-4.662 Y-14.279 E74.35202
G0 F7200 X-4.992 Y-14.043
G1 F1800 X-2.588 Y-11.638 E74.52167
G1 X-2.518 Y-11.568
G0 F7200 X-2.352 Y-10.837
G1 F1800 X-5.322 Y-13.807 E74.73122
G0 F7200 X-5.651 Y-13.571
G1 F1800 X-2.117 Y-10.036 E74.98059
G1 X-2.047 Y-9.966
G0 F7200 X-1.88 Y-9.234
G1 F1800 X-5.982 Y-13.336 E75.27001
G0 F7200 X-6.305 Y-13.094
G1 F1800 X-1.645 Y-8.433 E75.59884
G1 X-1.575 Y-8.363
G0 F7200 X-1.409 Y-7.632
G1 F1800 X-6.703 Y-12.925 E75.97232
G0 F7200 X-7.324 Y-12.981
G1 F1800 X-1.477 Y-7.134 E76.38486
G0 F7200 X-1.571 Y-6.662
G1 F1800 X-7.94 Y-13.031 E76.83423
G0 F7200 X-8.554 Y-13.08
G1 F1800 X-1.664 Y-6.19 E77.32035
G0 F7200 X-1.757 Y-5.717
G1 F1800 X-9.169 Y-13.129 E77.84331
G0 F7200 X-9.784 Y-13.178
G1 F1800 X-1.851 Y-5.245 E78.40303
G0 F7200 X-1.944 Y-4.772
G1 F1800 X-10.399 Y-13.227 E78.99957
G0 F7200 X-11.031 Y-13.294
G1 F1800 X-2.293 Y-4.556 E79.61608
G0 F7200 X-2.691 Y-4.389
G1 F1800 X-11.644 Y-13.341 E80.24773
G0 F7200 X-12.138 Y-13.269
G1 F1800 X-3.09 Y-4.222 E80.88608
G0 F7200 X-3.488 Y-4.054
G1 F1800 X-5.352 Y-5.917 E81.01756
G1 X-5.447 Y-6.013
G1 X-12.45 Y-13.016 E81.51166
G0 F7200 X-12.862 Y-12.862
G1 F1800 X-6.213 Y-6.213 E81.98078
G0 F7200 X-6.824 Y-6.259
G1 F1800 X-13.3 Y-12.734 E82.43767
G0 F7200 X-13.633 Y-12.502
G1 F1800 X-7.093 Y-5.962 E82.8991
G0 F7200 X-7.362 Y-5.665
G1 F1800 X-13.85 Y-12.153 E83.35686
G0 F7200 X-14.037 Y-11.774
G1 F1800 X-7.646 Y-5.383 E83.80778
G0 F7200 X-7.944 Y-5.115
G1 F1800 X-14.178 Y-11.349 E84.24762
G0 F7200 X-14.181 Y-10.786
G1 F1800 X-8.242 Y-4.847 E84.66665
G0 F7200 X-8.539 Y-4.579
G1 F1800 X-14.099 Y-10.139 E85.05894
G0 F7200 X-14.01 Y-9.485
G1 F1800 X-8.837 Y-4.311 E85.42396
G1 X-8.767 Y-4.241
G0 F7200 X-8.37 Y-3.278
G1 F1800 X-13.797 Y-8.705 E85.80686
G1 X-13.867 Y-8.775
G0 F7200 X-13.444 Y-7.788
G1 F1800 X-6.989 Y-1.332 E86.26233
G0 F7200 X-6.791 Y-1.699
G1 F1800 X-7.753 Y-2.662 E86.33024
G0 F7200 X-7.327 Y-2.802
G1 F1800 X-6.591 Y-2.066 E86.38217
G0 F7200 X-6.38 Y-2.42
G1 F1800 X-6.902 Y-2.942 E86.419
G0 F7200 X-6.476 Y-3.082
G1 F1800 X-6.136 Y-2.742 E86.44299
G0 F7200 X-5.878 Y-3.049
G1 F1800 X-6.055 Y-3.227 E86.45551
G0 F7200 X-5.675 Y-3.413
G1 F1800 X-5.48 Y-3.217 E86.46931
G0 F7200 X-5.081 Y-3.384
G1 F1800 X-5.4 Y-3.703 E86.49181
G0 F7200 X-5.175 Y-4.043
G1 F1800 X-4.683 Y-3.552 E86.52649
G0 F7200 X-4.285 Y-3.719
G1 F1800 X-5.082 Y-4.516 E86.58272
G0 F7200 X-5.185 Y-5.185
G1 F1800 X-3.886 Y-3.886 E86.67438
G1 X-3.816 Y-3.816
G0 F7200 X-7.187 Y-.964
G1 F1800 X-13.049 Y-6.827 E87.08801
G0 F7200 X-13.196 Y-6.407
G1 F1800 X-7.385 Y-.596 E87.498
G0 F7200 X-7.58 Y-.226
G1 F1800 X-13.345 Y-5.992 E87.90479
G0 F7200 X-13.587 Y-5.667
G1 F1800 X-7.767 Y0.152 E88.31539
G0 F7200 X-7.954 Y0.531
G1 F1800 X-13.828 Y-5.342 E88.7298
G0 F7200 X-14.069 Y-5.018
G1 F1800 X-8.095 Y0.955 E89.15126
G0 F7200 X-8.221 Y1.395
G1 F1800 X-14.299 Y-4.682 E89.58006
G0 F7200 X-14.532 Y-4.35
G1 F1800 X-8.278 Y1.903 E90.02128
G0 F7200 X-8.128 Y2.619
G1 F1800 X-14.782 Y-4.034 E90.49072
G0 F7200 X-15.03 Y-3.717
G1 F1800 X-7.978 Y3.335 E90.98827
G1 X-7.908 Y3.405
G0 F7200 X-7.578 Y4.3
G1 F1800 X-15.273 Y-3.394 E91.53116
G1 X-15.343 Y-3.464
G0 F7200 X-8.691 Y4.319
G1 F1800 X-5.168 Y7.841 E91.77969
G0 F7200 X-5.792 Y7.783
G1 F1800 X-7.951 Y5.625 E91.93199
G1 X-8.021 Y5.555
G0 F7200 X-7.622 Y6.519
G1 F1800 X-7.043 Y7.098 E91.97284
G1 X-6.973 Y7.168
;MESH:NONMESH
G0 F600 X-6.973 Y7.168 Z1.2
G0 F7200 X-9.437 Y3.527
;TIME_ELAPSED:68.401927
;LAYER:3
;TYPE:WALL-INNER
;MESH:bunny.stl
G1 F3600 X-10.081 Y3.199 E92.0089
G1 X-10.525 Y3.048 E92.03229
G1 X-11.211 Y2.846 E92.06797
G1 X-12.473 Y2.306 E92.13645
G1 X-12.6 Y2.265 E92.14311
G1 X-13.853 Y1.738 E92.21093
G1 X-15.492 Y1.021 E92.30018
G1 X-15.581 Y0.951 E92.30583
G1 X-15.863 Y0.559 E92.32992
G1 X-16.217 Y-0.016 E92.36361
G1 X-16.414 Y-.524 E92.39079
G1 X-16.548 Y-.964 E92.41374
G1 X-16.717 Y-1.947 E92.4635
G1 X-16.367 Y-2.905 E92.51439
G1 X-15.094 Y-4.493 E92.61593
G1 X-14.416 Y-5.209 E92.66512
G1 X-13.642 Y-6.045 E92.72196
G1 X-13.386 Y-6.771 E92.76037
G1 X-13.492 Y-7.231 E92.78392
G1 X-14.072 Y-7.879 E92.8273
G1 X-14.268 Y-8.319 E92.85134
G1 X-14.543 Y-8.926 E92.88458
G1 X-14.889 Y-10.255 E92.9531
G1 X-14.93 Y-10.777 E92.97922
G1 X-14.897 Y-11.595 E93.02006
G1 X-14.847 Y-11.841 E93.03259
G1 X-14.698 Y-12.326 E93.0579
G1 X-14.391 Y-12.751 E93.08406
G1 X-14.276 Y-13.025 E93.09888
G1 X-14.064 Y-13.343 E93.11795
G1 X-13.604 Y-13.729 E93.14791
G1 X-13.004 Y-14.032 E93.18144
G1 X-12.375 Y-14.165 E93.21352
G1 X-11.988 Y-14.242 E93.2332
G1 X-10.368 Y-13.992 E93.31498
G1 X-9.634 Y-13.929 E93.35174
G1 X-8.397 Y-13.699 E93.41451
G1 X-7.471 Y-13.532 E93.46145
G1 X-6.891 Y-13.417 E93.49095
G1 X-6.407 Y-13.658 E93.51793
G1 X-6.184 Y-13.928 E93.5354
G1 X-5.801 Y-14.311 E93.56242
G1 X-4.888 Y-15.033 E93.62049
G1 X-4.396 Y-15.521 E93.65506
G1 X-3.778 Y-16.059 E93.69594
G1 X-3.33 Y-16.386 E93.72361
G1 X-2.98 Y-16.444 E93.74131
G1 X-2.417 Y-16.435 E93.7694
G1 X-2.202 Y-16.391 E93.78035
G1 X-.756 Y-16.036 E93.85464
G1 X-.496 Y-15.988 E93.86783
G1 X0.052 Y-15.807 E93.89662
G1 X0.878 Y-15.612 E93.93896
G1 X4.118 Y-14.805 E94.10554
G1 X5.389 Y-14.463 E94.17121
G1 X7.233 Y-13.815 E94.26872
G1 X8.385 Y-13.421 E94.32946
G1 X8.803 Y-13.291 E94.3513
G1 X9.429 Y-13.146 E94.38336
G1 X10.005 Y-12.907 E94.41447
G1 X10.513 Y-12.377 E94.4511
G1 X10.684 Y-12.206 E94.46317
G1 X10.78 Y-12.011 E94.47401
G1 X11.084 Y-11.487 E94.50423
G1 X11.383 Y-10.671 E94.54759
G1 X11.499 Y-10.22 E94.57082
G1 X11.751 Y-8.964 E94.63473
G1 X13.055 Y-7.991 E94.71591
G1 X14.822 Y-6.122 E94.84423
G1 X15.549 Y-4.552 E94.93054
G1 X15.953 Y-3.524 E94.98565
G1 X15.895 Y-2.994 E95.01225
G1 X15.007 Y-2.193 E95.07191
G1 X13.19 Y-.402 E95.1992
G1 X11.714 Y0.092 E95.27685
G1 X11.169 Y0.705 E95.31777
G1 X10.538 Y3.622 E95.46667
G1 X10.186 Y4.384 E95.50854
G1 X9.943 Y4.891 E95.53659
G1 X9.792 Y5.088 E95.54898
G1 X9.296 Y5.628 E95.58556
G1 X8.851 Y6.026 E95.61534
G1 X8.775 Y6.043 E95.61923
G1 X7.26 Y6.295 E95.69585
G1 X6.005 Y6.499 E95.75928
G1 X5.192 Y6.628 E95.80035
G1 X3.428 Y6.896 E95.88937
G1 X2.401 Y7.019 E95.94097
G1 X1.915 Y7.091 E95.96548
G1 X-1.572 Y7.82 E96.14321
G1 X-3.268 Y8.136 E96.22928
G1 X-4.201 Y8.321 E96.27674
G1 X-4.907 Y8.476 E96.3128
G1 X-5.132 Y8.486 E96.32403
G1 X-5.786 Y8.555 E96.35684
G1 X-6.339 Y8.242 E96.38854
G1 X-6.636 Y8.086 E96.40528
G1 X-7.16 Y7.822 E96.43455
G1 X-7.736 Y7.43 E96.46931
G1 X-7.942 Y7.189 E96.48513
G1 X-8.495 Y5.699 E96.56442
G1 X-8.53 Y5.642 E96.56776
G1 X-8.983 Y4.62 E96.62353
G1 X-9.197 Y4.117 E96.6508
G1 X-9.437 Y3.527 E96.68258
G0 F7200 X-9.364 Y3.46
G0 X-6.059 Y-1.187
G0 X0.878 Y-10.026
G0 X1.957 Y-10.574
G0 X2.741 Y-10.318
G0 X4.121 Y-9.57
G0 X4.022 Y-9.567
G1 F3600 X2.91 Y-10.221 E96.74694
G1 X1.959 Y-10.535 E96.79691
G1 X0.914 Y-10.011 E96.85523
G1 X1.173 Y-9.132 E96.90095
G1 X0.123 Y-3.823 E97.17095
G1 X-2.315 Y-2.797 E97.30291
G1 X-4.176 Y-2.22 E97.40012
G1 X-5.543 Y-1.737 E97.47245
G1 X-6.026 Y-1.166 E97.50976
G1 X-6.265 Y-.649 E97.53818
G1 X-6.793 Y0.338 E97.59402
G1 X-6.998 Y0.991 E97.62817
G1 X-7.294 Y2.047 E97.68288
G1 X-7.094 Y2.882 E97.72572
G1 X-6.811 Y3.625 E97.76538
G1 X-6.428 Y4.331 E97.80546
G1 X-6.153 Y4.721 E97.82926
G1 X-5.767 Y5.084 E97.8557
G1 X-5.294 Y5.553 E97.88893
G1 X-4.525 Y5.862 E97.93028
G1 X-3.65 Y6.023 E97.97466
G1 X-2.62 Y5.969 E98.02612
G1 X-1.626 Y5.92 E98.07577
G1 X-.789 Y5.849 E98.11768
G1 X0.178 Y5.776 E98.16606
G1 X2.113 Y5.468 E98.26381
G1 X5.272 Y4.931 E98.42368
G1 X6.047 Y4.727 E98.46366
G1 X6.776 Y4.506 E98.50167
G1 X7.388 Y4.149 E98.53701
G1 X7.656 Y3.927 E98.55438
G1 X8.139 Y3.571 E98.58431
G1 X8.263 Y3.224 E98.60269
G1 X8.453 Y2.946 E98.61949
G1 X8.301 Y2.122 E98.6613
G1 X8.191 Y1.818 E98.67743
G1 X7.931 Y1.386 E98.70258
G1 X6.362 Y-1.108 E98.84958
G1 X6.221 Y-1.358 E98.8639
G1 X5.679 Y-2.586 E98.93087
G1 X5.401 Y-3.372 E98.97246
G1 X5.315 Y-4.141 E99.01107
G1 X4.843 Y-5.305 E99.07373
G1 X4.383 Y-6.319 E99.12928
G1 X3.278 Y-8.691 E99.25983
G1 X3.15 Y-8.98 E99.2756
G1 X4.022 Y-9.567 E99.32805
G0 F7200 X3.272 Y-9.544
;TYPE:WALL-OUTER
G1 F1800 X2.744 Y-9.855 E99.35862
G1 X1.991 Y-10.103 E99.39817
G1 X1.392 Y-9.803 E99.43159
G1 X1.584 Y-9.152 E99.46545
G1 X0.474 Y-3.536 E99.75106
G1 X-2.177 Y-2.421 E99.89454
G1 X-4.05 Y-1.84 E99.99238
G1 X-5.308 Y-1.396 E100.05893
G1 X-5.686 Y-.949 E100.08814
G1 X-5.912 Y-.46 E100.11501
G1 X-6.423 Y0.494 E100.16901
G1 X-6.615 Y1.105 E100.20096
G1 X-6.881 Y2.055 E100.25018
G1 X-6.711 Y2.764 E100.28655
G1 X-6.447 Y3.458 E100.3236
G1 X-6.088 Y4.12 E100.36117
G1 X-5.85 Y4.457 E100.38175
G1 X-5.493 Y4.792 E100.40618
G1 X-5.07 Y5.212 E100.43592
G1 X-4.413 Y5.476 E100.47124
G1 X-3.624 Y5.621 E100.51126
G1 X-2.639 Y5.569 E100.56047
G1 X-1.653 Y5.521 E100.60972
G1 X-.823 Y5.45 E100.65128
G1 X0.131 Y5.378 E100.69901
G1 X2.048 Y5.073 E100.79586
G1 X5.187 Y4.54 E100.9547
G1 X5.938 Y4.342 E100.99345
G1 X6.615 Y4.137 E101.02874
G1 X7.158 Y3.82 E101.06011
G1 X7.4 Y3.619 E101.07581
G1 X7.803 Y3.322 E101.10078
G1 X7.903 Y3.041 E101.11566
G1 X8.03 Y2.856 E101.12686
G1 X7.914 Y2.227 E101.15877
G1 X7.828 Y1.991 E101.1713
G1 X7.59 Y1.596 E101.19431
G1 X6.023 Y-.895 E101.34113
G1 X5.865 Y-1.173 E101.35708
G1 X5.306 Y-2.442 E101.42626
G1 X5.008 Y-3.283 E101.47077
G1 X4.924 Y-4.042 E101.50887
G1 X4.475 Y-5.147 E101.56838
G1 X4.02 Y-6.152 E101.62342
G1 X2.915 Y-8.522 E101.75388
G1 X2.654 Y-9.116 E101.78625
G1 X2.684 Y-9.148 E101.78844
G1 X3.272 Y-9.544 E101.8238
G0 F7200 X3.1 Y-9.645
G0 X3.353 Y-10.075
G0 X11.814 Y-8.793
G0 X12.113 Y-9.193
G1 F1800 X13.326 Y-8.287 E101.89934
G1 X15.157 Y-6.35 E102.03232
G1 X15.912 Y-4.72 E102.12194
G1 X16.361 Y-3.577 E102.1832
G1 X16.277 Y-2.799 E102.22224
G1 X15.281 Y-1.902 E102.28912
G1 X13.406 Y-0.053 E102.42049
G1 X11.942 Y0.437 E102.49751
G1 X11.538 Y0.892 E102.52787
G1 X10.92 Y3.747 E102.67361
G1 X10.547 Y4.557 E102.7181
G1 X10.286 Y5.101 E102.7482
G1 X10.101 Y5.343 E102.7634
G1 X9.576 Y5.915 E102.80213
G1 X9.041 Y6.393 E102.83792
G1 X8.841 Y6.438 E102.84815
G1 X7.326 Y6.69 E102.92477
G1 X6.069 Y6.894 E102.98831
G1 X5.255 Y7.023 E103.02942
G1 X3.475 Y7.293 E103.11924
G1 X2.454 Y7.415 E103.17054
G1 X1.985 Y7.485 E103.1942
G1 X-1.49 Y8.211 E103.37131
G1 X-3.192 Y8.529 E103.4577
G1 X-4.119 Y8.713 E103.50485
G1 X-4.856 Y8.874 E103.54248
G1 X-5.102 Y8.885 E103.55477
G1 X-5.799 Y8.959 E103.58974
G1 X-5.905 Y8.948 E103.59505
G1 X-6.53 Y8.593 E103.63091
G1 X-6.819 Y8.442 E103.64718
G1 X-7.366 Y8.166 E103.67775
G1 X-8.005 Y7.731 E103.71631
G1 X-8.292 Y7.395 E103.73836
G1 X-8.857 Y5.874 E103.81931
G1 X-8.885 Y5.828 E103.822
G1 X-9.349 Y4.782 E103.87909
G1 X-9.565 Y4.273 E103.90667
G1 X-9.751 Y3.816 E103.93129
G1 X-10.237 Y3.568 E103.95851
G1 X-10.646 Y3.429 E103.98006
G1 X-11.345 Y3.224 E104.0164
G1 X-12.614 Y2.681 E104.08526
G1 X-12.742 Y2.639 E104.09199
G1 X-14.008 Y2.107 E104.1605
G1 X-15.104 Y1.629 E104.22015
G1 X-15.701 Y1.366 E104.2527
G1 X-15.873 Y1.232 E104.26358
G1 X-16.193 Y0.787 E104.29092
G1 X-16.577 Y0.161 E104.32756
G1 X-16.794 Y-.396 E104.35738
G1 X-16.939 Y-.872 E104.38221
G1 X-17.012 Y-1.31 E104.40436
G1 X-17.13 Y-1.984 E104.4385
G1 X-16.721 Y-3.103 E104.49794
G1 X-15.397 Y-4.755 E104.60356
G1 X-14.708 Y-5.482 E104.65353
G1 X-13.992 Y-6.256 E104.70613
G1 X-13.802 Y-6.794 E104.7346
G1 X-13.859 Y-7.041 E104.74725
G1 X-14.412 Y-7.66 E104.78866
G1 X-14.633 Y-8.155 E104.8157
G1 X-14.922 Y-8.794 E104.85069
G1 X-15.285 Y-10.19 E104.92265
G1 X-15.331 Y-10.77 E104.95168
G1 X-15.296 Y-11.642 E104.99522
G1 X-15.236 Y-11.937 E105.01024
G1 X-15.061 Y-12.506 E105.03994
G1 X-14.742 Y-12.948 E105.06713
G1 X-14.63 Y-13.215 E105.08158
G1 X-14.366 Y-13.611 E105.10532
G1 X-13.825 Y-14.065 E105.14056
G1 X-13.138 Y-14.412 E105.17896
G1 X-12.453 Y-14.557 E105.21389
G1 X-11.997 Y-14.648 E105.23709
G1 X-10.321 Y-14.389 E105.3217
G1 X-9.588 Y-14.327 E105.3584
G1 X-8.325 Y-14.092 E105.42249
G1 X-7.4 Y-13.925 E105.46938
G1 X-6.947 Y-13.836 E105.49242
G1 X-6.661 Y-13.978 E105.50835
G1 X-6.479 Y-14.199 E105.52263
G1 X-6.068 Y-14.61 E105.55163
G1 X-5.154 Y-15.333 E105.60977
G1 X-4.666 Y-15.817 E105.64406
G1 X-4.032 Y-16.369 E105.686
G1 X-3.489 Y-16.766 E105.71956
G1 X-3.011 Y-16.845 E105.74373
G1 X-2.373 Y-16.834 E105.77556
G1 X-2.122 Y-16.783 E105.78834
G1 X-.672 Y-16.427 E105.86283
G1 X-.398 Y-16.377 E105.87673
G1 X0.161 Y-16.192 E105.9061
G1 X0.975 Y-16 E105.94783
G1 X4.215 Y-15.193 E106.11441
G1 X5.507 Y-14.845 E106.18117
G1 X7.364 Y-14.193 E106.27936
G1 X8.509 Y-13.801 E106.33974
G1 X8.908 Y-13.677 E106.36058
G1 X9.552 Y-13.528 E106.39356
G1 X10.236 Y-13.245 E106.43049
G1 X10.799 Y-12.657 E106.4711
G1 X11.014 Y-12.442 E106.48627
G1 X11.133 Y-12.2 E106.49973
G1 X11.446 Y-11.66 E106.53087
G1 X11.765 Y-10.791 E106.57705
G1 X11.891 Y-10.299 E106.60239
G1 X12.113 Y-9.193 E106.65867
G0 F7200 X12.273 Y-9.074
G0 X11.398 Y-8.741
;TYPE:SKIN
G1 F1800 X12.796 Y-7.698 E106.74569
G1 X14.497 Y-5.9 E106.86917
G1 X15.186 Y-4.409 E106.95112
G1 X15.555 Y-3.472 E107.00136
G1 X15.523 Y-3.184 E107.01581
G1 X14.74 Y-2.477 E107.06845
G1 X12.983 Y-.744 E107.19157
G1 X11.492 Y-.245 E107.27001
G1 X10.81 Y0.522 E107.32122
G1 X10.167 Y3.496 E107.47302
G1 X9.8 Y4.288 E107.51657
G1 X9.613 Y4.679 E107.53819
G1 X9.482 Y4.85 E107.54894
G1 X9.03 Y5.343 E107.5823
G1 X8.668 Y5.666 E107.60651
G1 X7.196 Y5.911 E107.68096
G1 X6.164 Y6.078 E107.73311
G1 X5.131 Y6.242 E107.7853
G1 X3.381 Y6.508 E107.87361
G1 X2.349 Y6.633 E107.92547
G1 X1.847 Y6.707 E107.95079
G1 X-1.644 Y7.436 E108.12871
G1 X-3.342 Y7.753 E108.21489
G1 X-4.281 Y7.939 E108.26264
G1 X-4.956 Y8.088 E108.29713
G1 X-5.161 Y8.096 E108.30737
G1 X-5.703 Y8.154 E108.33456
G1 X-6.152 Y7.899 E108.36032
G1 X-6.457 Y7.739 E108.3775
G1 X-6.965 Y7.484 E108.40586
G1 X-7.475 Y7.136 E108.43667
G1 X-7.599 Y6.991 E108.44618
G1 X-8.143 Y5.527 E108.5241
G1 X-8.181 Y5.466 E108.52769
G1 X-8.626 Y4.462 E108.58248
G1 X-8.838 Y3.965 E108.60943
G1 X-9.131 Y3.246 E108.64817
G1 X-9.929 Y2.839 E108.69286
G1 X-10.408 Y2.676 E108.7181
G1 X-11.072 Y2.48 E108.75264
G1 X-12.336 Y1.941 E108.8212
G1 X-12.461 Y1.9 E108.82776
G1 X-13.701 Y1.379 E108.89487
G1 X-15.29 Y0.684 E108.98139
G1 X-15.539 Y0.343 E109.00246
G1 X-15.867 Y-.191 E109.03372
G1 X-16.169 Y-1.055 E109.07939
G1 X-16.316 Y-1.911 E109.12272
G1 X-16.023 Y-2.711 E109.16522
G1 X-14.807 Y-4.228 E109.26222
G1 X-14.131 Y-4.942 E109.31127
G1 X-13.301 Y-5.839 E109.37224
G1 X-12.98 Y-6.748 E109.42034
G1 X-13.135 Y-7.416 E109.45455
G1 X-13.741 Y-8.095 E109.49996
G1 X-14.172 Y-9.052 E109.55232
G1 X-14.505 Y-10.327 E109.61806
G1 X-14.54 Y-10.777 E109.64058
G1 X-14.509 Y-11.551 E109.67923
G1 X-14.343 Y-12.151 E109.71029
G1 X-14.048 Y-12.559 E109.7354
G1 X-13.932 Y-12.839 E109.75053
G1 X-13.772 Y-13.078 E109.76487
G1 X-13.389 Y-13.399 E109.78981
G1 X-12.872 Y-13.662 E109.81874
G1 X-12.295 Y-13.783 E109.84816
G1 X-11.982 Y-13.846 E109.86409
G1 X-10.415 Y-13.604 E109.94319
G1 X-9.699 Y-13.543 E109.97904
G1 X-8.468 Y-13.315 E110.0415
G1 X-7.541 Y-13.149 E110.08849
G1 X-6.836 Y-13.009 E110.12434
G1 X-6.159 Y-13.346 E110.16207
G1 X-5.549 Y-14.013 E110.20717
G1 X-4.629 Y-14.741 E110.2657
G1 X-4.121 Y-15.244 E110.30136
G1 X-3.539 Y-15.751 E110.33987
G1 X-3.173 Y-16.017 E110.36245
G1 X-2.955 Y-16.054 E110.37348
G1 X-2.287 Y-16.01 E110.40688
G1 X-.838 Y-15.654 E110.48132
G1 X-.587 Y-15.607 E110.49406
G1 X-0.054 Y-15.431 E110.52206
G1 X0.788 Y-15.232 E110.56523
G1 X4.02 Y-14.428 E110.73139
G1 X5.266 Y-14.093 E110.79576
G1 X7.105 Y-13.446 E110.89302
G1 X8.264 Y-13.05 E110.95412
G1 X8.701 Y-12.915 E110.97694
G1 X9.31 Y-12.773 E111.00814
G1 X9.782 Y-12.577 E111.03364
G1 X10.234 Y-12.104 E111.06628
G1 X10.363 Y-11.976 E111.07534
G1 X10.436 Y-11.827 E111.08362
G1 X10.729 Y-11.323 E111.11271
G1 X11.008 Y-10.56 E111.15324
G1 X11.121 Y-10.123 E111.17576
G1 X11.398 Y-8.741 E111.24608
G0 F7200 X4.753 Y-9.589
G1 F1800 X3.072 Y-10.578 E111.34338
G1 X1.928 Y-10.956 E111.40349
G1 X0.448 Y-10.214 E111.48609
G1 X0.772 Y-9.113 E111.54334
G1 X-.218 Y-4.102 E111.79818
G1 X-2.453 Y-3.162 E111.91914
G1 X-4.299 Y-2.59 E112.01556
G1 X-5.773 Y-2.07 E112.09354
G1 X-6.358 Y-1.377 E112.13878
G1 X-6.628 Y-.794 E112.17084
G1 X-7.154 Y0.186 E112.22633
G1 X-7.372 Y0.88 E112.26262
G1 X-7.697 Y2.039 E112.32267
G1 X-7.467 Y2.997 E112.37183
G1 X-7.166 Y3.788 E112.41405
G1 X-6.76 Y4.537 E112.45655
G1 X-6.449 Y4.978 E112.48348
G1 X-6.042 Y5.361 E112.51136
G1 X-5.512 Y5.885 E112.54854
G1 X-4.634 Y6.238 E112.59575
G1 X-3.675 Y6.415 E112.64441
G1 X-2.6 Y6.359 E112.69811
G1 X-1.599 Y6.31 E112.74811
G1 X-.756 Y6.237 E112.79033
G1 X0.223 Y6.164 E112.8393
G1 X2.176 Y5.852 E112.93797
G1 X5.354 Y5.313 E113.09879
G1 X6.153 Y5.102 E113.14002
G1 X6.932 Y4.866 E113.18063
G1 X7.612 Y4.469 E113.21991
G1 X7.893 Y4.237 E113.23809
G1 X8.466 Y3.815 E113.27359
G1 X8.613 Y3.404 E113.29537
G1 X8.866 Y3.034 E113.31773
G1 X8.679 Y2.019 E113.36922
G1 X8.544 Y1.65 E113.38883
G1 X8.263 Y1.181 E113.4161
G1 X6.697 Y-1.308 E113.56281
G1 X6.572 Y-1.529 E113.57548
G1 X6.041 Y-2.732 E113.64109
G1 X5.784 Y-3.459 E113.67956
G1 X5.697 Y-4.238 E113.71866
G1 X5.202 Y-5.459 E113.78439
G1 X4.738 Y-6.482 E113.84044
G1 X3.639 Y-8.839 E113.97018
G1 X4.753 Y-9.589 E114.03718
G0 F7200 X8.339 Y2.112
G0 X7.977 Y5.598
G1 F1800 X9.871 Y3.704 E114.17081
G1 X9.941 Y3.634
G0 F7200 X10.111 Y2.899
G1 F1800 X7.298 Y5.712 E114.36929
G0 F7200 X6.622 Y5.822
G1 F1800 X8.241 Y4.203 E114.48351
G0 F7200 X8.671 Y3.773
G1 F1800 X10.267 Y2.177 E114.59612
G0 F7200 X10.423 Y1.455
G1 F1800 X9.017 Y2.861 E114.69532
G0 F7200 X8.929 Y2.384
G1 F1800 X10.579 Y0.733 E114.81177
G1 X10.649 Y0.663
G0 F7200 X11.878 Y-.564
G1 F1800 X15.197 Y-3.884 E115.04598
G0 F7200 X15.038 Y-4.29
G1 F1800 X8.833 Y1.914 E115.48374
G0 F7200 X8.67 Y1.511
G1 F1800 X14.861 Y-4.678 E115.92048
G0 F7200 X14.683 Y-5.066
G1 F1800 X8.459 Y1.157 E116.35958
G0 F7200 X8.242 Y0.808
G1 F1800 X14.504 Y-5.453 E116.80137
G0 F7200 X14.315 Y-5.83
G1 F1800 X8.023 Y0.461 E117.24526
G0 F7200 X7.805 Y0.114
G1 F1800 X14.04 Y-6.12 E117.68514
G0 F7200 X13.765 Y-6.411
G1 F1800 X7.586 Y-.232 E118.1211
G0 F7200 X7.368 Y-.579
G1 F1800 X13.49 Y-6.701 E118.55304
G0 F7200 X13.215 Y-6.992
G1 F1800 X7.149 Y-.927 E118.981
G0 F7200 X6.931 Y-1.274
G1 F1800 X12.94 Y-7.283 E119.40497
G0 F7200 X12.663 Y-7.572
G1 F1800 X6.723 Y-1.632 E119.82406
G0 F7200 X6.549 Y-2.023
G1 F1800 X12.339 Y-7.814 E120.23262
G0 F7200 X12.015 Y-8.056
G1 F1800 X6.375 Y-2.416 E120.63055
G0 F7200 X6.204 Y-2.81
G1 F1800 X11.692 Y-8.297 E121.01772
G0 F7200 X11.368 Y-8.539
G1 F1800 X6.055 Y-3.227 E121.39255
G0 F7200 X5.939 Y-3.676
G1 F1800 X11.179 Y-8.916 E121.76226
G0 F7200 X11.083 Y-9.386
G1 F1800 X5.883 Y-4.186 E122.12914
G0 F7200 X5.74 Y-4.608
G1 F1800 X10.989 Y-9.857 E122.49949
G0 F7200 X10.883 Y-10.317
G1 F1800 X5.576 Y-5.011 E122.87389
G0 F7200 X5.414 Y-5.414
G1 F1800 X10.746 Y-10.746 E123.25009
G0 F7200 X10.595 Y-11.16
G1 F1800 X5.241 Y-5.807 E123.62781
G0 F7200 X5.065 Y-6.196
G1 F1800 X10.399 Y-11.53 E124.00415
G0 F7200 X10.193 Y-11.89
G1 F1800 X4.888 Y-6.585 E124.37845
G0 F7200 X4.709 Y-6.972
G1 F1800 X9.914 Y-12.177 E124.74569
G0 F7200 X9.62 Y-12.448
G1 F1800 X4.529 Y-7.357 E125.10489
G0 F7200 X4.349 Y-7.743
G1 F1800 X9.215 Y-12.609 E125.44821
G0 F7200 X8.756 Y-12.716
G1 F1800 X4.169 Y-8.128 E125.77189
G0 F7200 X3.989 Y-8.514
G1 F1800 X5.035 Y-9.56 E125.84569
G1 X5.079 Y-9.604
G1 X8.319 Y-12.844 E126.07429
G0 F7200 X7.894 Y-12.986
G1 F1800 X4.722 Y-9.813 E126.29812
G0 F7200 X4.367 Y-10.023
G1 F1800 X7.473 Y-13.13 E126.5173
G0 F7200 X7.051 Y-13.273
G1 F1800 X4.01 Y-10.233 E126.73183
G0 F7200 X3.654 Y-10.442
G1 F1800 X6.632 Y-13.42 E126.94194
G0 F7200 X6.214 Y-13.567
G1 F1800 X3.297 Y-10.651 E127.14772
G0 F7200 X2.901 Y-10.821
G1 F1800 X5.795 Y-13.715 E127.3519
G0 F7200 X5.377 Y-13.862
G1 F1800 X2.476 Y-10.962 E127.55655
G0 F7200 X2.052 Y-11.102
G1 F1800 X4.942 Y-13.993 E127.76049
G0 F7200 X4.496 Y-14.113
G1 F1800 X1.148 Y-10.764 E127.99674
G1 X1.078 Y-10.694
G0 F7200 X0.335 Y-9.952
G1 F1800 X-11.653 Y2.036 E128.84256
G0 F7200 X-12.049 Y1.867
G1 F1800 X4.05 Y-14.232 E129.97843
G0 F7200 X3.598 Y-14.346
G1 F1800 X-12.456 Y1.708 E131.11113
G0 F7200 X-12.853 Y1.54
G1 F1800 X3.145 Y-14.459 E132.23991
G0 F7200 X2.692 Y-14.572
G1 F1800 X-13.251 Y1.372 E133.36481
G0 F7200 X-13.649 Y1.204
G1 F1800 X2.239 Y-14.684 E134.48579
G0 F7200 X1.786 Y-14.796
G1 F1800 X-14.043 Y1.033 E135.60262
G0 F7200 X-14.436 Y0.86
G1 F1800 X1.333 Y-14.91 E136.71524
G0 F7200 X0.88 Y-15.022
G1 F1800 X-14.83 Y0.688 E137.82366
G0 F7200 X-15.202 Y0.494
G1 F1800 X0.424 Y-15.132 E138.92616
G0 F7200 X-0.033 Y-15.24
G1 F1800 X-15.437 Y0.164 E140.013
G0 F7200 X-15.652 Y-.186
G1 F1800 X-.463 Y-15.375 E141.08466
G0 F7200 X-.917 Y-15.487
G1 F1800 X-15.814 Y-.59 E142.13573
G0 F7200 X-15.96 Y-1.009
G1 F1800 X-1.371 Y-15.599 E143.1651
G0 F7200 X-1.825 Y-15.711
G1 F1800 X-16.058 Y-1.477 E144.16935
G0 F7200 X-16.085 Y-2.016
G1 F1800 X-2.279 Y-15.822 E145.14343
G0 F7200 X-2.804 Y-15.863
G1 F1800 X-15.124 Y-3.543 E146.01268
G1 X-15.194 Y-3.473
G0 F7200 X-12.953 Y-6.279
G1 F1800 X-5.074 Y-14.159 E146.56862
G1 X-5.004 Y-14.229
G0 F7200 X-6.95 Y-12.848
G1 F1800 X-12.842 Y-6.956 E146.98433
G0 F7200 X-12.949 Y-7.415
G1 F1800 X-7.422 Y-12.942 E147.37429
G0 F7200 X-7.899 Y-13.03
G1 F1800 X-13.186 Y-7.744 E147.74728
G0 F7200 X-13.452 Y-8.043
G1 F1800 X-8.379 Y-13.116 E148.10521
G0 F7200 X-8.857 Y-13.203
G1 F1800 X-13.674 Y-8.386 E148.44507
G0 F7200 X-13.85 Y-8.777
G1 F1800 X-9.335 Y-13.292 E148.76363
G0 F7200 X-9.82 Y-13.372
G1 F1800 X-14.016 Y-9.176 E149.05968
G0 F7200 X-14.134 Y-9.624
G1 F1800 X-10.342 Y-13.416 E149.32723
G0 F7200 X-10.837 Y-13.486
G1 F1800 X-14.251 Y-10.073 E149.56807
G0 F7200 X-14.341 Y-10.548
G1 F1800 X-11.327 Y-13.562 E149.78072
G0 F7200 X-11.817 Y-13.637
G1 F1800 X-14.345 Y-11.11 E149.95905
G0 F7200 X-14.263 Y-11.758
G1 F1800 X-12.457 Y-13.564 E150.08648
G1 X-12.387 Y-13.634
G0 F7200 X-5.596 Y-2.322
G1 F1800 X0.439 Y-8.359 E150.51235
G0 F7200 X0.3 Y-7.654
G1 F1800 X-4.722 Y-2.631 E150.86671
G1 X-4.792 Y-2.561
G0 F7200 X-3.88 Y-2.907
G1 F1800 X0.161 Y-6.95 E151.1519
G0 F7200 X0.022 Y-6.245
G1 F1800 X-3.061 Y-3.16 E151.36949
G1 X-3.131 Y-3.09
G0 F7200 X-2.19 Y-3.466
G1 F1800 X-.116 Y-5.54 E151.51582
G0 F7200 X-.255 Y-4.835
G1 F1800 X-1.214 Y-3.877 E151.58345
G1 X-1.284 Y-3.807
G0 F7200 X0.579 Y-9.064
G1 F1800 X-10.844 Y2.359 E152.3894
G0 F7200 X-11.257 Y2.206
G1 F1800 X0.464 Y-9.515 E153.21638
G1 X0.534 Y-9.585
G0 F7200 X-6.566 Y-1.352
G1 F1800 X-10.407 Y2.488 E153.48735
G0 F7200 X-9.983 Y2.629
G1 F1800 X-7.145 Y-.208 E153.68755
G1 X-7.075 Y-.278
G0 F7200 X-7.51 Y0.722
G1 F1800 X-9.595 Y2.807 E153.83466
G0 F7200 X-9.221 Y2.998
G1 F1800 X-7.737 Y1.514 E153.93937
G0 F7200 X-7.846 Y2.189
G1 F1800 X-8.925 Y3.268 E154.01549
G0 F7200 X-8.762 Y3.671
G1 F1800 X-7.736 Y2.645 E154.08788
G0 F7200 X-7.621 Y3.095
G1 F1800 X-8.596 Y4.07 E154.15668
G0 F7200 X-8.425 Y4.466
G1 F1800 X-7.464 Y3.505 E154.22448
G0 F7200 X-7.303 Y3.909
G1 F1800 X-8.251 Y4.857 E154.29137
G0 F7200 X-8.078 Y5.25
G1 F1800 X-7.105 Y4.276 E154.36005
G0 F7200 X-6.904 Y4.642
G1 F1800 X-7.906 Y5.644 E154.43075
G0 F7200 X-7.753 Y6.056
G1 F1800 X-6.671 Y4.974 E154.50709
G0 F7200 X-6.4 Y5.269
G1 F1800 X-7.6 Y6.469 E154.59176
G0 F7200 X-7.447 Y6.881
G1 F1800 X-6.11 Y5.544 E154.68609
G0 F7200 X-5.825 Y5.825
G1 F1800 X-7.143 Y7.143 E154.77908
G0 F7200 X-6.799 Y7.365
G1 F1800 X-5.511 Y6.077 E154.86996
G0 F7200 X-5.108 Y6.24
G1 F1800 X-6.422 Y7.554 E154.96267
G0 F7200 X-6.051 Y7.748
G1 F1800 X-4.705 Y6.402 E155.05763
G0 F7200 X-4.231 Y6.494
G1 F1800 X-5.69 Y7.952 E155.16054
G0 F7200 X-5.084 Y7.912
G1 F1800 X-3.753 Y6.581 E155.25445
G0 F7200 X-3.174 Y6.568
G1 F1800 X-4.382 Y7.776 E155.33968
G0 F7200 X-3.675 Y7.635
G1 F1800 X-2.577 Y6.537 E155.41715
G0 F7200 X-1.982 Y6.508
G1 F1800 X-2.975 Y7.5 E155.48717
G0 F7200 X-2.28 Y7.371
G1 F1800 X-1.379 Y6.47 E155.55074
G0 F7200 X-.76 Y6.416
G1 F1800 X-1.581 Y7.238 E155.60871
G0 F7200 X-.866 Y7.089
G1 F1800 X-.149 Y6.371 E155.65933
G0 F7200 X-.152 Y6.94
G1 F1800 X0.484 Y6.303 E155.70424
G0 F7200 X0.562 Y6.791
G1 F1800 X1.158 Y6.195 E155.74629
G0 F7200 X1.277 Y6.641
G1 F1800 X1.832 Y6.087 E155.78541
G0 F7200 X1.979 Y6.505
G1 F1800 X2.508 Y5.976 E155.82274
G0 F7200 X2.633 Y6.416
G1 F1800 X3.189 Y5.861 E155.86193
G0 F7200 X3.277 Y6.339
G1 F1800 X3.871 Y5.745 E155.90384
G0 F7200 X3.942 Y6.24
G1 F1800 X4.552 Y5.629 E155.94691
G0 F7200 X4.608 Y6.139
G1 F1800 X5.233 Y5.514 E155.99101
G0 F7200 X5.277 Y6.036
G1 F1800 X5.98 Y5.332 E156.04065
G0 F7200 X5.948 Y5.93
G1 F1800 X6.778 Y5.101 E156.09917
G1 X6.848 Y5.031
G0 F7200 X11.207 Y0.557
G0 X12.728 Y-.849
G1 F1800 X15.358 Y-3.478 E156.2847
G1 X15.428 Y-3.548
;MESH:NONMESH
G0 F600 X15.428 Y-3.548 Z1.5
G0 F7200 X4.675 Y-5.918
G0 X3.151 Y-5.228
;TIME_ELAPSED:112.798672
;LAYER:4
;TYPE:WALL-INNER
;MESH:bunny.stl
G1 F3600 X1.835 Y-3.477 E156.39398
G1 X1.796 Y-3.412 E156.39776
G1 X-2.336 Y-2.006 E156.61551
G1 X-3.6 Y-1.395 E156.68555
G1 X-4.972 Y-.858 E156.75906
G1 X-5.76 Y-.291 E156.80749
G1 X-6.238 Y0.024 E156.83605
G1 X-6.819 Y2.199 E156.94837
G1 X-6.803 Y2.432 E156.96002
G1 X-5.931 Y4.197 E157.05824
G1 X-5.356 Y4.906 E157.10378
G1 X-4.79 Y5.467 E157.14354
G1 X-4.34 Y5.647 E157.16772
G1 X-3.861 Y5.736 E157.19203
G1 X-2.551 Y5.666 E157.25747
G1 X0.194 Y5.48 E157.39474
G1 X1.515 Y5.378 E157.46084
G1 X2.411 Y5.236 E157.5061
G1 X3.865 Y4.989 E157.57968
G1 X5.496 Y4.559 E157.66383
G1 X6.957 Y4.003 E157.74182
G1 X7.479 Y3.587 E157.77512
G1 X7.711 Y3.172 E157.79884
G1 X7.907 Y2.491 E157.83419
G1 X7.81 Y2.131 E157.85279
G1 X7.624 Y1.618 E157.88002
G1 X7.572 Y1.513 E157.88586
G1 X7.114 Y0.806 E157.92789
G1 X7.04 Y0.613 E157.9382
G1 X6.463 Y-.318 E157.99285
G1 X6.203 Y-.89 E158.0242
G1 X5.798 Y-1.845 E158.07595
G1 X5.26 Y-3.005 E158.13974
G1 X4.998 Y-3.456 E158.16576
G1 X4.714 Y-3.55 E158.18069
G1 X4.404 Y-3.735 E158.1987
G1 X3.151 Y-5.228 E158.29594
G0 F7200 X3.149 Y-5.327
G0 X12.214 Y-9.146
G0 X12.298 Y-9.199
G1 F3600 X14.31 Y-7.697 E158.42121
G1 X15.433 Y-6.509 E158.50276
G1 X15.888 Y-5.527 E158.55676
G1 X16.611 Y-3.691 E158.6552
G1 X16.488 Y-2.556 E158.71216
G1 X14.894 Y-1.12 E158.8192
G1 X14.345 Y-.579 E158.85765
G1 X12.012 Y0.201 E158.98038
G1 X11.27 Y1.036 E159.03611
G1 X10.504 Y4.57 E159.21651
G1 X10.458 Y4.815 E159.22895
G1 X9.06 Y6.067 E159.32258
G1 X8.23 Y6.252 E159.365
G1 X6.648 Y6.516 E159.44502
G1 X5.142 Y6.738 E159.52097
G1 X2.744 Y7.024 E159.64145
G1 X1.647 Y7.189 E159.6968
G1 X-1.232 Y7.79 E159.84353
G1 X-1.703 Y7.877 E159.86742
G1 X-3.466 Y8.226 E159.95709
G1 X-4.142 Y8.35 E159.99138
G1 X-4.869 Y8.532 E160.02877
G1 X-5.429 Y8.568 E160.05676
G1 X-5.9 Y8.521 E160.08038
G1 X-6.057 Y8.436 E160.08928
G1 X-7.444 Y7.491 E160.17302
G1 X-7.683 Y7.204 E160.19165
G1 X-8.043 Y6.795 E160.21883
G1 X-8.435 Y5.74 E160.27498
G1 X-8.689 Y5.025 E160.31284
G1 X-8.798 Y4.569 E160.33623
G1 X-9.061 Y3.932 E160.37061
G1 X-9.309 Y3.433 E160.39841
G1 X-10.123 Y3.004 E160.44432
G1 X-10.777 Y2.783 E160.47876
G1 X-11.845 Y2.467 E160.53432
G1 X-12.255 Y2.292 E160.55656
G1 X-13.569 Y1.855 E160.62565
G1 X-14.342 Y1.53 E160.66749
G1 X-15.027 Y1.232 E160.70475
G1 X-15.374 Y1.072 E160.72382
G1 X-15.664 Y0.672 E160.74847
G1 X-16.104 Y0.036 E160.78705
G1 X-16.271 Y-.272 E160.80453
G1 X-16.441 Y-.731 E160.82895
G1 X-16.576 Y-1.471 E160.86648
G1 X-16.658 Y-2.06 E160.89615
G1 X-16.445 Y-2.661 E160.92796
G1 X-16.273 Y-2.853 E160.94082
G1 X-15.9 Y-3.306 E160.97009
G1 X-15.185 Y-4.219 E161.02795
G1 X-14.187 Y-5.315 E161.1019
G1 X-13.859 Y-5.661 E161.12569
G1 X-13.266 Y-6.306 E161.1694
G1 X-13.136 Y-6.67 E161.18868
G1 X-13.256 Y-7.213 E161.21643
G1 X-13.926 Y-7.965 E161.26667
G1 X-14.261 Y-8.295 E161.29014
G1 X-14.502 Y-8.777 E161.31702
G1 X-14.771 Y-9.539 E161.35734
G1 X-14.833 Y-10.321 E161.39647
G1 X-14.87 Y-10.853 E161.42308
G1 X-14.915 Y-11.433 E161.4521
G1 X-14.89 Y-11.818 E161.47135
G1 X-14.789 Y-12.237 E161.49285
G1 X-14.674 Y-12.434 E161.50423
G1 X-13.853 Y-13.722 E161.58044
G1 X-13.816 Y-13.771 E161.5835
G1 X-12.724 Y-14.219 E161.64239
G1 X-12.55 Y-14.252 E161.65122
G1 X-11.952 Y-14.392 E161.68186
G1 X-11.645 Y-14.346 E161.69735
G1 X-10.891 Y-14.202 E161.73565
G1 X-9.803 Y-13.912 E161.79182
G1 X-9.516 Y-13.818 E161.80689
G1 X-7.943 Y-13.53 E161.88667
G1 X-6.969 Y-13.341 E161.93617
G1 X-6.3 Y-13.675 E161.97348
G1 X-5.92 Y-14.135 E162.00324
G1 X-5.102 Y-14.954 E162.06099
G1 X-5.057 Y-14.989 E162.06384
G1 X-3.417 Y-16.612 E162.17895
G1 X-2.295 Y-16.529 E162.23508
G1 X-1.982 Y-16.452 E162.25116
G1 X-1.138 Y-16.298 E162.29396
G1 X-.191 Y-15.954 E162.34423
G1 X0.578 Y-15.73 E162.38419
G1 X3.071 Y-15.143 E162.51197
G1 X3.664 Y-14.996 E162.54245
G1 X5.638 Y-14.464 E162.64444
G1 X7.895 Y-13.841 E162.76126
G1 X8.419 Y-13.713 E162.78817
G1 X8.867 Y-13.56 E162.81179
G1 X10.555 Y-12.852 E162.90311
G1 X10.57 Y-12.84 E162.90407
G1 X11.028 Y-12.384 E162.93631
G1 X11.36 Y-11.704 E162.97406
G1 X11.609 Y-11.275 E162.99881
G1 X12.057 Y-10.259 E163.05421
G1 X12.179 Y-9.79 E163.07839
G1 X12.298 Y-9.199 E163.10846
G0 F7200 X12.66 Y-9.428
;TYPE:WALL-OUTER
G1 F1800 X14.581 Y-7.993 E163.22809
G1 X15.768 Y-6.738 E163.31427
G1 X16.256 Y-5.685 E163.37217
G1 X17.02 Y-3.745 E163.4762
G1 X16.869 Y-2.361 E163.54565
G1 X15.168 Y-.829 E163.65986
G1 X14.561 Y-.23 E163.70241
G1 X12.24 Y0.546 E163.8245
G1 X11.639 Y1.223 E163.86967
G1 X10.896 Y4.65 E164.04461
G1 X10.83 Y4.998 E164.06228
G1 X10.781 Y5.062 E164.06631
G1 X9.25 Y6.434 E164.16887
G1 X8.296 Y6.647 E164.21764
G1 X6.714 Y6.911 E164.29766
G1 X5.2 Y7.134 E164.374
G1 X2.798 Y7.42 E164.49469
G1 X1.718 Y7.583 E164.54918
G1 X-1.15 Y8.181 E164.69534
G1 X-1.627 Y8.27 E164.71955
G1 X-3.394 Y8.62 E164.80942
G1 X-4.057 Y8.741 E164.84304
G1 X-4.806 Y8.929 E164.88157
G1 X-5.438 Y8.969 E164.91316
G1 X-6.018 Y8.911 E164.94224
G1 X-6.271 Y8.775 E164.95657
G1 X-7.716 Y7.79 E165.04382
G1 X-7.987 Y7.464 E165.06497
G1 X-8.392 Y7.005 E165.09551
G1 X-8.81 Y5.879 E165.15543
G1 X-9.073 Y5.14 E165.19457
G1 X-9.18 Y4.692 E165.21755
G1 X-9.425 Y4.098 E165.2496
G1 X-9.61 Y3.727 E165.27029
G1 X-10.281 Y3.373 E165.30813
G1 X-10.898 Y3.164 E165.34064
G1 X-11.979 Y2.845 E165.39687
G1 X-12.397 Y2.666 E165.41955
G1 X-13.709 Y2.23 E165.48853
G1 X-14.497 Y1.899 E165.53117
G1 X-15.187 Y1.598 E165.56873
G1 X-15.635 Y1.392 E165.59333
G1 X-15.993 Y0.9 E165.62368
G1 X-16.447 Y0.244 E165.66348
G1 X-16.635 Y-.103 E165.68317
G1 X-16.827 Y-.623 E165.71083
G1 X-16.972 Y-1.413 E165.7509
G1 X-17.068 Y-2.102 E165.78561
G1 X-16.796 Y-2.869 E165.82621
G1 X-16.577 Y-3.114 E165.8426
G1 X-16.212 Y-3.557 E165.87124
G1 X-15.494 Y-4.474 E165.92934
G1 X-14.483 Y-5.584 E166.00425
G1 X-14.151 Y-5.934 E166.02832
G1 X-13.615 Y-6.517 E166.06783
G1 X-13.551 Y-6.696 E166.07731
G1 X-13.624 Y-7.025 E166.09412
G1 X-14.216 Y-7.689 E166.1385
G1 X-14.589 Y-8.057 E166.16465
G1 X-14.869 Y-8.617 E166.19588
G1 X-15.161 Y-9.442 E166.23954
G1 X-15.171 Y-9.503 E166.24263
G1 X-15.232 Y-10.29 E166.28201
G1 X-15.269 Y-10.824 E166.30871
G1 X-15.316 Y-11.428 E166.33894
G1 X-15.287 Y-11.88 E166.36154
G1 X-15.164 Y-12.388 E166.38761
G1 X-15.02 Y-12.635 E166.40188
G1 X-14.18 Y-13.952 E166.47981
G1 X-14.07 Y-14.099 E166.48897
G1 X-12.839 Y-14.604 E166.55535
G1 X-12.633 Y-14.643 E166.56581
G1 X-11.966 Y-14.799 E166.59999
G1 X-11.586 Y-14.742 E166.61916
G1 X-10.81 Y-14.594 E166.65857
G1 X-9.686 Y-14.294 E166.71661
G1 X-9.418 Y-14.207 E166.73067
G1 X-7.867 Y-13.923 E166.80933
G1 X-7.026 Y-13.76 E166.85207
G1 X-6.555 Y-13.995 E166.87833
G1 X-6.22 Y-14.401 E166.90459
G1 X-5.37 Y-15.252 E166.9646
G1 X-5.321 Y-15.29 E166.96769
G1 X-3.568 Y-17.024 E167.09071
G1 X-2.234 Y-16.926 E167.15744
G1 X-1.898 Y-16.843 E167.17471
G1 X-1.035 Y-16.686 E167.21847
G1 X-0.067 Y-16.334 E167.26986
G1 X0.68 Y-16.117 E167.30867
G1 X3.167 Y-15.531 E167.43614
G1 X3.768 Y-15.382 E167.46703
G1 X5.744 Y-14.85 E167.56913
G1 X7.996 Y-14.228 E167.68568
G1 X8.534 Y-14.096 E167.71332
G1 X9.016 Y-13.931 E167.73874
G1 X10.76 Y-13.2 E167.83308
G1 X10.835 Y-13.14 E167.83787
G1 X11.358 Y-12.619 E167.8747
G1 X11.713 Y-11.893 E167.91502
G1 X11.965 Y-11.459 E167.94006
G1 X12.436 Y-10.39 E167.99834
G1 X12.569 Y-9.881 E168.02459
G1 X12.66 Y-9.428 E168.04764
G0 F7200 X12.82 Y-9.309
G0 X12.521 Y-8.909
G0 X3.15 Y-5.267
G0 X3.168 Y-4.585
G1 F1800 X2.167 Y-3.253 E168.13077
G1 X2.061 Y-3.076 E168.14106
G1 X1.969 Y-3.048 E168.14586
G1 X-2.184 Y-1.635 E168.36471
G1 X-3.437 Y-1.03 E168.43413
G1 X-4.779 Y-.504 E168.50604
G1 X-5.54 Y0.043 E168.5528
G1 X-5.891 Y0.274 E168.57376
G1 X-6.415 Y2.238 E168.67518
G1 X-6.409 Y2.326 E168.67958
G1 X-5.592 Y3.98 E168.77161
G1 X-5.059 Y4.637 E168.81382
G1 X-4.566 Y5.126 E168.84846
G1 X-4.228 Y5.261 E168.86662
G1 X-3.835 Y5.334 E168.88656
G1 X-2.575 Y5.267 E168.94951
G1 X0.165 Y5.081 E169.08653
G1 X1.468 Y4.98 E169.15173
G1 X2.346 Y4.841 E169.19608
G1 X3.78 Y4.598 E169.26864
G1 X5.373 Y4.178 E169.35083
G1 X6.756 Y3.651 E169.42467
G1 X7.168 Y3.323 E169.45094
G1 X7.339 Y3.017 E169.46843
G1 X7.492 Y2.488 E169.49591
G1 X7.428 Y2.252 E169.5081
G1 X7.256 Y1.776 E169.53336
G1 X7.224 Y1.712 E169.53693
G1 X6.755 Y0.988 E169.57996
G1 X6.68 Y0.791 E169.59048
G1 X6.107 Y-.132 E169.64468
G1 X5.839 Y-.725 E169.67715
G1 X5.432 Y-1.683 E169.72907
G1 X4.905 Y-2.82 E169.7916
G1 X4.728 Y-3.124 E169.80915
G1 X4.542 Y-3.186 E169.81893
G1 X4.143 Y-3.424 E169.84211
G1 X3.168 Y-4.585 E169.91775
G0 F7200 X3.048 Y-4.426
G0 X2.65 Y-4.727
G0 X3.134 Y-5.854
;TYPE:SKIN
G1 F1800 X1.542 Y-3.737 E170.04989
G1 X-2.484 Y-2.367 E170.26206
G1 X-3.758 Y-1.752 E170.33264
G1 X-5.16 Y-1.203 E170.40776
G1 X-5.975 Y-.617 E170.45784
G1 X-6.577 Y-.22 E170.49382
G1 X-7.213 Y2.162 E170.61682
G1 X-7.187 Y2.536 E170.63552
G1 X-6.261 Y4.409 E170.73976
G1 X-5.646 Y5.168 E170.7885
G1 X-5.008 Y5.8 E170.8333
G1 X-4.449 Y6.023 E170.86333
G1 X-3.886 Y6.128 E170.8919
G1 X-2.528 Y6.056 E170.95975
G1 X0.222 Y5.869 E171.09726
G1 X1.56 Y5.766 E171.16421
G1 X2.474 Y5.62 E171.21039
G1 X3.947 Y5.371 E171.28492
G1 X5.615 Y4.931 E171.37098
G1 X7.152 Y4.346 E171.45303
G1 X7.782 Y3.844 E171.49322
G1 X8.073 Y3.323 E171.52299
G1 X8.312 Y2.495 E171.56599
G1 X8.182 Y2.014 E171.59085
G1 X7.983 Y1.464 E171.62003
G1 X7.911 Y1.32 E171.62806
G1 X7.464 Y0.627 E171.6692
G1 X7.391 Y0.439 E171.67926
G1 X6.81 Y-.496 E171.73418
G1 X6.558 Y-1.052 E171.76464
G1 X6.155 Y-2.003 E171.81617
G1 X5.607 Y-3.186 E171.88121
G1 X5.261 Y-3.78 E171.91551
G1 X4.876 Y-3.907 E171.93573
G1 X4.662 Y-4.035 E171.94818
G1 X3.134 Y-5.854 E172.0667
G0 F7200 X10.911 Y0.853
G1 F1800 X10.122 Y4.492 E172.25246
G1 X10.098 Y4.613 E172.25862
G1 X8.874 Y5.709 E172.34059
G1 X8.154 Y5.87 E172.3774
G1 X6.591 Y6.13 E172.45644
G1 X5.095 Y6.35 E172.53188
G1 X2.692 Y6.638 E172.65263
G1 X1.578 Y6.805 E172.70883
G1 X-1.303 Y7.406 E172.85565
G1 X-1.777 Y7.494 E172.87971
G1 X-3.536 Y7.842 E172.96916
G1 X-4.224 Y7.968 E173.00406
G1 X-4.924 Y8.144 E173.04007
G1 X-5.427 Y8.176 E173.06521
G1 X-5.784 Y8.141 E173.08311
G1 X-5.852 Y8.104 E173.08697
G1 X-7.178 Y7.2 E173.16704
G1 X-7.704 Y6.589 E173.20726
G1 X-8.07 Y5.604 E173.25969
G1 X-8.312 Y4.921 E173.29584
G1 X-8.426 Y4.448 E173.32011
G1 X-8.706 Y3.77 E173.35671
G1 X-9.016 Y3.146 E173.39147
G1 X-9.969 Y2.645 E173.44518
G1 X-10.66 Y2.411 E173.48158
G1 X-11.711 Y2.099 E173.53628
G1 X-12.117 Y1.927 E173.55828
G1 X-13.433 Y1.489 E173.62747
G1 X-14.19 Y1.171 E173.66844
G1 X-14.811 Y0.901 E173.70222
G1 X-15.119 Y0.76 E173.71912
G1 X-15.348 Y0.444 E173.73859
G1 X-15.768 Y-.163 E173.77541
G1 X-15.916 Y-.434 E173.79082
G1 X-16.063 Y-.833 E173.81203
G1 X-16.192 Y-1.541 E173.84794
G1 X-16.259 Y-2.018 E173.87197
G1 X-16.103 Y-2.46 E173.89535
G1 X-15.977 Y-2.599 E173.90471
G1 X-15.596 Y-3.062 E173.93463
G1 X-14.896 Y-3.956 E173.99128
G1 X-13.904 Y-5.046 E174.06481
G1 X-13.574 Y-5.395 E174.08877
G1 X-12.925 Y-6.101 E174.13661
G1 X-12.731 Y-6.645 E174.16543
G1 X-12.897 Y-7.396 E174.2038
G1 X-13.643 Y-8.234 E174.25977
G1 X-13.939 Y-8.525 E174.28048
G1 X-14.141 Y-8.928 E174.30297
G1 X-14.387 Y-9.624 E174.3398
G1 X-14.429 Y-10.145 E174.36588
G1 X-14.482 Y-10.882 E174.40274
G1 X-14.524 Y-11.424 E174.42986
G1 X-14.502 Y-11.764 E174.44686
G1 X-14.423 Y-12.09 E174.4636
G1 X-14.345 Y-12.224 E174.47133
G1 X-13.561 Y-13.454 E174.5441
G1 X-12.611 Y-13.844 E174.59534
G1 X-12.47 Y-13.87 E174.60249
G1 X-11.936 Y-13.995 E174.62985
G1 X-11.711 Y-13.961 E174.6412
G1 X-10.981 Y-13.822 E174.67828
G1 X-9.912 Y-13.537 E174.73347
G1 X-9.612 Y-13.439 E174.74922
G1 X-7.961 Y-13.137 E174.83295
G1 X-6.913 Y-12.933 E174.88622
G1 X-6.052 Y-13.363 E174.93423
G1 X-5.631 Y-13.873 E174.96723
G1 X-4.848 Y-14.657 E175.02251
G1 X-4.799 Y-14.695 E175.0256
G1 X-3.267 Y-16.211 E175.13313
G1 X-2.359 Y-16.143 E175.17856
G1 X-2.064 Y-16.07 E175.19372
G1 X-1.24 Y-15.92 E175.2355
G1 X-.312 Y-15.583 E175.28476
G1 X0.479 Y-15.353 E175.32586
G1 X2.981 Y-14.763 E175.45411
G1 X3.566 Y-14.619 E175.48416
G1 X5.534 Y-14.088 E175.58586
G1 X7.797 Y-13.463 E175.70299
G1 X8.31 Y-13.338 E175.72933
G1 X8.741 Y-13.191 E175.75205
G1 X10.336 Y-12.522 E175.83834
G1 X10.704 Y-12.154 E175.8643
G1 X11.015 Y-11.52 E175.89953
G1 X11.258 Y-11.102 E175.92366
G1 X11.687 Y-10.131 E175.97662
G1 X11.801 Y-9.692 E175.99924
G1 X11.945 Y-8.976 E176.03568
G1 X14.051 Y-7.404 E176.16679
G1 X15.108 Y-6.287 E176.24352
G1 X15.525 Y-5.384 E176.29314
G1 X16.213 Y-3.638 E176.38677
G1 X16.116 Y-2.746 E176.43153
G1 X14.627 Y-1.404 E176.53154
G1 X14.138 Y-.921 E176.56583
G1 X11.79 Y-.136 E176.68934
G1 X10.911 Y0.853 E176.75536
G0 F7200 X9.3 Y-12.761
G1 F1800 X11.14 Y-10.921 E176.88518
G1 X11.21 Y-10.851
G0 F7200 X11.547 Y-9.948
G1 F1800 X8.368 Y-13.127 E177.10947
G0 F7200 X7.602 Y-13.328
G1 F1800 X11.712 Y-9.217 E177.39949
G1 X11.782 Y-9.147
G0 F7200 X12.871 Y-8.058
G1 F1800 X15.137 Y-5.793 E177.55933
G1 X15.207 Y-5.723
G0 F7200 X15.558 Y-4.806
G1 F1800 X6.82 Y-13.543 E178.17581
G1 X6.75 Y-13.613
G0 F7200 X6.038 Y-13.76
G1 F1800 X15.926 Y-3.872 E178.87346
G0 F7200 X15.988 Y-3.244
G1 F1800 X5.259 Y-13.973 E179.63045
G1 X5.189 Y-14.043
G0 F7200 X4.484 Y-14.183
G1 F1800 X15.885 Y-2.782 E180.43485
G0 F7200 X15.588 Y-2.513
G1 F1800 X3.709 Y-14.392 E181.27298
G0 F7200 X2.953 Y-14.582
G1 F1800 X15.29 Y-2.245 E182.14342
G0 F7200 X14.992 Y-1.977
G1 F1800 X2.212 Y-14.758 E183.04516
G0 F7200 X1.471 Y-14.933
G1 F1800 X14.695 Y-1.709 E183.97818
G0 F7200 X14.402 Y-1.436
G1 F1800 X0.731 Y-15.108 E184.94278
G1 X0.661 Y-15.178
G0 F7200 X-0.043 Y-15.317
G1 F1800 X14.118 Y-1.155 E185.94195
G0 F7200 X13.732 Y-.975
G1 F1800 X-.894 Y-15.602 E186.97393
G1 X-.964 Y-15.672
G0 F7200 X-1.673 Y-15.815
G1 F1800 X13.308 Y-.833 E188.03095
G0 F7200 X12.884 Y-.692
G1 F1800 X-2.387 Y-15.963 E189.10841
G0 F7200 X-2.999 Y-16.01
G1 F1800 X12.459 Y-.55 E190.19912
G0 F7200 X12.035 Y-.409
G1 F1800 X-3.39 Y-15.835 E191.28747
G0 F7200 X-3.674 Y-15.554
G1 F1800 X11.64 Y-.239 E192.368
G0 F7200 X11.373 Y0.06
G1 F1800 X-3.959 Y-15.272 E193.44975
G0 F7200 X-4.243 Y-14.991
G1 F1800 X11.107 Y0.359 E194.53278
G0 F7200 X10.841 Y0.659
G1 F1800 X-4.526 Y-14.709 E195.61704
G0 F7200 X-4.816 Y-14.432
G1 F1800 X10.68 Y1.064 E196.71036
G0 F7200 X10.58 Y1.529
G1 F1800 X5.745 Y-3.305 E197.05146
G1 X5.675 Y-3.375
G0 F7200 X4.992 Y-4.058
G1 F1800 X4.272 Y-4.778 E197.10226
G1 X4.202 Y-4.848
G0 F7200 X2.79 Y-5.695
G1 F1800 X-5.381 Y-13.867 E197.67881
G0 F7200 X-5.098 Y-14.149
G1 F1800 X3.032 Y-6.018 E198.25246
G1 X3.102 Y-5.948
G0 F7200 X2.546 Y-5.372
G1 F1800 X-5.649 Y-13.568 E198.83069
G0 F7200 X-5.904 Y-13.258
G1 F1800 X2.304 Y-5.049 E199.40985
G0 F7200 X2.061 Y-4.726
G1 F1800 X-6.265 Y-13.053 E199.99733
G0 F7200 X-6.642 Y-12.865
G1 F1800 X1.818 Y-4.403 E200.5943
G0 F7200 X1.576 Y-4.08
G1 F1800 X-7.135 Y-12.792 E201.20894
G0 F7200 X-7.837 Y-12.928
G1 F1800 X1.26 Y-3.831 E201.85078
G0 F7200 X0.837 Y-3.687
G1 F1800 X-8.532 Y-13.058 E202.51189
G0 F7200 X-9.224 Y-13.184
G1 F1800 X0.416 Y-3.543 E203.19208
G0 F7200 X-0.005 Y-3.399
G1 F1800 X-9.97 Y-13.365 E203.8952
G0 F7200 X-10.742 Y-13.57
G1 F1800 X-.427 Y-3.256 E204.62294
G0 F7200 X-.849 Y-3.112
G1 F1800 X-11.468 Y-13.731 E205.37217
G0 F7200 X-12.078 Y-13.775
G1 F1800 X-1.272 Y-2.969 E206.13459
G0 F7200 X-1.694 Y-2.825
G1 F1800 X-12.541 Y-13.672 E206.8999
G0 F7200 X-12.945 Y-13.511
G1 F1800 X-2.116 Y-2.682 E207.66395
G0 F7200 X-2.538 Y-2.538
G1 F1800 X-13.346 Y-13.346 E208.42651
G0 F7200 X-13.608 Y-13.043
G1 F1800 X-2.921 Y-2.355 E209.18057
G0 F7200 X-3.302 Y-2.171
G1 F1800 X-13.828 Y-12.697 E209.92324
G0 F7200 X-14.049 Y-12.352
G1 F1800 X-3.684 Y-1.987 E210.65454
G0 F7200 X-4.081 Y-1.818
G1 F1800 X-14.26 Y-11.997 E211.37273
G0 F7200 X-14.337 Y-11.508
G1 F1800 X-4.488 Y-1.659 E212.06763
G0 F7200 X-4.894 Y-1.5
G1 F1800 X-14.303 Y-10.909 E212.73148
G0 F7200 X-14.259 Y-10.299
G1 F1800 X-5.29 Y-1.33 E213.36429
G0 F7200 X-5.619 Y-1.093
G1 F1800 X-14.211 Y-9.685 E213.97051
G1 X-14.281 Y-9.755
G0 F7200 X-13.857 Y-8.766
G1 F1800 X-5.948 Y-.857 E214.52853
G0 F7200 X-6.285 Y-.628
G1 F1800 X-12.616 Y-6.959 E214.97522
G0 F7200 X-12.626 Y-6.403
G1 F1800 X-6.626 Y-.403 E215.39855
G0 F7200 X-6.814 Y-0.026
G1 F1800 X-12.78 Y-5.992 E215.81948
G0 F7200 X-13.051 Y-5.697
G1 F1800 X-6.933 Y0.42 E216.2511
G0 F7200 X-7.052 Y0.866
G1 F1800 X-13.323 Y-5.403 E216.69349
G0 F7200 X-13.596 Y-5.11
G1 F1800 X-7.172 Y1.313 E217.1467
G0 F7200 X-7.29 Y1.759
G1 F1800 X-13.867 Y-4.816 E217.61067
G0 F7200 X-14.137 Y-4.52
G1 F1800 X-7.387 Y2.228 E218.08685
G1 X-7.317 Y2.298
G0 F7200 X-7.131 Y3.05
G1 F1800 X-14.407 Y-4.224 E218.60014
G0 F7200 X-14.676 Y-3.928
G1 F1800 X-6.578 Y4.169 E219.17146
G1 X-6.508 Y4.239
G0 F7200 X-8.135 Y4.874
G1 F1800 X-5.04 Y7.969 E219.38983
G0 F7200 X-4.575 Y7.869
G1 F1800 X-8.394 Y4.051 E219.65925
G1 X-8.464 Y3.981
G0 F7200 X-7.822 Y5.753
G1 F1800 X-5.598 Y7.977 E219.81616
G1 X-5.528 Y8.047
G0 F7200 X-4.115 Y7.764
G1 F1800 X-15.18 Y-3.3 E220.59682
G0 F7200 X-15.429 Y-2.983
G1 F1800 X-10.001 Y2.443 E220.97973
G1 X-9.931 Y2.513
G0 F7200 X-10.842 Y2.168
G1 F1800 X-15.683 Y-2.672 E221.32125
G0 F7200 X-15.944 Y-2.368
G1 F1800 X-11.647 Y1.928 E221.62439
G1 X-11.577 Y1.998
G0 F7200 X-12.549 Y1.592
G1 F1800 X-16.063 Y-1.921 E221.87229
G0 F7200 X-15.955 Y-1.247
G1 F1800 X-13.401 Y1.306 E222.05245
G1 X-13.331 Y1.376
G0 F7200 X-14.383 Y0.89
G1 F1800 X-15.712 Y-.439 E222.14622
G1 X-15.782 Y-.509
G0 F7200 X-14.931 Y-3.618
G1 F1800 X-3.637 Y7.676 E222.94307
G0 F7200 X-3.164 Y7.583
G1 F1800 X-4.587 Y6.16 E223.04347
G0 F7200 X-3.874 Y6.308
G1 F1800 X-2.691 Y7.49 E223.1269
G0 F7200 X-2.219 Y7.397
G1 F1800 X-3.337 Y6.279 E223.20579
G0 F7200 X-2.8 Y6.25
G1 F1800 X-1.746 Y7.304 E223.28015
G0 F7200 X-1.27 Y7.214
G1 F1800 X-2.266 Y6.218 E223.35042
G0 F7200 X-1.737 Y6.182
G1 F1800 X-.802 Y7.117 E223.41639
G0 F7200 X-.334 Y7.019
G1 F1800 X-1.207 Y6.146 E223.47799
G0 F7200 X-.678 Y6.11
G1 F1800 X0.132 Y6.921 E223.53517
G0 F7200 X0.601 Y6.823
G1 F1800 X-.148 Y6.074 E223.58802
G0 F7200 X0.379 Y6.036
G1 F1800 X1.069 Y6.725 E223.63667
G0 F7200 X1.537 Y6.628
G1 F1800 X0.905 Y5.996 E223.68126
G0 F7200 X1.43 Y5.955
G1 F1800 X2.028 Y6.554 E223.72349
G0 F7200 X2.52 Y6.48
G1 F1800 X1.928 Y5.888 E223.76525
G0 F7200 X2.416 Y5.81
G1 F1800 X3.022 Y6.416 E223.80801
G0 F7200 X3.527 Y6.355
G1 F1800 X2.901 Y5.729 E223.85218
G0 F7200 X3.384 Y5.647
G1 F1800 X4.032 Y6.295 E223.8979
G0 F7200 X4.537 Y6.234
G1 F1800 X3.869 Y5.566 E223.94503
G0 F7200 X4.325 Y5.456
G1 F1800 X5.042 Y6.173 E223.99562
G0 F7200 X5.536 Y6.102
G1 F1800 X4.772 Y5.338 E224.04952
G0 F7200 X5.22 Y5.22
G1 F1800 X6.029 Y6.029 E224.1066
G0 F7200 X6.523 Y5.957
G1 F1800 X5.668 Y5.102 E224.16693
G0 F7200 X6.078 Y4.946
G1 F1800 X7.008 Y5.877 E224.23258
G0 F7200 X7.493 Y5.796
G1 F1800 X6.488 Y4.791 E224.30349
G0 F7200 X6.898 Y4.635
G1 F1800 X7.978 Y5.716 E224.37972
G0 F7200 X8.447 Y5.618
G1 F1800 X7.293 Y4.464 E224.46114
G0 F7200 X7.607 Y4.213
G1 F1800 X8.866 Y5.472 E224.54997
G0 F7200 X9.165 Y5.205
G1 F1800 X7.921 Y3.961 E224.63774
G0 F7200 X8.123 Y3.598
G1 F1800 X9.463 Y4.938 E224.73229
G0 F7200 X9.762 Y4.671
G1 F1800 X8.293 Y3.202 E224.83593
G0 F7200 X8.42 Y2.763
G1 F1800 X9.975 Y4.319 E224.94568
G0 F7200 X10.076 Y3.853
G1 F1800 X8.415 Y2.193 E225.06284
G1 X8.345 Y2.123
G0 F7200 X8.114 Y1.325
G1 F1800 X10.177 Y3.389 E225.20843
G0 F7200 X10.277 Y2.923
G1 F1800 X7.291 Y-0.062 E225.41907
G1 X7.221 Y-.132
G0 F7200 X6.669 Y-1.25
G1 F1800 X10.378 Y2.459 E225.68076
G0 F7200 X10.479 Y1.994
G1 F1800 X6.24 Y-2.245 E225.97985
G1 X6.17 Y-2.315
;MESH:NONMESH
G0 F600 X6.17 Y-2.315 Z1.8
G0 F7200 X6.392 Y-.716
G0 X5.392 Y-.262
;TIME_ELAPSED:160.330590
;LAYER:5
;TYPE:WALL-INNER
;MESH:bunny.stl
G1 F3600 X5.216 Y-.289 E225.98873
G1 X3.946 Y-.396 E226.05232
G1 X3.144 Y0.45 E226.11047
G1 X-.555 Y0.658 E226.29531
G1 X-.779 Y0.685 E226.30657
G1 X-1.424 Y0.833 E226.33958
G1 X-1.557 Y1 E226.35023
G1 X-1.7 Y0.894 E226.35911
G1 X-2.808 Y2.376 E226.45143
G1 X-3.359 Y5.255 E226.59767
G1 X2.997 Y4.765 E226.91571
G1 X3.81 Y4.58 E226.95731
G1 X4.892 Y4.282 E227.0133
G1 X5.229 Y4.096 E227.03251
G1 X6.23 Y3.713 E227.08598
G1 X6.6 Y3.303 E227.11353
G1 X7.065 Y2.853 E227.14581
G1 X7.21 Y2.36 E227.17145
G1 X6.616 Y1.026 E227.2443
G1 X6.342 Y0.446 E227.27631
G1 X5.898 Y-.44 E227.32575
G1 X5.392 Y-.262 E227.35251
G0 F7200 X5.383 Y-.361
G0 X12.667 Y-9.291
G0 X12.744 Y-9.354
G1 F3600 X13.492 Y-8.865 E227.3971
G1 X14.038 Y-8.542 E227.42875
G1 X15.57 Y-7.399 E227.52411
G1 X16.044 Y-6.898 E227.55851
G1 X16.232 Y-6.493 E227.58079
G1 X17.269 Y-3.859 E227.72202
G1 X17.08 Y-2.117 E227.80944
G1 X16.513 Y-1.606 E227.84752
G1 X15.224 Y-.637 E227.92797
G1 X14.918 Y-.56 E227.94371
G1 X12.31 Y0.311 E228.08089
G1 X11.37 Y1.367 E228.15142
G1 X10.933 Y3.388 E228.25458
G1 X10.672 Y4.756 E228.32406
G1 X10.453 Y5.045 E228.34215
G1 X9.266 Y6.109 E228.42168
G1 X7.687 Y6.462 E228.5024
G1 X6.99 Y6.571 E228.5376
G1 X3.953 Y6.925 E228.69014
G1 X3.088 Y7.029 E228.73361
G1 X1.379 Y7.286 E228.81983
G1 X0.015 Y7.57 E228.88934
G1 X-.894 Y7.756 E228.93563
G1 X-1.758 Y7.939 E228.97969
G1 X-2.74 Y8.133 E229.02963
G1 X-3.73 Y8.315 E229.07985
G1 X-4.481 Y8.503 E229.11847
G1 X-4.731 Y8.551 E229.13117
G1 X-5.065 Y8.554 E229.14784
G1 X-5.601 Y8.499 E229.17472
G1 X-5.839 Y8.448 E229.18686
G1 X-7.154 Y7.552 E229.26625
G1 X-7.551 Y7.076 E229.29717
G1 X-8.142 Y6.405 E229.34178
G1 X-8.39 Y5.735 E229.37742
G1 X-8.56 Y5.261 E229.40255
G1 X-8.685 Y4.728 E229.42986
G1 X-8.746 Y4.397 E229.44665
G1 X-8.878 Y4.056 E229.4649
G1 X-9.232 Y3.331 E229.50515
G1 X-10.006 Y2.908 E229.54915
G1 X-10.384 Y2.774 E229.56916
G1 X-11.019 Y2.598 E229.60204
G1 X-12.095 Y2.252 E229.65842
G1 X-13.457 Y1.807 E229.72991
G1 X-14.525 Y1.451 E229.78607
G1 X-15.164 Y1.176 E229.82078
G1 X-15.511 Y0.72 E229.84937
G1 X-15.622 Y0.569 E229.85872
G1 X-15.94 Y0.124 E229.88601
G1 X-16.348 Y-.649 E229.92961
G1 X-16.354 Y-.679 E229.93114
G1 X-16.423 Y-1.201 E229.95741
G1 X-16.535 Y-1.775 E229.98659
G1 X-16.497 Y-2.442 E230.01992
G1 X-16.286 Y-2.725 E230.03753
G1 X-16.111 Y-2.889 E230.04949
G1 X-15.378 Y-3.779 E230.10702
G1 X-15.203 Y-4.001 E230.12112
G1 X-14.776 Y-4.472 E230.15284
G1 X-14.03 Y-5.282 E230.20778
G1 X-13.575 Y-5.666 E230.23748
G1 X-13.4 Y-5.993 E230.25598
G1 X-13.008 Y-6.416 E230.28475
G1 X-12.959 Y-6.789 E230.30352
G1 X-13.022 Y-7.218 E230.32516
G1 X-13.495 Y-7.731 E230.35997
G1 X-13.558 Y-7.805 E230.36482
G1 X-14.457 Y-8.691 E230.42779
G1 X-14.61 Y-9.064 E230.4479
G1 X-14.739 Y-9.881 E230.48917
G1 X-14.832 Y-10.739 E230.53223
G1 X-14.848 Y-11.392 E230.56481
G1 X-14.793 Y-12.177 E230.60407
G1 X-13.758 Y-13.699 E230.6959
G1 X-13.692 Y-13.743 E230.69986
G1 X-12.883 Y-14.174 E230.74559
G1 X-12.284 Y-14.421 E230.77791
G1 X-11.952 Y-14.5 E230.79494
G1 X-11.456 Y-14.405 E230.82014
G1 X-10.899 Y-14.256 E230.8489
G1 X-8.974 Y-13.632 E230.94986
G1 X-8.411 Y-13.529 E230.97841
G1 X-7.05 Y-13.264 E231.04759
G1 X-6.196 Y-13.691 E231.09523
G1 X-5.867 Y-14.088 E231.12095
G1 X-5.671 Y-14.45 E231.14149
G1 X-5.135 Y-15.017 E231.18041
G1 X-3.981 Y-16.159 E231.26141
G1 X-3.528 Y-16.515 E231.29016
G1 X-2.949 Y-16.663 E231.31997
G1 X-2.172 Y-16.607 E231.35884
G1 X-1.591 Y-16.522 E231.38813
G1 X-.948 Y-16.305 E231.42199
G1 X-.167 Y-16.022 E231.46343
G1 X0.957 Y-15.697 E231.5218
G1 X1.083 Y-15.654 E231.52845
G1 X3.41 Y-15.051 E231.64838
G1 X4.928 Y-14.669 E231.72647
G1 X6.258 Y-14.302 E231.7953
G1 X7.465 Y-13.948 E231.85806
G1 X8.079 Y-13.816 E231.88939
G1 X9.029 Y-13.678 E231.93728
G1 X9.376 Y-13.505 E231.95663
G1 X10.523 Y-13.071 E232.01781
G1 X11.052 Y-12.723 E232.0494
G1 X11.363 Y-12.458 E232.06979
G1 X11.703 Y-11.779 E232.10767
G1 X12.502 Y-9.971 E232.20629
G1 X12.744 Y-9.354 E232.23935
G0 F7200 X12.667 Y-9.291
G0 X-1.705 Y0.855
G0 X-2.844 Y2.36
G0 X-3.358 Y4.722
G0 X-2.868 Y4.816
;TYPE:WALL-OUTER
G1 F1800 X2.937 Y4.368 E232.52983
G1 X3.713 Y4.192 E232.56953
G1 X4.74 Y3.909 E232.62267
G1 X5.065 Y3.73 E232.64118
G1 X5.997 Y3.374 E232.69096
G1 X6.314 Y3.022 E232.71459
G1 X6.711 Y2.639 E232.74211
G1 X6.785 Y2.388 E232.75517
G1 X6.252 Y1.193 E232.82045
G1 X5.982 Y0.621 E232.852
G1 X5.698 Y0.054 E232.88364
G1 X5.43 Y0.148 E232.89781
G1 X5.169 Y0.108 E232.91098
G1 X4.104 Y0.019 E232.9643
G1 X3.325 Y0.84 E233.02077
G1 X-.52 Y1.057 E233.2129
G1 X-.71 Y1.08 E233.22245
G1 X-1.199 Y1.192 E233.24748
G1 X-1.486 Y1.551 E233.27041
G1 X-1.618 Y1.453 E233.27861
G1 X-2.432 Y2.542 E233.34644
G1 X-2.868 Y4.816 E233.46196
G0 F7200 X-2.669 Y4.801
G0 X-2.632 Y5.299
G0 X-9.297 Y3.183
G0 X-9.536 Y3.621
G1 F1800 X-10.17 Y3.274 E233.49801
G1 X-10.504 Y3.156 E233.51569
G1 X-11.13 Y2.983 E233.54809
G1 X-12.218 Y2.632 E233.60512
G1 X-13.581 Y2.187 E233.67666
G1 X-14.671 Y1.823 E233.73399
G1 X-15.27 Y1.567 E233.76649
G1 X-15.419 Y1.501 E233.77462
G1 X-15.829 Y0.962 E233.80841
G1 X-15.944 Y0.806 E233.81807
G1 X-16.275 Y0.343 E233.84647
G1 X-16.502 Y-0.049 E233.86907
G1 X-16.73 Y-.521 E233.89522
G1 X-16.75 Y-.62 E233.90026
G1 X-16.818 Y-1.136 E233.92623
G1 X-16.937 Y-1.744 E233.95713
G1 X-16.889 Y-2.586 E233.99921
G1 X-16.587 Y-2.991 E234.02441
G1 X-16.403 Y-3.163 E234.03698
G1 X-15.69 Y-4.029 E234.09294
G1 X-15.506 Y-4.264 E234.10784
G1 X-15.071 Y-4.741 E234.14004
G1 X-14.309 Y-5.569 E234.19618
G1 X-13.892 Y-5.922 E234.22344
G1 X-13.73 Y-6.225 E234.24058
G1 X-13.388 Y-6.594 E234.26568
G1 X-13.363 Y-6.786 E234.27534
G1 X-13.4 Y-7.038 E234.28805
G1 X-13.797 Y-7.469 E234.31728
G1 X-13.851 Y-7.532 E234.32142
G1 X-14.796 Y-8.463 E234.38761
G1 X-14.998 Y-8.955 E234.41414
G1 X-15.137 Y-9.838 E234.45874
G1 X-15.232 Y-10.71 E234.5025
G1 X-15.248 Y-11.4 E234.53693
G1 X-15.187 Y-12.282 E234.58104
G1 X-15.142 Y-12.376 E234.58624
G1 X-14.045 Y-13.989 E234.68356
G1 X-13.896 Y-14.087 E234.69246
G1 X-13.05 Y-14.538 E234.74029
G1 X-12.41 Y-14.802 E234.77483
G1 X-11.961 Y-14.909 E234.79785
G1 X-11.375 Y-14.797 E234.82762
G1 X-10.776 Y-14.637 E234.85855
G1 X-8.876 Y-14.021 E234.9582
G1 X-8.335 Y-13.922 E234.98564
G1 X-7.107 Y-13.683 E235.04805
G1 X-6.45 Y-14.011 E235.08469
G1 X-6.2 Y-14.313 E235.10425
G1 X-5.997 Y-14.688 E235.12552
G1 X-5.426 Y-15.292 E235.16699
G1 X-4.246 Y-16.459 E235.24979
G1 X-3.707 Y-16.883 E235.284
G1 X-2.986 Y-17.067 E235.32113
G1 X-2.126 Y-17.005 E235.36414
G1 X-1.498 Y-16.913 E235.39581
G1 X-.82 Y-16.684 E235.43151
G1 X-0.043 Y-16.403 E235.47273
G1 X1.068 Y-16.081 E235.53044
G1 X1.197 Y-16.038 E235.53723
G1 X3.509 Y-15.439 E235.65638
G1 X5.034 Y-15.055 E235.73484
G1 X6.371 Y-14.686 E235.80403
G1 X7.563 Y-14.336 E235.86601
G1 X8.155 Y-14.209 E235.89622
G1 X8.602 Y-14.132 E235.91885
G1 X9.147 Y-14.067 E235.94623
G1 X9.537 Y-13.872 E235.96799
G1 X10.699 Y-13.432 E236.02998
G1 X10.723 Y-13.418 E236.03136
G1 X11.294 Y-13.043 E236.06544
G1 X11.685 Y-12.71 E236.09107
G1 X12.069 Y-11.941 E236.13395
G1 X12.868 Y-10.133 E236.23257
G1 X13.07 Y-9.619 E236.26012
G1 X13.703 Y-9.205 E236.29786
G1 X14.262 Y-8.874 E236.33027
G1 X15.834 Y-7.701 E236.42812
G1 X16.38 Y-7.125 E236.46772
G1 X16.6 Y-6.65 E236.49383
G1 X17.678 Y-3.913 E236.64059
G1 X17.462 Y-1.922 E236.74051
G1 X16.768 Y-1.297 E236.7871
G1 X15.4 Y-.269 E236.87247
G1 X15.03 Y-.176 E236.89151
G1 X12.538 Y0.657 E237.0226
G1 X11.739 Y1.554 E237.08253
G1 X11.325 Y3.468 E237.18022
G1 X11.047 Y4.924 E237.25418
G1 X10.75 Y5.316 E237.27871
G1 X9.456 Y6.476 E237.36541
G1 X7.758 Y6.856 E237.45222
G1 X7.049 Y6.967 E237.48803
G1 X4 Y7.322 E237.64117
G1 X3.142 Y7.425 E237.68428
G1 X1.45 Y7.68 E237.76965
G1 X0.097 Y7.962 E237.8386
G1 X-.813 Y8.148 E237.88494
G1 X-1.675 Y8.33 E237.92889
G1 X-2.668 Y8.526 E237.97939
G1 X-3.645 Y8.706 E238.02895
G1 X-4.401 Y8.895 E238.06783
G1 X-4.69 Y8.951 E238.08252
G1 X-5.085 Y8.954 E238.10222
G1 X-5.659 Y8.895 E238.13101
G1 X-6 Y8.823 E238.1484
G1 X-7.427 Y7.851 E238.23454
G1 X-7.855 Y7.336 E238.26795
G1 X-8.491 Y6.615 E238.31591
G1 X-8.767 Y5.87 E238.35555
G1 X-8.942 Y5.381 E238.38146
G1 X-9.074 Y4.82 E238.41021
G1 X-9.132 Y4.507 E238.4261
G1 X-9.245 Y4.217 E238.44162
G1 X-9.536 Y3.621 E238.47471
G0 F7200 X-9.711 Y3.525
G0 X-8.936 Y3.048
;TYPE:SKIN
G1 F1800 X-9.846 Y2.551 E238.52644
G1 X-10.267 Y2.402 E238.54872
G1 X-10.909 Y2.224 E238.58196
G1 X-11.976 Y1.881 E238.63788
G1 X-13.204 Y1.48 E238.70233
G1 X-14.378 Y1.089 E238.76406
G1 X-14.917 Y0.857 E238.79334
G1 X-15.305 Y0.343 E238.82547
G1 X-15.61 Y-0.086 E238.85173
G1 X-15.975 Y-.778 E238.89076
G1 X-16.038 Y-1.264 E238.91521
G1 X-16.143 Y-1.796 E238.94226
G1 X-16.113 Y-2.305 E238.9677
G1 X-15.826 Y-2.622 E238.98903
G1 X-15.074 Y-3.535 E239.04805
G1 X-14.905 Y-3.749 E239.06165
G1 X-14.489 Y-4.208 E239.09255
G1 X-13.762 Y-4.998 E239.14612
G1 X-13.266 Y-5.416 E239.17848
G1 X-13.081 Y-5.765 E239.19818
G1 X-12.638 Y-6.242 E239.23066
G1 X-12.565 Y-6.792 E239.25834
G1 X-12.654 Y-7.394 E239.2887
G1 X-13.208 Y-7.996 E239.32952
G1 X-13.272 Y-8.071 E239.33444
G1 X-14.125 Y-8.91 E239.39413
G1 X-14.23 Y-9.168 E239.40803
G1 X-14.353 Y-9.942 E239.44713
G1 X-14.442 Y-10.767 E239.48852
G1 X-14.458 Y-11.365 E239.51837
G1 X-14.411 Y-12.047 E239.55248
G1 X-13.481 Y-13.413 E239.63492
G1 X-12.713 Y-13.822 E239.67833
G1 X-12.167 Y-14.047 E239.70779
G1 X-11.942 Y-14.101 E239.71934
G1 X-11.546 Y-14.025 E239.73945
G1 X-11.008 Y-13.881 E239.76724
G1 X-9.07 Y-13.253 E239.86888
G1 X-8.353 Y-13.122 E239.90524
G1 X-6.994 Y-12.856 E239.97433
G1 X-5.948 Y-13.379 E240.03267
G1 X-5.542 Y-13.869 E240.06442
G1 X-5.353 Y-14.219 E240.08426
G1 X-4.86 Y-14.74 E240.12005
G1 X-3.717 Y-15.871 E240.20027
G1 X-3.353 Y-16.157 E240.22337
G1 X-2.91 Y-16.271 E240.24619
G1 X-2.229 Y-16.221 E240.28026
G1 X-1.679 Y-16.14 E240.30799
G1 X-1.081 Y-15.938 E240.33948
G1 X-.288 Y-15.651 E240.38156
G1 X0.848 Y-15.322 E240.44056
G1 X0.971 Y-15.28 E240.44704
G1 X3.314 Y-14.673 E240.5678
G1 X4.824 Y-14.293 E240.64548
G1 X6.154 Y-13.926 E240.71431
G1 X7.369 Y-13.57 E240.77748
G1 X8.01 Y-13.432 E240.81019
G1 X8.913 Y-13.3 E240.85572
G1 X9.22 Y-13.148 E240.87281
G1 X10.343 Y-12.722 E240.93273
G1 X10.819 Y-12.408 E240.96118
G1 X11.049 Y-12.213 E240.97623
G1 X11.35 Y-11.612 E241.00976
G1 X12.145 Y-9.813 E241.10789
G1 X12.426 Y-9.096 E241.14631
G1 X13.286 Y-8.534 E241.19756
G1 X13.826 Y-8.214 E241.22888
G1 X15.311 Y-7.105 E241.32134
G1 X15.719 Y-6.675 E241.35092
G1 X15.869 Y-6.35 E241.36877
G1 X16.871 Y-3.806 E241.50519
G1 X16.708 Y-2.307 E241.58041
G1 X16.263 Y-1.906 E241.6103
G1 X15.052 Y-.995 E241.6859
G1 X14.809 Y-.934 E241.6984
G1 X12.088 Y-0.026 E241.84151
G1 X11.011 Y1.184 E241.92233
G1 X10.551 Y3.31 E242.03085
G1 X10.306 Y4.594 E242.09606
G1 X10.165 Y4.78 E242.10771
G1 X9.082 Y5.751 E242.18028
G1 X7.627 Y6.076 E242.25465
G1 X6.937 Y6.184 E242.2895
G1 X3.908 Y6.537 E242.44164
G1 X3.037 Y6.643 E242.48541
G1 X1.311 Y6.902 E242.57249
G1 X-0.065 Y7.188 E242.6426
G1 X-.974 Y7.374 E242.68889
G1 X-1.838 Y7.557 E242.73295
G1 X-2.81 Y7.749 E242.78238
G1 X-3.812 Y7.933 E242.83321
G1 X-4.566 Y8.122 E242.87199
G1 X-5.048 Y8.164 E242.89613
G1 X-5.684 Y8.082 E242.92812
G1 X-6.888 Y7.261 E243.00083
G1 X-7.255 Y6.822 E243.02937
G1 X-7.801 Y6.203 E243.07055
G1 X-8.024 Y5.6 E243.10263
G1 X-8.185 Y5.151 E243.12643
G1 X-8.303 Y4.646 E243.1523
G1 X-8.369 Y4.29 E243.17036
G1 X-8.521 Y3.9 E243.19124
G1 X-8.936 Y3.048 E243.23853
G0 F7200 X-3.838 Y5.684
G1 F1800 X3.056 Y5.151 E243.58349
G1 X3.905 Y4.958 E243.62693
G1 X5.04 Y4.646 E243.68566
G1 X5.395 Y4.45 E243.70589
G1 X6.457 Y4.044 E243.76261
G1 X6.871 Y3.584 E243.79349
G1 X7.41 Y3.062 E243.83092
G1 X7.625 Y2.333 E243.86884
G1 X6.971 Y0.864 E243.94906
G1 X6.693 Y0.275 E243.98156
G1 X6.093 Y-.922 E244.04836
G1 X5.355 Y-.663 E244.08738
G1 X5.262 Y-.677 E244.09207
G1 X3.792 Y-.8 E244.16567
G1 X2.968 Y0.068 E244.22538
G1 X-.59 Y0.27 E244.40317
G1 X-.846 Y0.301 E244.41604
G1 X-1.609 Y0.476 E244.45509
G1 X-1.78 Y0.35 E244.46569
G1 X-3.174 Y2.214 E244.58181
G1 X-3.838 Y5.684 E244.75807
G0 F7200 X10.258 Y3.883
G1 F1800 X8.429 Y5.712 E244.88712
G0 F7200 X7.701 Y5.875
G1 F1800 X10.394 Y3.181 E245.07716
G0 F7200 X10.55 Y2.46
G1 F1800 X7.021 Y5.989 E245.32615
G0 F7200 X6.376 Y6.068
G1 F1800 X10.706 Y1.738 E245.63166
G1 X10.776 Y1.668
G0 F7200 X11.356 Y0.522
G1 F1800 X5.736 Y6.142 E246.02818
G0 F7200 X5.096 Y6.217
G1 F1800 X16.236 Y-4.922 E246.81413
G0 F7200 X16.076 Y-5.328
G1 F1800 X6.653 Y4.094 E247.47894
G1 X6.545 Y4.202
G1 X4.456 Y6.291 E247.62633
G0 F7200 X3.815 Y6.366
G1 F1800 X5.629 Y4.553 E247.75428
G1 X5.699 Y4.483
G0 F7200 X4.688 Y4.928
G1 F1800 X3.172 Y6.444 E247.86124
G0 F7200 X2.511 Y6.539
G1 F1800 X3.911 Y5.139 E247.96002
G0 F7200 X3.179 Y5.305
G1 F1800 X1.846 Y6.639 E248.0541
G0 F7200 X1.173 Y6.746
