;FLAVOR:Marlin
;TIME:13187
;Filament used: 9.69501m
;Layer height: 0.15
;MINX:-24.205
;MINY:-18.596
;MINZ:0.3
;MAXX:24.197
;MAXY:18.587
;MAXZ:47.7
;Generated with Cura_SteamEngine 4.13.1
M104 S200
M105
M109 S200
M82 ;absolute extrusion mode

G92 E0
G92 E0
;LAYER_COUNT:319
;LAYER:0
M107
;MESH:bunny.stl
G0 F3600 X-10.477 Y1.308 Z0.3
;TYPE:WALL-INNER
G1 F1722 X-10.003 Y2.356 E0.05738
G1 X-9.437 Y3.321 E0.1132
G1 X-9.342 Y3.673 E0.13139
G1 X-9.968 Y2.606 E0.1681
G1 X-11.505 Y2.104 E0.24877
G1 X-11.951 Y1.977 E0.27191
G1 X-12.792 Y1.429 E0.32199
G1 X-13.246 Y0.994 E0.35335
G1 X-13.29 Y-.289 E0.4174
G1 X-13.954 Y-1.437 E0.48357
G1 X-14.218 Y-2.15 E0.5215
G1 X-13.583 Y-4.506 E0.64323
G1 X-13.284 Y-5.455 E0.69287
G1 X-13.049 Y-5.842 E0.71546
G1 X-11.332 Y-6.466 E0.8066
G1 X-11.112 Y-5.601 E0.85113
G1 X-11.368 Y-5.257 E0.87253
G1 X-11.67 Y-4.776 E0.90086
G1 X-11.652 Y-4.127 E0.93325
G1 X-11.652 Y-3.484 E0.96533
G1 X-11.217 Y-2.57 E1.01583
G1 X-10.87 Y-2.041 E1.0474
G1 X-10.252 Y-2.029 E1.07823
G1 X-9 Y-2.087 E1.14076
G1 X-8.628 Y-2.051 E1.15941
G1 X-7.702 Y-2.068 E1.20562
G1 X-6.779 Y-1.999 E1.25179
G1 X-7.19 Y-1.376 E1.28903
G1 X-7.936 Y-.776 E1.33679
G1 X-9.366 Y0.29 E1.42578
G1 X-10.477 Y1.308 E1.50095
G0 F3600 X-9.993 Y1.407
;TYPE:WALL-OUTER
G1 F1722 X-9.647 Y2.172 E1.54284
G1 X-9.065 Y3.166 E1.60031
G1 X-8.632 Y4.763 E1.68286
G1 X-8.58 Y5.34 E1.71176
G1 X-9.057 Y5.115 E1.73807
G1 X-9.416 Y4.337 E1.78082
G1 X-10.236 Y2.939 E1.86168
G1 X-11.622 Y2.487 E1.93441
G1 X-12.117 Y2.346 E1.96009
G1 X-13.044 Y1.742 E2.01529
G1 X-13.64 Y1.17 E2.0565
G1 X-13.686 Y-.175 E2.12364
G1 X-14.318 Y-1.268 E2.18663
G1 X-14.637 Y-2.131 E2.23254
G1 X-13.965 Y-4.626 E2.36145
G1 X-13.652 Y-5.621 E2.41349
G1 X-13.379 Y-6.069 E2.43966
G1 X-13.33 Y-6.266 E2.44979
G1 X-13.151 Y-6.23 E2.4589
G1 X-11.053 Y-6.993 E2.57028
G1 X-10.677 Y-5.515 E2.64636
G1 X-11.038 Y-5.031 E2.67649
G1 X-11.267 Y-4.666 E2.69798
G1 X-11.252 Y-4.127 E2.72488
G1 X-11.252 Y-3.574 E2.75247
G1 X-10.868 Y-2.767 E2.79706
G1 X-10.651 Y-2.437 E2.81676
G1 X-10.257 Y-2.429 E2.83643
G1 X-8.994 Y-2.488 E2.89951
G1 X-8.612 Y-2.451 E2.91865
G1 X-7.69 Y-2.468 E2.96466
G1 X-6.62 Y-2.388 E3.01819
G1 X-6.11 Y-3.146 E3.06377
G1 X-5.884 Y-3.404 E3.08088
G1 X-5.709 Y-3.868 E3.10562
G1 X-5.565 Y-4.08 E3.11841
G1 X-5.245 Y-4.064 E3.13439
G1 X-4.887 Y-4.558 E3.16483
G1 X-4.9 Y-4.186 E3.17062
G1 X-5.069 Y-3.608 E3.20066
G1 X-6.607 Y-1.562 E3.32836
G1 X-6.886 Y-1.107 E3.35499
G1 X-7.686 Y-.463 E3.40622
G1 X-9.111 Y0.599 E3.49489
G1 X-9.993 Y1.407 E3.55457
G0 F3600 X-9.911 Y1.589
G0 X-10.597 Y1.99
;TYPE:SKIN
G1 F1722 X-11.391 Y1.731 E3.59623
G1 X-11.786 Y1.619 E3.61672
G1 X-12.554 Y1.118 E3.66246
G1 X-12.862 Y0.824 E3.68371
G1 X-12.904 Y-.4 E3.74481
G1 X-13.598 Y-1.599 E3.81392
G1 X-13.809 Y-2.17 E3.8443
G1 X-13.211 Y-4.389 E3.95895
G1 X-12.926 Y-5.293 E4.00624
G1 X-12.787 Y-5.522 E4.0196
G1 X-11.603 Y-5.952 E4.08245
G1 X-11.535 Y-5.684 E4.09624
G1 X-11.69 Y-5.478 E4.10911
G1 X-12.064 Y-4.883 E4.14417
G1 X-12.042 Y-4.127 E4.1819
G1 X-12.042 Y-3.396 E4.21837
G1 X-11.558 Y-2.379 E4.27456
G1 X-11.083 Y-1.655 E4.31776
G1 X-10.246 Y-1.639 E4.35953
G1 X-9.005 Y-1.695 E4.4215
G1 X-8.643 Y-1.661 E4.43964
G1 X-7.703 Y-1.678 E4.48655
G1 X-7.482 Y-1.642 E4.49772
G1 X-8.17 Y-1.088 E4.54179
G1 X-9.615 Y-0.011 E4.6317
G1 X-10.949 Y1.211 E4.72196
G1 X-10.597 Y1.99 E4.76461
G0 F3600 X-12.699 Y0.311
G1 F1722 X-11.496 Y1.513 E4.84945
G0 F3600 X-11.073 Y1.371
G1 F1722 X-12.72 Y-.275 E4.96562
G1 X-12.79 Y-.345
G0 F3600 X-13.267 Y-1.388
G1 F1722 X-10.929 Y0.949 E5.13054
G0 F3600 X-10.634 Y0.678
G1 F1722 X-13.592 Y-2.279 E5.33921
G0 F3600 X-13.472 Y-2.724
G1 F1722 X-10.339 Y0.408 E5.56022
G0 F3600 X-10.043 Y0.138
G1 F1722 X-13.352 Y-3.169 E5.79362
G0 F3600 X-13.232 Y-3.615
G1 F1722 X-11.344 Y-1.728 E5.92679
G0 F3600 X-11.091 Y-1.475
G1 F1722 X-9.748 Y-.132 E6.02155
G0 F3600 X-9.426 Y-.375
G1 F1722 X-10.515 Y-1.464 E6.09838
G0 F3600 X-9.956 Y-1.471
G1 F1722 X-9.101 Y-.616 E6.15871
G0 F3600 X-8.778 Y-.858
G1 F1722 X-9.415 Y-1.495 E6.20365
G0 F3600 X-8.852 Y-1.499
G1 F1722 X-8.454 Y-1.1 E6.23177
G0 F3600 X-8.134 Y-1.346
G1 F1722 X-8.275 Y-1.487 E6.24172
G0 F3600 X-10.78 Y-2.204
G0 X-12.052 Y-3.001
G1 F1722 X-13.112 Y-4.061 E6.31651
G0 F3600 X-12.986 Y-4.5
G1 F1722 X-12.221 Y-3.736 E6.37045
G0 F3600 X-12.226 Y-4.306
G1 F1722 X-12.85 Y-4.931 E6.41451
G0 F3600 X-12.689 Y-5.335
G1 F1722 X-12.243 Y-4.889 E6.44598
G0 F3600 X-12.042 Y-5.254
G1 F1722 X-12.295 Y-5.507 E6.46383
G0 F3600 X-11.881 Y-5.658
G1 F1722 X-11.822 Y-5.6 E6.46795
;MESH:NONMESH
G0 F600 X-11.822 Y-5.6 Z0.45
G0 F3600 X-11.491 Y-3.521
G0 X-11.075 Y-2.646
G0 X-6.731 Y-2.162
G0 X-4.919 Y-4.189
G0 X-4.035 Y-4.159
G0 X6.725 Y-3.393
;TIME_ELAPSED:6.109121
;LAYER:1
M106 S255
;TYPE:WALL-INNER
;MESH:bunny.stl
G1 F2700 X6.652 Y-2.545 E6.48919
G1 X6.531 Y-3.04 E6.49075
G1 X6.407 Y-3.578 E6.50452
G1 X6.3 Y-4.107 E6.51798
G1 X6.43 Y-4.606 E6.53084
G1 X7.16 Y-4.402 E6.54975
G1 X7.32 Y-4.179 E6.5566
G1 X6.725 Y-3.393 E6.57977
G0 F5400 X6.789 Y-2.519
G0 X7.027 Y-1.26
G0 X8.597 Y0.99
G1 F2700 X7.944 Y-.326 E6.61642
G1 X7.844 Y-.552 E6.62258
G1 X8.409 Y-.52 E6.6367
G1 X9.842 Y-.369 E6.67264
G1 X9.955 Y-.353 E6.67549
G1 X9.936 Y0.617 E6.69969
G1 X9.842 Y0.834 E6.70559
G1 X9.33 Y1.287 E6.72264
G1 X8.903 Y1.726 E6.73792
G1 X8.597 Y0.99 E6.7578
G0 F5400 X7.525 Y-.826
G0 X7.244 Y-.917
;TYPE:WALL-OUTER
G1 F1800 X7.163 Y-1.037 E6.76141
G1 X7.991 Y-.937 E6.78222
G1 X8.437 Y-.92 E6.79335
G1 X9.896 Y-.766 E6.82995
G1 X10.362 Y-.697 E6.8417
G1 X10.334 Y0.702 E6.8766
G1 X10.173 Y1.076 E6.88676
G1 X9.606 Y1.577 E6.90564
G1 X8.766 Y2.439 E6.93566
G1 X8.233 Y1.156 E6.97032
G1 X7.578 Y-.164 E7.00707
G1 X7.244 Y-.917 E7.02762
G0 F5400 X7.163 Y-1.037
G0 X7.218 Y-1.031
G0 X7.261 Y-.925
G0 X6.828 Y-2.206
G0 X6.816 Y-3.27
G0 X7.114 Y-3.244
G1 F1800 X7.038 Y-2.371 E7.04948
G1 X7.077 Y-2.075 E7.05693
G1 X7.034 Y-1.215 E7.07841
G1 X6.674 Y-1.714 E7.08471
G1 X6.28 Y-2.384 E7.1041
G1 X6.141 Y-2.95 E7.11863
G1 X6.017 Y-3.488 E7.13241
G1 X5.89 Y-4.119 E7.14846
G1 X6.145 Y-5.101 E7.17377
G1 X7.403 Y-4.749 E7.20636
G1 X7.682 Y-4.361 E7.21828
G1 X7.862 Y-4.233 E7.22379
G1 X7.114 Y-3.244 E7.25472
G0 F5400 X7.097 Y-3.045
G0 X6.799 Y-3.071
G0 X6.714 Y-4.024
;TYPE:SKIN
G1 F1800 X6.707 Y-4.123 E7.2572
G1 X6.775 Y-4.104 E7.25896
G1 X6.714 Y-4.024 E7.26147
G0 F5400 X6.82 Y-2.326
G0 X7.18 Y-1.027
G0 X8.481 Y-.12
G1 F1800 X9.558 Y-0.006 E7.28848
G1 X9.548 Y0.532 E7.30191
G1 X9.519 Y0.599 E7.30373
G1 X9.061 Y1.004 E7.31898
G1 X9.036 Y1.03 E7.31988
G1 X8.952 Y0.828 E7.32533
G1 X8.481 Y-.12 E7.35174
G0 F5400 X8.844 Y0.206
G1 F1800 X8.942 Y0.108 E7.3552
G0 F5400 X9.371 Y0.244
G1 F1800 X9.031 Y0.584 E7.36719
G0 F5400 X8.839 Y2.064
G0 X7.846 Y2.477
G0 X2.715 Y4.753
G0 X2.87 Y5.825
G0 X0.599 Y6.394
;TYPE:WALL-INNER
G1 F2700 X0.604 Y6.335 E7.36867
G1 X2.902 Y6.003 E7.42659
G1 X3.401 Y5.921 E7.4392
G1 X4.191 Y5.793 E7.45917
G1 X5.648 Y5.585 E7.49588
G1 X4.278 Y6.047 E7.50784
G1 X3.521 Y6.303 E7.52449
G1 X2.53 Y6.638 E7.55059
G1 X2.118 Y6.719 E7.56106
G1 X-.567 Y7.326 E7.62973
G1 X-2.633 Y7.844 E7.68286
G1 X-4.6 Y8.148 E7.73251
G1 X-5.471 Y8.096 E7.75428
G1 X-6.12 Y8.077 E7.77047
G1 X-6.339 Y7.561 E7.78446
G1 X-6.608 Y7.252 E7.79468
G1 X-6.931 Y7.052 E7.80415
G1 X-7.403 Y7.024 E7.81595
G1 X-8.184 Y6.396 E7.84095
G1 X-8.433 Y5.96 E7.85347
G1 X-9.249 Y4.461 E7.89604
G1 X-9.487 Y3.943 E7.91027
G1 X-9.879 Y3.275 E7.92959
G1 X-10.549 Y3.055 E7.94718
G1 X-11.169 Y2.88 E7.96325
G1 X-12.576 Y2.146 E8.00283
G1 X-14.197 Y1.058 E8.05153
G1 X-14.778 Y0.712 E8.0684
G1 X-15.096 Y0.655 E8.07646
G1 X-15.3 Y0.672 E8.08157
G1 X-15.382 Y0.58 E8.08464
G1 X-15.528 Y0.277 E8.09303
G1 X-15.992 Y-.6 E8.11778
G1 X-16.013 Y-.634 E8.11878
G1 X-16.053 Y-1.228 E8.13363
G1 X-16.124 Y-2.345 E8.16155
G1 X-15.235 Y-4.056 E8.20965
G1 X-15.021 Y-4.399 E8.21973
G1 X-14.257 Y-5.453 E8.25221
G1 X-13.602 Y-6.467 E8.28232
G1 X-13.293 Y-8.3 E8.32869
G1 X-13.235 Y-9.874 E8.36798
G1 X-12.755 Y-10.282 E8.38369
G1 X-12.604 Y-10.735 E8.3956
G1 X-12.353 Y-10.721 E8.40187
G1 X-11.468 Y-11.206 E8.42705
G1 X-10.124 Y-11.419 E8.46099
G1 X-8.69 Y-11.579 E8.49699
G1 X-5.385 Y-11.825 E8.57966
G1 X-5.107 Y-11.901 E8.58685
G1 X-3.281 Y-5.684 E8.74848
G1 X-3.442 Y-4.872 E8.76913
G1 X-4.728 Y-4.331 E8.80393
G1 X-6.577 Y-1.871 E8.8807
G1 X-7.044 Y-1.021 E8.90489
G1 X-7.346 Y-.559 E8.91866
G1 X-7.81 Y0.339 E8.94388
G1 X-8.211 Y0.682 E8.95704
G1 X-8.856 Y1.387 E8.98088
G1 X-8.407 Y2.307 E9.00641
G1 X-8.162 Y3.29 E9.03168
G1 X-7.459 Y4.623 E9.06928
G1 X-7.366 Y4.856 E9.07553
G1 X-7.305 Y5.18 E9.08376
G1 X-6.965 Y5.681 E9.09886
G1 X-6.549 Y5.875 E9.11031
G1 X-5.251 Y6.553 E9.14684
G1 X-3.132 Y6.73 E9.19988
G1 X-2.7 Y6.811 E9.21085
G1 X-1.631 Y6.796 E9.23752
G1 X-.379 Y6.642 E9.26898
G1 X0.599 Y6.394 E9.29415
G0 F5400 X-1.642 Y6.635
G0 X-2.686 Y6.649
G0 X-5.205 Y6.395
G0 X-6.856 Y5.553
G0 X-8.011 Y3.231
G0 X-8.655 Y1.416
G0 X-6.439 Y-1.786
G0 X-4.624 Y-4.198
G0 X-6.507 Y-8.823
G1 F2700 X-7.456 Y-8.601 E9.31846
G1 X-8.065 Y-8.235 E9.33619
G1 X-8.508 Y-7.683 E9.35384
G1 X-9.263 Y-8.061 E9.37491
G1 X-9.865 Y-7.579 E9.39414
G1 X-9.537 Y-6.293 E9.42725
G1 X-10.415 Y-5.116 E9.46388
G1 X-10.714 Y-4.634 E9.47803
G1 X-11.022 Y-4.084 E9.49375
G1 X-10.777 Y-3.23 E9.51592
G1 X-10.358 Y-2.394 E9.53924
G1 X-9.082 Y-2.38 E9.57107
G1 X-8.631 Y-2.393 E9.58233
G1 X-7.503 Y-2.635 E9.61111
G1 X-6.907 Y-2.837 E9.62681
G1 X-6.343 Y-3.115 E9.64249
G1 X-5.645 Y-3.823 E9.66729
G1 X-5.528 Y-3.955 E9.67169
G1 X-5.137 Y-4.814 E9.69523
G1 X-5.205 Y-5.565 E9.71405
G1 X-5.358 Y-6.51 E9.73793
G1 X-5.48 Y-6.891 E9.7479
G1 X-5.792 Y-7.592 E9.76705
G1 X-6.087 Y-8.074 E9.78114
G1 X-6.507 Y-8.823 E9.80256
G0 F5400 X-6.709 Y-8.365
;TYPE:WALL-OUTER
G1 F1800 X-7.304 Y-8.226 E9.8178
G1 X-7.798 Y-7.929 E9.83218
G1 X-8.345 Y-7.248 E9.85397
G1 X-8.578 Y-7.271 E9.85981
G1 X-9.213 Y-7.589 E9.87753
G1 X-9.414 Y-7.428 E9.88395
G1 X-9.102 Y-6.207 E9.91539
G1 X-10.084 Y-4.89 E9.95637
G1 X-10.37 Y-4.431 E9.96986
G1 X-10.592 Y-4.034 E9.98121
G1 X-10.403 Y-3.376 E9.99828
G1 X-10.11 Y-2.791 E10.0146
G1 X-9.086 Y-2.78 E10.04015
G1 X-8.679 Y-2.792 E10.05031
G1 X-7.609 Y-3.021 E10.0776
G1 X-7.06 Y-3.207 E10.09206
G1 X-6.58 Y-3.444 E10.10542
G1 X-5.937 Y-4.096 E10.12826
G1 X-5.867 Y-4.175 E10.13089
G1 X-5.545 Y-4.883 E10.15029
G1 X-5.602 Y-5.515 E10.16612
G1 X-5.748 Y-6.417 E10.18892
G1 X-5.854 Y-6.748 E10.19759
G1 X-6.147 Y-7.405 E10.21553
G1 X-6.436 Y-7.878 E10.22936
G1 X-6.709 Y-8.365 E10.24328
G0 F5400 X-6.903 Y-8.32
G0 X-6.97 Y-8.612
G0 X-3.413 Y-4.706
G0 X-4.624 Y-4.198
G0 X-6.439 Y-1.786
G0 X-8.655 Y1.416
G0 X-8.011 Y3.231
G0 X-7.152 Y5.117
G0 X-5.205 Y6.395
G0 X-2.686 Y6.649
G0 X-1.642 Y6.635
G0 X-.41 Y6.484
G0 X5.788 Y5.395
G0 X6.087 Y5.748
G1 F1800 X6.104 Y5.854 E10.24596
G1 X5.493 Y6.058 E10.26203
G1 X2.63 Y7.026 E10.33742
G1 X2.201 Y7.11 E10.34833
G1 X-.474 Y7.715 E10.41674
G1 X-2.551 Y8.236 E10.47015
G1 X-4.581 Y8.549 E10.52139
G1 X-5.488 Y8.496 E10.54406
G1 X-6.387 Y8.47 E10.56649
G1 X-6.682 Y7.776 E10.5853
G1 X-6.87 Y7.56 E10.59244
G1 X-7.056 Y7.445 E10.5979
G1 X-7.555 Y7.415 E10.61037
G1 X-8.494 Y6.66 E10.64043
G1 X-8.78 Y6.158 E10.65484
G1 X-9.606 Y4.641 E10.69793
G1 X-9.842 Y4.128 E10.71201
G1 X-10.147 Y3.608 E10.72705
G1 X-10.666 Y3.438 E10.74067
G1 X-11.318 Y3.254 E10.75757
G1 X-12.778 Y2.492 E10.79865
G1 X-14.411 Y1.396 E10.84771
G1 X-14.92 Y1.093 E10.86249
G1 X-15.115 Y1.058 E10.86743
G1 X-15.465 Y1.087 E10.87619
G1 X-15.717 Y0.806 E10.88561
G1 X-15.885 Y0.458 E10.89525
G1 X-16.341 Y-.404 E10.91957
G1 X-16.405 Y-.512 E10.92271
G1 X-16.452 Y-1.201 E10.93993
G1 X-16.526 Y-2.373 E10.96923
G1 X-16.514 Y-2.461 E10.97144
G1 X-15.583 Y-4.254 E11.02184
G1 X-15.349 Y-4.628 E11.03284
G1 X-14.587 Y-5.679 E11.06523
G1 X-13.983 Y-6.615 E11.09301
G1 X-13.692 Y-8.341 E11.13668
G1 X-13.628 Y-10.065 E11.17971
G1 X-13.099 Y-10.514 E11.19702
G1 X-12.888 Y-11.152 E11.21378
G1 X-12.445 Y-11.127 E11.22485
G1 X-11.6 Y-11.59 E11.24889
G1 X-10.168 Y-11.817 E11.28505
G1 X-8.734 Y-11.977 E11.32105
G1 X-5.453 Y-12.221 E11.40312
G1 X-4.917 Y-12.367 E11.41698
G1 X-4.804 Y-12.288 E11.42042
G1 X-2.87 Y-5.704 E11.59159
G1 X-3.091 Y-4.585 E11.62005
G1 X-4.473 Y-4.004 E11.65744
G1 X-6.24 Y-1.653 E11.73081
G1 X-6.695 Y-.825 E11.75437
G1 X-7 Y-.357 E11.76831
G1 X-7.491 Y0.592 E11.79496
G1 X-7.932 Y0.97 E11.80945
G1 X-8.377 Y1.456 E11.82589
G1 X-8.03 Y2.168 E11.84565
G1 X-7.786 Y3.146 E11.87079
G1 X-7.096 Y4.452 E11.90764
G1 X-6.98 Y4.745 E11.9155
G1 X-6.927 Y5.024 E11.92258
G1 X-6.696 Y5.365 E11.93286
G1 X-6.374 Y5.515 E11.94172
G1 X-5.137 Y6.161 E11.97653
G1 X-3.085 Y6.332 E12.02789
G1 X-2.666 Y6.41 E12.03853
G1 X-1.658 Y6.396 E12.06367
G1 X-.453 Y6.248 E12.09396
G1 X0.222 Y6.077 E12.11133
G1 X0.229 Y5.985 E12.11363
G1 X2.841 Y5.608 E12.17946
G1 X4.127 Y5.398 E12.21196
G1 X6 Y5.131 E12.25916
G1 X6.819 Y4.707 E12.28216
G1 X7.468 Y4.424 E12.29983
G1 X8.612 Y3.33 E12.33931
G1 X9.148 Y3.442 E12.35297
G1 X7.128 Y5.398 E12.42311
G1 X6.863 Y5.577 E12.43109
G1 X6.352 Y5.654 E12.44398
G1 X6.087 Y5.748 E12.45099
G0 F5400 X6.104 Y5.854
G0 X6.016 Y5.883
G0 X6.087 Y5.693
G0 X-1.613 Y7.186
;TYPE:SKIN
G1 F1800 X-2.701 Y7.459 E12.47898
G1 X-4.619 Y7.756 E12.52739
G1 X-5.454 Y7.706 E12.54826
G1 X-5.859 Y7.694 E12.55836
G1 X-6.004 Y7.352 E12.56763
G1 X-6.353 Y6.952 E12.58087
G1 X-6.81 Y6.668 E12.59429
G1 X-7.257 Y6.642 E12.60546
G1 X-7.882 Y6.139 E12.62548
G1 X-8.094 Y5.767 E12.63616
G1 X-8.903 Y4.28 E12.67839
G1 X-9.14 Y3.762 E12.69259
G1 X-9.618 Y2.951 E12.71608
G1 X-10.436 Y2.682 E12.73756
G1 X-11.025 Y2.515 E12.75283
G1 X-12.374 Y1.812 E12.79078
G1 X-13.988 Y0.728 E12.83928
G1 X-14.64 Y0.341 E12.85819
G1 X-15.101 Y0.265 E12.86984
G1 X-15.179 Y0.102 E12.87435
G1 X-15.629 Y-.748 E12.89834
G1 X-15.728 Y-2.263 E12.93621
G1 X-14.896 Y-3.862 E12.98118
G1 X-14.697 Y-4.181 E12.99056
G1 X-13.935 Y-5.233 E13.02296
G1 X-13.231 Y-6.323 E13.05533
G1 X-12.905 Y-8.261 E13.10435
G1 X-12.851 Y-9.688 E13.13997
G1 X-12.419 Y-10.056 E13.15413
G1 X-12.329 Y-10.329 E13.1613
G1 X-12.263 Y-10.325 E13.16295
G1 X-11.343 Y-10.83 E13.18913
G1 X-10.063 Y-11.033 E13.22146
G1 X-8.61 Y-11.195 E13.25793
G1 X-5.377 Y-11.435 E13.3388
G1 X-3.682 Y-5.665 E13.48881
G1 X-3.783 Y-5.151 E13.50188
G1 X-4.739 Y-4.749 E13.52775
G1 X-4.817 Y-5.614 E13.54941
G1 X-4.978 Y-6.602 E13.57439
G1 X-5.115 Y-7.03 E13.5856
G1 X-5.446 Y-7.774 E13.60591
G1 X-5.75 Y-8.271 E13.62044
G1 X-6.31 Y-9.27 E13.64901
G1 X-7.604 Y-8.967 E13.68216
G1 X-8.326 Y-8.533 E13.70318
G1 X-8.615 Y-8.173 E13.71469
G1 X-9.312 Y-8.521 E13.73413
G1 X-10.305 Y-7.727 E13.76584
G1 X-9.96 Y-6.377 E13.8006
G1 X-10.737 Y-5.336 E13.833
G1 X-11.05 Y-4.833 E13.84778
G1 X-11.441 Y-4.133 E13.86778
G1 X-11.142 Y-3.088 E13.8949
G1 X-10.6 Y-2.006 E13.92508
G1 X-9.078 Y-1.99 E13.96305
G1 X-8.584 Y-2.005 E13.97538
G1 X-7.399 Y-2.259 E14.00561
G1 X-6.757 Y-2.476 E14.02252
G1 X-6.523 Y-2.592 E14.02903
G1 X-6.905 Y-2.083 E14.04491
G1 X-7.38 Y-1.218 E14.06952
G1 X-7.683 Y-.756 E14.08331
G1 X-8.123 Y0.094 E14.10718
G1 X-8.482 Y0.401 E14.11896
G1 X-9.322 Y1.319 E14.15
G1 X-8.774 Y2.445 E14.18124
G1 X-8.529 Y3.43 E14.20656
G1 X-7.816 Y4.783 E14.24471
G1 X-7.673 Y5.332 E14.25886
G1 X-7.228 Y5.989 E14.27866
G1 X-6.714 Y6.228 E14.2928
G1 X-5.362 Y6.935 E14.33086
G1 X-3.197 Y7.116 E14.38505
G1 X-2.733 Y7.201 E14.39682
G1 X-1.613 Y7.186 E14.42476
G0 F5400 X-3.324 Y7.284
G1 F1800 X-3.428 Y7.388 E14.42843
G0 F5400 X-3.846 Y7.24
G1 F1800 X-4.098 Y7.492 E14.43732
G0 F5400 X-4.368 Y7.196
G1 F1800 X-4.739 Y7.567 E14.45041
G0 F5400 X-4.89 Y7.153
G1 F1800 X-5.272 Y7.535 E14.46388
G0 F5400 X-5.412 Y7.109
G1 F1800 X-5.762 Y7.459 E14.47623
G0 F5400 X-5.976 Y7.107
G1 F1800 X-5.784 Y6.916 E14.48299
G0 F5400 X-6.156 Y6.721
G1 F1800 X-6.243 Y6.808 E14.48605
G0 F5400 X-6.527 Y6.527
G1 F1800 X-6.592 Y6.592 E14.48835
G0 F5400 X-6.903 Y6.337
G1 F1800 X-7.04 Y6.474 E14.49318
G0 F5400 X-7.289 Y6.158
G1 F1800 X-7.415 Y6.284 E14.49763
G0 F5400 X-7.728 Y6.031
G1 F1800 X-7.542 Y5.845 E14.50419
G0 F5400 X-7.771 Y5.508
G1 F1800 X-7.937 Y5.675 E14.51006
G0 F5400 X-8.136 Y5.308
G1 F1800 X-7.921 Y5.092 E14.51766
G0 F5400 X-8.073 Y4.678
G1 F1800 X-8.336 Y4.941 E14.52694
G0 F5400 X-8.535 Y4.575
G1 F1800 X-8.268 Y4.309 E14.53634
G0 F5400 X-8.464 Y3.938
G1 F1800 X-8.734 Y4.209 E14.54589
G0 F5400 X-8.912 Y3.821
G1 F1800 X-8.659 Y3.568 E14.55481
G0 F5400 X-8.788 Y3.131
G1 F1800 X-9.11 Y3.453 E14.56617
G0 F5400 X-9.32 Y3.097
G1 F1800 X-8.901 Y2.678 E14.58095
G0 F5400 X-9.058 Y2.27
G1 F1800 X-9.567 Y2.778 E14.59889
G0 F5400 X-9.992 Y2.638
G1 F1800 X-9.244 Y1.89 E14.62528
G0 F5400 X-9.429 Y1.509
G1 F1800 X-10.419 Y2.499 E14.6602
G0 F5400 X-10.859 Y2.374
G1 F1800 X-8.052 Y-.432 E14.75921
G1 X-7.982 Y-.502
G0 F5400 X-8.3 Y-1.882
G1 F1800 X-11.991 Y1.808 E14.8894
G0 F5400 X-12.355 Y1.607
G1 F1800 X-8.932 Y-1.815 E15.01014
G0 F5400 X-9.498 Y-1.815
G1 F1800 X-12.693 Y1.38 E15.12285
G0 F5400 X-13.032 Y1.153
G1 F1800 X-10.058 Y-1.82 E15.22775
G0 F5400 X-10.618 Y-1.826
G1 F1800 X-13.37 Y0.925 E15.32482
G0 F5400 X-13.709 Y0.698
G1 F1800 X-10.868 Y-2.142 E15.42502
G0 F5400 X-11.057 Y-2.519
G1 F1800 X-14.055 Y0.479 E15.53079
G0 F5400 X-14.41 Y0.267
G1 F1800 X-11.246 Y-2.895 E15.64237
G0 F5400 X-11.393 Y-3.314
G1 F1800 X-14.835 Y0.127 E15.76378
G0 F5400 X-15.112 Y-.16
G1 F1800 X-11.519 Y-3.754 E15.89055
G0 F5400 X-11.568 Y-4.27
G1 F1800 X-15.308 Y-.53 E16.02249
G0 F5400 X-15.46 Y-.944
G1 F1800 X-10.645 Y-5.759 E16.19235
G1 X-10.575 Y-5.829
G0 F5400 X-10.236 Y-6.733
G1 F1800 X-15.494 Y-1.475 E16.37784
G0 F5400 X-15.528 Y-2.007
G1 F1800 X-10.352 Y-7.183 E16.56044
G0 F5400 X-10.468 Y-7.633
G1 F1800 X-15.182 Y-2.919 E16.72674
G1 X-15.252 Y-2.849
G0 F5400 X-14.442 Y-4.224
G1 F1800 X-7.575 Y-11.091 E16.96899
G0 F5400 X-6.965 Y-11.136
G1 F1800 X-9.504 Y-8.597 E17.05856
G0 F5400 X-8.98 Y-8.555
G1 F1800 X-6.354 Y-11.182 E17.15121
G0 F5400 X-5.743 Y-11.227
G1 F1800 X-8.08 Y-8.89 E17.23366
G1 X-8.15 Y-8.82
G0 F5400 X-7.146 Y-9.258
G1 F1800 X-5.429 Y-10.975 E17.29423
G0 F5400 X-5.301 Y-10.538
G1 F1800 X-6.407 Y-9.431 E17.33327
G0 F5400 X-6.067 Y-9.205
G1 F1800 X-5.172 Y-10.101 E17.36486
G0 F5400 X-5.044 Y-9.663
G1 F1800 X-5.864 Y-8.843 E17.39378
G0 F5400 X-5.661 Y-8.481
G1 F1800 X-4.915 Y-9.226 E17.42008
G0 F5400 X-4.787 Y-8.788
G1 F1800 X-5.45 Y-8.126 E17.44346
G0 F5400 X-5.245 Y-7.765
G1 F1800 X-4.659 Y-8.351 E17.46413
G0 F5400 X-4.53 Y-7.914
G1 F1800 X-5.071 Y-7.373 E17.48321
G0 F5400 X-4.907 Y-6.972
G1 F1800 X-4.402 Y-7.476 E17.50101
G0 F5400 X-4.273 Y-7.039
G1 F1800 X-4.783 Y-6.53 E17.51898
G0 F5400 X-4.704 Y-6.043
G1 F1800 X-4.145 Y-6.602 E17.53871
G0 F5400 X-4.017 Y-6.165
G1 F1800 X-4.63 Y-5.552 E17.56033
G0 F5400 X-4.582 Y-5.033
G1 F1800 X-3.888 Y-5.728 E17.58483
G1 X-3.818 Y-5.798
G0 F5400 X-7.283 Y-1.767
G1 F1800 X-11.247 Y2.196 E17.72465
G0 F5400 X-11.619 Y2.002
G1 F1800 X-7.579 Y-2.037 E17.86716
G1 X-7.509 Y-2.107
G0 F5400 X-10.254 Y-2.559
G0 X-13.21 Y-6.022
G1 F1800 X-8.186 Y-11.047 E18.04441
G0 F5400 X-8.807 Y-10.991
G1 F1800 X-12.961 Y-6.837 E18.19095
G0 F5400 X-12.847 Y-7.517
G1 F1800 X-9.444 Y-10.92 E18.311
G0 F5400 X-10.083 Y-10.847
G1 F1800 X-12.733 Y-8.196 E18.40451
G0 F5400 X-12.704 Y-8.791
G1 F1800 X-10.755 Y-10.74 E18.47326
G1 X-10.685 Y-10.81
G0 F5400 X-11.552 Y-10.509
G1 F1800 X-12.681 Y-9.379 E18.51311
G1 X-12.751 Y-9.309
G0 F5400 X-10.628 Y-3.293
G0 X-8.011 Y3.231
G0 X-7.152 Y5.117
G0 X-5.205 Y6.395
G0 X-1.276 Y6.933
;TYPE:SKIN
G1 F1800 X-1.428 Y7.085 E18.51579
G0 F5400 X-1.396 Y7.336
G1 F1800 X-.953 Y6.893 E18.52361
G0 F5400 X-.631 Y6.853
G1 F1800 X-1.034 Y7.257 E18.53072
G0 F5400 X-.656 Y7.161
G1 F1800 X-.302 Y6.808 E18.53696
G0 F5400 X-.289 Y7.078
G1 F1800 X0.077 Y6.711 E18.54342
G0 F5400 X0.074 Y6.996
G1 F1800 X0.456 Y6.614 E18.55016
G0 F5400 X0.44 Y6.913
G1 F1800 X0.878 Y6.475 E18.55789
G0 F5400 X1.209 Y6.427
G1 F1800 X0.805 Y6.831 E18.56501
G0 F5400 X1.17 Y6.748
G1 F1800 X1.539 Y6.38 E18.57151
G0 F5400 X1.536 Y6.665
G1 F1800 X1.869 Y6.332 E18.57739
G0 F5400 X1.901 Y6.583
G1 F1800 X2.2 Y6.284 E18.58266
G0 F5400 X2.26 Y6.507
G1 F1800 X2.53 Y6.237 E18.58742
G0 F5400 X2.641 Y6.409
G1 F1800 X2.861 Y6.189 E18.5913
G0 F5400 X3.068 Y6.265
G1 F1800 X3.197 Y6.136 E18.59358
G0 F5400 X5.813 Y5.5
G0 X5.898 Y5.415
G1 F1800 X6.274 Y5.321 E18.60424
G1 X7.169 Y4.992 E18.63046
G0 F5400 X6.734 Y5.182
;MESH:NONMESH
G0 F600 X6.734 Y5.182 Z0.6
G0 F5400 X9.129 Y3.447
G0 X9.701 Y2.688
G0 X10.897 Y1.588
G0 X11.665 Y-1.562
G0 X9.072 Y-4.42
G0 X7.925 Y-5.498
G0 X5.626 Y-6.226
G0 X5.006 Y-4.149
G0 X5.471 Y-2.056
G0 X6.469 Y-.522
G0 X7.027 Y-1.26
G0 X6.848 Y-2.111
G0 X6.983 Y-2.823
;TIME_ELAPSED:25.370429
;LAYER:2
;TYPE:WALL-INNER
;MESH:bunny.stl
G1 F3600 X6.931 Y-2.204 E18.64595
G1 X7.033 Y-1.42 E18.66567
G1 X6.85 Y-1.681 E18.66638
G1 X6.499 Y-2.165 E18.68129
G1 X6.035 Y-3.199 E18.70957
G1 X6.026 Y-3.24 E18.71061
G1 X6.022 Y-3.943 E18.72815
G1 X6.234 Y-4.625 E18.74596
G1 X6.251 Y-5.203 E18.76039
G1 X6.065 Y-5.754 E18.7749
G1 X5.883 Y-6.159 E18.78597
G1 X6.245 Y-6.574 E18.79971
G1 X7.02 Y-7.442 E18.82874
G1 X7.625 Y-7.856 E18.84702
G1 X7.666 Y-7.767 E18.84947
G1 X8.025 Y-5.21 E18.91388
G1 X8.16 Y-4.38 E18.93485
G1 X6.983 Y-2.823 E18.98354
G0 F7200 X7.072 Y-1.084
G0 X8.918 Y2.539
G0 X7.754 Y4.23
G0 X6.202 Y5.103
G0 X-1.63 Y6.298
G0 X-4.967 Y6.19
G0 X-6.411 Y5.348
G0 X-7.559 Y3.339
G0 X-7.883 Y1.484
G0 X-6.915 Y-.533
G0 X-6.199 Y-1.843
G0 X-4.956 Y-3.492
G0 X-3.882 Y-12.473
G0 X0.65 Y-14.745
G0 X7.821 Y-12.382
G0 X9.112 Y-11.825
G1 F3600 X8.755 Y-12.034 E18.99386
G1 X8.061 Y-12.441 E19.01393
G1 X8.84 Y-12.18 E19.01848
G1 X9.011 Y-12.085 E19.01899
G1 X9.187 Y-11.766 E19.02465
G1 X9.112 Y-11.825
G0 F7200 X7.821 Y-12.382
G0 X0.65 Y-14.745
G0 X-4.085 Y-12.561
G1 F3600 X-2.291 Y-6.451 E19.1835
G1 X-2.649 Y-4.639 E19.22958
G1 X-5.06 Y-3.625 E19.29482
G1 X-6.334 Y-1.93 E19.34772
G1 X-7.054 Y-.614 E19.38514
G1 X-7.78 Y0.824 E19.42532
G1 X-8.052 Y1.467 E19.44274
G1 X-7.972 Y1.846 E19.4524
G1 X-7.714 Y3.389 E19.49142
G1 X-7.081 Y4.656 E19.52675
G1 X-6.774 Y5.229 E19.54297
G1 X-6.5 Y5.485 E19.55232
G1 X-6.07 Y5.676 E19.56406
G1 X-5.018 Y6.35 E19.59523
G1 X-2.866 Y6.432 E19.64895
G1 X-2.298 Y6.501 E19.66322
G1 X-1.606 Y6.457 E19.68052
G1 X-1.075 Y6.369 E19.69394
G1 X0.732 Y6.054 E19.7397
G1 X2.226 Y5.837 E19.77736
G1 X4.06 Y5.588 E19.82353
G1 X6.252 Y5.259 E19.87882
G1 X7.28 Y4.752 E19.90741
G1 X7.852 Y4.359 E19.92472
G1 X8.249 Y4.011 E19.93789
G1 X8.776 Y3.529 E19.95571
G1 X8.996 Y3.352 E19.96275
G1 X9.155 Y2.972 E19.97303
G1 X9.072 Y2.487 E19.9853
G1 X8.519 Y1.35 E20.01684
G1 X8.097 Y0.585 E20.03863
G1 X7.532 Y-.687 E20.07335
G1 X7.207 Y-1.172 E20.08792
G1 X7.091 Y-1.337 E20.09295
G1 X7.969 Y-1.058 E20.11593
G1 X8.677 Y-.932 E20.13387
G1 X9.192 Y-.79 E20.14719
G1 X9.758 Y-.675 E20.1616
G1 X10.674 Y-.55 E20.18466
G1 X11.231 Y-1.131 E20.20474
G1 X11.682 Y-1.677 E20.22241
G1 X12.477 Y-2.73 E20.25532
G1 X12.659 Y-3.067 E20.26487
G1 X13.401 Y-4.239 E20.29948
G1 X13.233 Y-5.042 E20.31994
G1 X13.167 Y-5.193 E20.32405
G1 X13.516 Y-4.991 E20.32976
G1 X13.672 Y-4.726 E20.33743
G1 X13.761 Y-4.386 E20.34532
G1 X13.904 Y-4.202 E20.35113
G1 X14.007 Y-3.908 E20.3589
G1 X13.434 Y-3.105 E20.38351
G1 X11.977 Y-1.329 E20.44081
G1 X11.233 Y-.407 E20.47037
G1 X10.955 Y0.102 E20.48483
G1 X10.682 Y0.788 E20.50325
G1 X9.633 Y3.021 E20.56479
G1 X8.916 Y3.68 E20.58688
G1 X8.39 Y4.164 E20.59609
G1 X7.972 Y4.548 E20.60389
G1 X7.493 Y5.243 E20.62145
G1 X7.116 Y5.567 E20.63385
G1 X6.56 Y5.702 E20.64812
G1 X4.948 Y6.268 E20.69074
G1 X4.517 Y6.345 E20.70166
G1 X2.11 Y6.822 E20.76287
G1 X0.321 Y7.225 E20.80862
G1 X-1.044 Y7.568 E20.84373
G1 X-2.341 Y7.848 E20.87683
G1 X-3.67 Y8.098 E20.91056
G1 X-4.736 Y8.262 E20.93747
G1 X-5.695 Y8.22 E20.96141
G1 X-6.145 Y8.168 E20.97271
G1 X-6.197 Y8.045 E20.97604
G1 X-6.619 Y7.56 E20.99208
G1 X-7.064 Y7.285 E21.00513
G1 X-7.798 Y7.242 E21.02347
G1 X-8.07 Y6.8 E21.03642
G1 X-8.53 Y5.782 E21.06428
G1 X-9.629 Y3.952 E21.11753
G1 X-9.755 Y3.661 E21.12544
G1 X-10.534 Y3.305 E21.14681
G1 X-12.871 Y2.087 E21.21254
G1 X-13.719 Y1.518 E21.23802
G1 X-14.819 Y0.863 E21.26995
G1 X-15.286 Y0.777 E21.2818
G1 X-15.645 Y0.808 E21.29079
G1 X-15.904 Y0.455 E21.30171
G1 X-16.019 Y-0.063 E21.31495
G1 X-16.232 Y-.734 E21.33251
G1 X-16.552 Y-1.453 E21.35214
G1 X-16.471 Y-2.118 E21.36885
G1 X-16.387 Y-2.502 E21.37866
G1 X-15.914 Y-3.388 E21.40371
G1 X-15.701 Y-3.702 E21.41317
G1 X-14.9 Y-5.039 E21.45205
G1 X-14.05 Y-6.401 E21.4921
G1 X-13.83 Y-6.728 E21.50193
G1 X-13.77 Y-7.327 E21.51695
G1 X-13.831 Y-8.112 E21.53659
G1 X-14.006 Y-8.167 E21.54117
G1 X-14.279 Y-9.222 E21.56835
G1 X-14.43 Y-9.913 E21.58599
G1 X-14.43 Y-9.951 E21.58694
G1 X-14.178 Y-10.875 E21.61083
G1 X-13.96 Y-11.557 E21.62869
G1 X-13.69 Y-12.343 E21.64943
G1 X-13.406 Y-12.564 E21.6584
G1 X-12.699 Y-12.773 E21.67679
G1 X-12.41 Y-12.861 E21.68433
G1 X-12.346 Y-12.916 E21.68643
G1 X-12.048 Y-12.973 E21.694
G1 X-9.966 Y-13.415 E21.7471
G1 X-9.674 Y-13.381 E21.75443
G1 X-7.997 Y-13.149 E21.79666
G1 X-6.103 Y-12.995 E21.84406
G1 X-4.347 Y-13.367 E21.88884
G1 X-3.594 Y-13.895 E21.91178
G1 X-3.071 Y-14.757 E21.93693
G1 X-3.043 Y-14.769 E21.93769
G1 X-1.653 Y-15.234 E21.97425
G1 X-.667 Y-15.074 E21.99917
G1 X-.155 Y-14.925 E22.01247
G1 X0.333 Y-14.784 E22.02514
G1 X-.121 Y-14.556 E22.03192
G1 X-4.085 Y-12.561 E22.14262
G0 F7200 X-6.294 Y-8.031
G1 F3600 X-6.917 Y-7.892 E22.15854
G1 X-7.615 Y-7.545 E22.17798
G1 X-7.914 Y-7.362 E22.18673
G1 X-8.333 Y-6.435 E22.2121
G1 X-8.429 Y-6.164 E22.21928
G1 X-8.715 Y-6.001 E22.22749
G1 X-9.331 Y-5.544 E22.24662
G1 X-9.768 Y-4.952 E22.26498
G1 X-10.011 Y-4.134 E22.28626
G1 X-10.256 Y-3.69 E22.29891
G1 X-10.119 Y-3.215 E22.31124
G1 X-9.855 Y-2.689 E22.32592
G1 X-9.184 Y-2.683 E22.34266
G1 X-8.605 Y-2.7 E22.35711
G1 X-7.606 Y-2.813 E22.38219
G1 X-7.128 Y-2.977 E22.3948
G1 X-6.107 Y-3.477 E22.42316
G1 X-5.632 Y-4.019 E22.44113
G1 X-5.331 Y-4.644 E22.45844
G1 X-5.418 Y-5.777 E22.48679
G1 X-5.457 Y-5.951 E22.49123
G1 X-5.924 Y-7.352 E22.52807
G1 X-6.294 Y-8.031 E22.54736
G0 F7200 X-6.501 Y-7.575
;TYPE:WALL-OUTER
G1 F1800 X-6.782 Y-7.512 E22.55454
G1 X-7.421 Y-7.195 E22.57234
G1 X-7.6 Y-7.085 E22.57758
G1 X-7.962 Y-6.285 E22.59948
G1 X-8.102 Y-5.891 E22.60991
G1 X-8.496 Y-5.666 E22.62123
G1 X-9.045 Y-5.258 E22.63829
G1 X-9.405 Y-4.771 E22.6534
G1 X-9.641 Y-3.976 E22.67409
G1 X-9.826 Y-3.642 E22.68361
G1 X-9.745 Y-3.362 E22.69088
G1 X-9.607 Y-3.087 E22.69856
G1 X-9.188 Y-3.083 E22.70901
G1 X-8.633 Y-3.099 E22.72286
G1 X-7.694 Y-3.206 E22.74644
G1 X-7.281 Y-3.347 E22.75732
G1 X-6.355 Y-3.801 E22.78305
G1 X-5.969 Y-4.242 E22.79767
G1 X-5.738 Y-4.721 E22.81093
G1 X-5.815 Y-5.718 E22.83588
G1 X-5.843 Y-5.844 E22.8391
G1 X-6.292 Y-7.192 E22.87454
G1 X-6.501 Y-7.575 E22.88542
G0 F7200 X-6.696 Y-7.532
G0 X-6.76 Y-7.825
G0 X-3.894 Y-12.27
G0 X-3.607 Y-12.354
G1 F1800 X-1.88 Y-6.471 E23.03837
G1 X-2.298 Y-4.352 E23.09225
G1 X-4.805 Y-3.298 E23.16009
G1 X-5.997 Y-1.713 E23.20956
G1 X-6.7 Y-.428 E23.24609
G1 X-7.417 Y0.992 E23.28578
G1 X-7.635 Y1.507 E23.29973
G1 X-7.581 Y1.763 E23.30625
G1 X-7.329 Y3.264 E23.34422
G1 X-6.726 Y4.472 E23.3779
G1 X-6.453 Y4.982 E23.39233
G1 X-6.276 Y5.147 E23.39837
G1 X-5.879 Y5.323 E23.4092
G1 X-4.894 Y5.954 E23.43838
G1 X-2.839 Y6.032 E23.48968
G1 X-2.286 Y6.099 E23.50357
G1 X-1.651 Y6.059 E23.51944
G1 X-1.142 Y5.975 E23.53231
G1 X0.672 Y5.658 E23.57825
G1 X2.169 Y5.441 E23.61598
G1 X4.003 Y5.192 E23.66215
G1 X6.131 Y4.873 E23.71583
G1 X7.077 Y4.406 E23.74214
G1 X7.606 Y4.043 E23.75815
G1 X7.982 Y3.713 E23.77063
G1 X8.514 Y3.226 E23.78862
G1 X8.666 Y3.104 E23.79348
G1 X8.741 Y2.925 E23.79832
G1 X8.687 Y2.611 E23.80627
G1 X8.164 Y1.534 E23.83614
G1 X7.736 Y0.757 E23.85826
G1 X7.181 Y-.493 E23.89238
G1 X6.877 Y-.946 E23.90599
G1 X6.524 Y-1.449 E23.92132
G1 X6.151 Y-1.963 E23.93716
G1 X5.656 Y-3.067 E23.96734
G1 X5.626 Y-3.195 E23.97062
G1 X5.622 Y-4.003 E23.99078
G1 X5.836 Y-4.691 E24.00875
G1 X5.849 Y-5.143 E24.02003
G1 X5.692 Y-5.608 E24.03227
G1 X5.412 Y-6.23 E24.04929
G1 X5.945 Y-6.837 E24.06944
G1 X6.756 Y-7.746 E24.09983
G1 X7.789 Y-8.453 E24.13105
G1 X8.054 Y-7.881 E24.14678
G1 X8.421 Y-5.27 E24.21255
G1 X8.557 Y-4.43 E24.23378
G1 X8.626 Y-4.334 E24.23673
G1 X7.372 Y-2.674 E24.28862
G1 X7.333 Y-2.213 E24.30016
G1 X7.406 Y-1.657 E24.31415
G1 X8.065 Y-1.447 E24.33141
G1 X8.767 Y-1.322 E24.34919
G1 X9.285 Y-1.179 E24.3626
G1 X9.825 Y-1.07 E24.37634
G1 X10.526 Y-.974 E24.39399
G1 X10.932 Y-1.397 E24.40861
G1 X11.368 Y-1.925 E24.4257
G1 X12.139 Y-2.947 E24.45763
G1 X12.313 Y-3.269 E24.46676
G1 X12.976 Y-4.316 E24.49767
G1 X12.85 Y-4.919 E24.51304
G1 X12.495 Y-5.726 E24.53503
G1 X12.114 Y-6.191 E24.55003
G1 X12.604 Y-5.945 E24.55396
G1 X13.051 Y-5.721 E24.56643
G1 X13.808 Y-5.284 E24.58823
G1 X14.045 Y-4.88 E24.59992
G1 X14.127 Y-4.567 E24.60799
G1 X14.259 Y-4.397 E24.61336
G1 X14.453 Y-3.844 E24.62798
G1 X13.753 Y-2.863 E24.65804
G1 X12.287 Y-1.077 E24.71568
G1 X11.567 Y-.184 E24.74429
G1 X11.318 Y0.272 E24.75725
G1 X11.052 Y0.941 E24.77521
G1 X9.961 Y3.264 E24.83923
G1 X8.276 Y4.812 E24.89631
G1 X7.792 Y5.513 E24.91756
G1 X7.519 Y5.748 E24.92654
G1 X7.543 Y5.875 E24.92977
G1 X6.674 Y6.086 E24.95208
G1 X5.046 Y6.657 E24.99511
G1 X4.591 Y6.738 E25.00664
G1 X2.193 Y7.213 E25.06762
G1 X0.414 Y7.614 E25.11311
G1 X-.959 Y7.959 E25.14843
G1 X-2.254 Y8.239 E25.18148
G1 X-3.596 Y8.491 E25.21554
G1 X-4.718 Y8.664 E25.24386
G1 X-5.22 Y8.634 E25.2564
G1 X-5.718 Y8.62 E25.26883
G1 X-6.423 Y8.538 E25.28653
G1 X-6.541 Y8.259 E25.29409
G1 X-6.881 Y7.868 E25.30702
G1 X-7.188 Y7.678 E25.31602
G1 X-8.025 Y7.629 E25.33694
G1 X-8.033 Y7.625 E25.33716
G1 X-8.421 Y6.994 E25.35564
G1 X-8.885 Y5.968 E25.38373
G1 X-9.985 Y4.136 E25.43703
G1 X-10.061 Y3.961 E25.44179
G1 X-10.714 Y3.663 E25.4597
G1 X-13.073 Y2.433 E25.52606
G1 X-13.933 Y1.856 E25.55189
G1 X-14.962 Y1.243 E25.58177
G1 X-15.305 Y1.18 E25.59047
G1 X-15.81 Y1.224 E25.60312
G1 X-15.86 Y1.185 E25.6047
G1 X-16.174 Y0.777 E25.61754
G1 X-16.279 Y0.609 E25.62248
G1 X-16.406 Y0.041 E25.637
G1 X-16.607 Y-.592 E25.65357
G1 X-16.962 Y-1.391 E25.67538
G1 X-16.865 Y-2.188 E25.69541
G1 X-16.766 Y-2.641 E25.70697
G1 X-16.256 Y-3.598 E25.73402
G1 X-16.038 Y-3.918 E25.74368
G1 X-15.239 Y-5.251 E25.78245
G1 X-14.382 Y-6.625 E25.82285
G1 X-14.218 Y-6.868 E25.83016
G1 X-14.172 Y-7.331 E25.84177
G1 X-14.209 Y-7.812 E25.8538
G1 X-14.338 Y-7.853 E25.85718
G1 X-14.67 Y-9.137 E25.89026
G1 X-14.83 Y-9.869 E25.90895
G1 X-14.83 Y-10.005 E25.91234
G1 X-14.559 Y-10.997 E25.93799
G1 X-14.338 Y-11.687 E25.95607
G1 X-14.029 Y-12.587 E25.97981
G1 X-13.593 Y-12.926 E25.99358
G1 X-12.814 Y-13.156 E26.01384
G1 X-12.608 Y-13.219 E26.01922
G1 X-12.527 Y-13.289 E26.02189
G1 X-12.127 Y-13.365 E26.03204
G1 X-9.985 Y-13.819 E26.08666
G1 X-9.619 Y-13.777 E26.09585
G1 X-7.953 Y-13.547 E26.13781
G1 X-6.129 Y-13.398 E26.18346
G1 X-4.51 Y-13.741 E26.22474
G1 X-3.892 Y-14.174 E26.24356
G1 X-3.41 Y-14.969 E26.26676
G1 X-3.405 Y-15.044 E26.26863
G1 X-3.189 Y-15.142 E26.27455
G1 X-1.716 Y-15.634 E26.31329
G1 X-1.635 Y-15.636 E26.31531
G1 X-.58 Y-15.465 E26.34197
G1 X0.13 Y-15.258 E26.36042
G1 X3.233 Y-14.368 E26.44094
G1 X5.749 Y-13.626 E26.50638
G1 X7.548 Y-13.035 E26.55361
G1 X9.003 Y-12.547 E26.59189
G1 X9.306 Y-12.378 E26.60055
G1 X9.708 Y-11.647 E26.62136
G1 X9.94 Y-11.137 E26.63534
G1 X10.283 Y-10.381 E26.65604
G1 X9.633 Y-10.898 E26.66669
G1 X8.885 Y-11.494 E26.69055
G1 X7.772 Y-12.147 E26.72274
G1 X0.639 Y-14.49 E26.91002
G1 X-3.607 Y-12.354 E27.02859
G0 F7200 X-3.551 Y-12.163
G0 X-3.838 Y-12.079
G0 X-4.189 Y-13.002
;TYPE:SKIN
G1 F1800 X-3.303 Y-13.622 E27.05556
G1 X-2.81 Y-14.436 E27.0793
G1 X-1.621 Y-14.834 E27.11058
G1 X-.756 Y-14.693 E27.13244
G1 X-.731 Y-14.686 E27.13309
G1 X-4.551 Y-12.764 E27.23976
G1 X-2.692 Y-6.432 E27.40438
G1 X-2.99 Y-4.918 E27.44287
G1 X-5.218 Y-3.981 E27.50317
G1 X-4.934 Y-4.57 E27.51948
G1 X-5.032 Y-5.835 E27.55113
G1 X-5.081 Y-6.056 E27.55677
G1 X-5.565 Y-7.508 E27.59495
G1 X-6.092 Y-8.476 E27.62245
G1 X-7.048 Y-8.262 E27.64688
G1 X-7.804 Y-7.886 E27.66795
G1 X-8.22 Y-7.632 E27.6801
G1 X-8.695 Y-6.581 E27.70888
G1 X-8.748 Y-6.431 E27.71284
G1 X-8.928 Y-6.328 E27.71802
G1 X-9.61 Y-5.823 E27.73919
G1 X-10.123 Y-5.129 E27.76071
G1 X-10.373 Y-4.284 E27.7827
G1 X-10.675 Y-3.737 E27.79828
G1 X-10.484 Y-3.072 E27.81554
G1 X-10.097 Y-2.301 E27.83706
G1 X-9.18 Y-2.293 E27.85994
G1 X-8.578 Y-2.31 E27.87496
G1 X-7.52 Y-2.431 E27.90152
G1 X-6.978 Y-2.616 E27.91581
G1 X-5.915 Y-3.137 E27.94534
G1 X-6.663 Y-2.142 E27.97639
G1 X-7.399 Y-.795 E28.01468
G1 X-8.134 Y0.66 E28.05534
G1 X-8.459 Y1.428 E28.07615
G1 X-8.354 Y1.926 E28.08884
G1 X-8.089 Y3.511 E28.12893
G1 X-7.428 Y4.835 E28.16584
G1 X-7.088 Y5.471 E28.18383
G1 X-6.718 Y5.815 E28.19644
G1 X-6.254 Y6.022 E28.20911
G1 X-5.139 Y6.736 E28.24214
G1 X-2.903 Y6.822 E28.29796
G1 X-2.309 Y6.893 E28.31288
G1 X-1.561 Y6.845 E28.33158
G1 X-1.009 Y6.753 E28.34554
G1 X0.788 Y6.44 E28.39104
G1 X2.282 Y6.223 E28.4287
G1 X4.115 Y5.974 E28.47484
G1 X4.977 Y5.844 E28.49659
G1 X4.445 Y5.961 E28.51018
G1 X2.03 Y6.44 E28.57159
G1 X0.231 Y6.845 E28.61759
G1 X-1.133 Y7.188 E28.65267
G1 X-2.39 Y7.46 E28.68476
G1 X-3.74 Y7.714 E28.71902
G1 X-4.758 Y7.87 E28.74471
G1 X-5.66 Y7.83 E28.76724
G1 X-5.89 Y7.804 E28.77301
G1 X-6.364 Y7.26 E28.79101
G1 X-6.943 Y6.901 E28.808
G1 X-7.573 Y6.864 E28.82375
G1 X-7.728 Y6.612 E28.83113
G1 X-8.184 Y5.601 E28.85879
G1 X-9.282 Y3.773 E28.91199
G1 X-9.457 Y3.369 E28.92297
G1 X-10.372 Y2.95 E28.94807
G1 X-12.665 Y1.755 E29.01257
G1 X-13.51 Y1.188 E29.03796
G1 X-14.679 Y0.492 E29.07189
G1 X-15.267 Y0.383 E29.08681
G1 X-15.461 Y0.4 E29.09167
G1 X-15.542 Y0.291 E29.09506
G1 X-15.642 Y-.164 E29.10668
G1 X-15.867 Y-.872 E29.12521
G1 X-16.151 Y-1.512 E29.14268
G1 X-16.084 Y-2.061 E29.15647
G1 X-16.017 Y-2.368 E29.16431
G1 X-15.584 Y-3.179 E29.18724
G1 X-15.372 Y-3.492 E29.19668
G1 X-14.569 Y-4.832 E29.23564
G1 X-13.726 Y-6.183 E29.27537
G1 X-13.452 Y-6.592 E29.28765
G1 X-13.378 Y-7.323 E29.30598
G1 X-13.463 Y-8.405 E29.33305
G1 X-13.682 Y-8.474 E29.33878
G1 X-13.904 Y-9.332 E29.36088
G1 X-14.033 Y-9.924 E29.376
G1 X-13.806 Y-10.756 E29.39751
G1 X-13.583 Y-11.456 E29.41584
G1 X-13.359 Y-12.106 E29.43299
G1 X-13.224 Y-12.211 E29.43725
G1 X-12.587 Y-12.399 E29.45382
G1 X-11.971 Y-12.591 E29.46992
G1 X-9.948 Y-13.019 E29.5215
G1 X-9.719 Y-12.993 E29.52725
G1 X-8.04 Y-12.761 E29.56953
G1 X-6.078 Y-12.601 E29.61863
G1 X-4.189 Y-13.002 E29.6668
G0 F7200 X-1.492 Y-14.503
G1 F1800 X-1.629 Y-14.64 E29.67164
G0 F7200 X-1.869 Y-14.314
G1 F1800 X-2.053 Y-14.498 E29.67813
G0 F7200 X-2.245 Y-14.125
G1 F1800 X-2.476 Y-14.356 E29.68628
G0 F7200 X-2.796 Y-14.11
G1 F1800 X-2.621 Y-13.935 E29.69245
G0 F7200 X-4.694 Y-12.614
G1 F1800 X-4.773 Y-12.693 E29.69524
G0 F7200 X-5.239 Y-12.593
G1 F1800 X-4.459 Y-11.813 E29.72275
G1 X-4.389 Y-11.743
G0 F7200 X-4.224 Y-11.012
G1 F1800 X-5.706 Y-12.494 E29.77504
G0 F7200 X-6.206 Y-12.429
G1 F1800 X-3.989 Y-10.212 E29.85325
G1 X-3.919 Y-10.142
G0 F7200 X-3.754 Y-9.41
G1 F1800 X-6.822 Y-12.479 E29.9615
G0 F7200 X-7.439 Y-12.53
G1 F1800 X-3.519 Y-8.61 E30.09979
G1 X-3.449 Y-8.54
G0 F7200 X-3.283 Y-7.809
G1 F1800 X-8.055 Y-12.58 E30.26811
G0 F7200 X-8.711 Y-12.671
G1 F1800 X-3.049 Y-7.008 E30.46787
G0 F7200 X-2.901 Y-6.296
G1 F1800 X-9.367 Y-12.761 E30.69596
G0 F7200 X-9.994 Y-12.823
G1 F1800 X-2.994 Y-5.823 E30.9429
G0 F7200 X-3.087 Y-5.35
G1 F1800 X-5.5 Y-7.763 E31.02803
G1 X-5.57 Y-7.833
G0 F7200 X-5.159 Y-6.856
G1 F1800 X-3.289 Y-4.986 E31.094
G0 F7200 X-3.688 Y-4.819
G1 F1800 X-4.889 Y-6.021 E31.13639
G0 F7200 X-4.816 Y-5.382
G1 F1800 X-4.086 Y-4.652 E31.16214
G0 F7200 X-4.484 Y-4.484
G1 F1800 X-4.768 Y-4.768 E31.17216
G0 F7200 X-6.957 Y-2.431
G1 F1800 X-6.792 Y-2.266 E31.17798
G0 F7200 X-6.996 Y-1.904
G1 F1800 X-7.379 Y-2.288 E31.19151
G0 F7200 X-7.867 Y-2.21
G1 F1800 X-7.196 Y-1.539 E31.21518
G0 F7200 X-7.395 Y-1.173
G1 F1800 X-8.374 Y-2.151 E31.2497
G0 F7200 X-8.908 Y-2.119
G1 F1800 X-7.593 Y-.805 E31.29607
G0 F7200 X-7.783 Y-.429
G1 F1800 X-9.468 Y-2.114 E31.35551
G0 F7200 X-10.039 Y-2.119
G1 F1800 X-7.973 Y-0.053 E31.4284
G0 F7200 X-8.163 Y0.321
G1 F1800 X-13.956 Y-5.471 E31.63274
G0 F7200 X-14.173 Y-5.122
G1 F1800 X-8.347 Y0.703 E31.83825
G0 F7200 X-8.515 Y1.1
G1 F1800 X-14.391 Y-4.775 E32.04553
G0 F7200 X-14.603 Y-4.421
G1 F1800 X-8.611 Y1.571 E32.25691
G0 F7200 X-8.477 Y2.27
G1 F1800 X-14.816 Y-4.067 E32.4805
G0 F7200 X-15.028 Y-3.714
G1 F1800 X-8.363 Y2.95 E32.71561
G0 F7200 X-8.21 Y3.668
G1 F1800 X-15.241 Y-3.362 E32.96363
G0 F7200 X-15.465 Y-3.02
G1 F1800 X-7.647 Y4.797 E33.23941
G1 X-7.577 Y4.867
G0 F7200 X-7.994 Y5.581
G1 F1800 X-6.795 Y6.781 E33.28173
G1 X-6.725 Y6.851
G0 F7200 X-6.132 Y6.313
G1 F1800 X-4.758 Y7.686 E33.33018
G0 F7200 X-4.268 Y7.611
G1 F1800 X-4.956 Y6.922 E33.35447
G0 F7200 X-4.368 Y6.945
G1 F1800 X-3.777 Y7.536 E33.37532
G0 F7200 X-3.3 Y7.447
G1 F1800 X-3.779 Y6.968 E33.39222
G0 F7200 X-3.191 Y6.991
G1 F1800 X-2.824 Y7.358 E33.40516
G0 F7200 X-2.573 Y7.042
G1 F1800 X-2.349 Y7.267 E33.41308
G0 F7200 X-1.997 Y7.053
G1 F1800 X-1.884 Y7.166 E33.41707
G0 F7200 X-5.348 Y7.662
G1 F1800 X-8.823 Y4.187 E33.53966
G1 X-8.893 Y4.117
G0 F7200 X-10.163 Y2.846
G1 F1800 X-15.662 Y-2.651 E33.73362
G0 F7200 X-15.853 Y-2.276
G1 F1800 X-11.327 Y2.248 E33.89325
G1 X-11.257 Y2.318
G0 F7200 X-12.508 Y1.633
G1 F1800 X-15.934 Y-1.792 E34.01409
G0 F7200 X-15.741 Y-1.033
G1 F1800 X-14.054 Y0.653 E34.07359
G1 X-13.984 Y0.723
G0 F7200 X-15.03 Y0.243
G1 F1800 X-15.464 Y-.19 E34.08888
G0 F7200 X-10.373 Y-2.453
G1 F1800 X-13.739 Y-5.82 E34.20764
G0 F7200 X-13.52 Y-6.166
G1 F1800 X-10.768 Y-3.414 E34.30473
G0 F7200 X-10.752 Y-3.964
G1 F1800 X-13.292 Y-6.504 E34.39433
G0 F7200 X-13.228 Y-7.006
G1 F1800 X-10.551 Y-4.328 E34.48879
G0 F7200 X-10.417 Y-4.76
G1 F1800 X-13.215 Y-7.558 E34.5875
G0 F7200 X-13.263 Y-8.172
G1 F1800 X-10.289 Y-5.198 E34.69241
G0 F7200 X-10.052 Y-5.526
G1 F1800 X-13.668 Y-9.142 E34.81998
G0 F7200 X-13.838 Y-9.878
G1 F1800 X-9.811 Y-5.852 E34.96202
G0 F7200 X-9.513 Y-6.119
G1 F1800 X-13.732 Y-10.338 E35.11086
G0 F7200 X-13.608 Y-10.779
G1 F1800 X-9.188 Y-6.359 E35.26679
G0 F7200 X-8.874 Y-6.611
G1 F1800 X-13.471 Y-11.209 E35.42898
G0 F7200 X-13.331 Y-11.634
G1 F1800 X-8.7 Y-7.003 E35.59235
G0 F7200 X-8.524 Y-7.392
G1 F1800 X-13.161 Y-12.03 E35.75595
G0 F7200 X-12.733 Y-12.167
G1 F1800 X-8.337 Y-7.771 E35.91103
G0 F7200 X-7.985 Y-7.985
G1 F1800 X-12.299 Y-12.299 E36.06322
G0 F7200 X-11.862 Y-12.428
G1 F1800 X-7.614 Y-8.18 E36.21308
G0 F7200 X-7.237 Y-8.368
G1 F1800 X-11.395 Y-12.527 E36.35978
G0 F7200 X-10.929 Y-12.626
G1 F1800 X-6.803 Y-8.5 E36.50533
G0 F7200 X-6.341 Y-8.604
G1 F1800 X-10.461 Y-12.724 E36.65068
G1 X-10.531 Y-12.794
G0 F7200 X-3.345 Y-4.167
G0 X-4.956 Y-3.492
G0 X-6.199 Y-1.843
G0 X-7.636 Y0.894
G0 X-7.559 Y3.339
G0 X-6.643 Y5.131
G0 X-4.967 Y6.19
G0 X-2.293 Y6.34
G0 X5.3 Y5.583
;TYPE:SKIN
G1 F1800 X5.573 Y5.856 E36.65549
G0 F7200 X5.364 Y5.929
G1 F1800 X5.152 Y5.718 E36.65922
G0 F7200 X5.546 Y5.546
G1 F1800 X5.782 Y5.782 E36.66339
G0 F7200 X5.992 Y5.709
G1 F1800 X5.792 Y5.509 E36.66691
G0 F7200 X6.037 Y5.472
G1 F1800 X6.202 Y5.636 E36.66982
G0 F7200 X6.284 Y5.435
G1 F1800 X6.411 Y5.562 E36.67206
G0 F7200 X6.478 Y5.347
G1 F1800 X6.629 Y5.498 E36.67472
G0 F7200 X6.857 Y5.443
G1 F1800 X6.668 Y5.253 E36.67806
G0 F7200 X6.857 Y5.16
G1 F1800 X7.066 Y5.369 E36.68175
G0 F7200 X7.218 Y5.238
G1 F1800 X7.047 Y5.067 E36.68477
G0 F7200 X7.236 Y4.973
G1 F1800 X7.368 Y5.106 E36.6871
G0 F7200 X7.484 Y4.939
G1 F1800 X7.419 Y4.874 E36.68825
G0 F7200 X8.863 Y3.251
G0 X6.598 Y-2.895
;TYPE:SKIN
G1 F1800 X6.416 Y-3.302 E36.69937
G1 X6.412 Y-3.887 E36.71396
G1 X6.622 Y-4.56 E36.73155
G1 X6.643 Y-5.262 E36.74907
G1 X6.428 Y-5.896 E36.76577
G1 X6.341 Y-6.091 E36.7711
G1 X6.536 Y-6.314 E36.77849
G1 X7.28 Y-7.147 E36.80635
G1 X7.353 Y-7.197 E36.80855
G1 X7.639 Y-5.151 E36.86009
G1 X7.748 Y-4.483 E36.87697
G1 X6.604 Y-2.968 E36.92433
G1 X6.598 Y-2.895 E36.92615
G0 F7200 X6.737 Y-3.445
G1 F1800 X6.593 Y-3.589 E36.93123
G0 F7200 X6.981 Y-3.766
G1 F1800 X6.66 Y-4.087 E36.94256
G0 F7200 X6.796 Y-4.517
G1 F1800 X7.224 Y-4.089 E36.95766
G0 F7200 X7.467 Y-4.411
G1 F1800 X6.816 Y-5.062 E36.98062
G0 F7200 X7.487 Y-4.957
G1 F1800 X6.651 Y-5.794 E37.01013
G0 F7200 X6.738 Y-6.272
G1 F1800 X7.391 Y-5.619 E37.03317
G0 F7200 X7.299 Y-6.276
G1 F1800 X7.005 Y-6.571 E37.04356
G0 F7200 X7.094 Y-2.208
G0 X7.971 Y-.661
G1 F1800 X8.589 Y-.552 E37.05921
G1 X9.101 Y-.41 E37.07247
G1 X9.693 Y-.291 E37.08753
G1 X10.654 Y-.159 E37.11173
G1 X10.602 Y-0.064 E37.11443
G1 X10.325 Y0.631 E37.13309
G1 X9.464 Y2.463 E37.18359
G1 X9.447 Y2.366 E37.18604
G1 X8.866 Y1.171 E37.21919
G1 X8.45 Y0.416 E37.24069
G1 X7.971 Y-.661 E37.27009
G0 F7200 X10.325 Y0.143
G1 F1800 X10.132 Y-0.049 E37.27689
G0 F7200 X10.163 Y0.547
G1 F1800 X9.462 Y-.154 E37.30162
G0 F7200 X8.723 Y-.327
G1 F1800 X9.983 Y0.932 E37.34605
G0 F7200 X9.803 Y1.318
G1 F1800 X8.442 Y-0.042 E37.39404
G1 X8.372 Y-.112
G0 F7200 X9.041 Y1.121
G1 F1800 X9.622 Y1.702 E37.41454
G1 X9.692 Y1.772
G0 F7200 X10.984 Y-.328
;TYPE:SKIN
G1 F1800 X10.844 Y-.469 E37.41702
G0 F7200 X10.982 Y-.613
G1 F1800 X11.085 Y-.511 E37.41883
G0 F7200 X11.211 Y-.667
G1 F1800 X11.121 Y-.758 E37.42042
G0 F7200 X11.259 Y-.902
G1 F1800 X11.338 Y-.823 E37.42182
G0 F7200 X11.464 Y-.98
G1 F1800 X11.395 Y-1.049 E37.42303
G0 F7200 X11.523 Y-1.204
G1 F1800 X11.59 Y-1.137 E37.42421
G0 F7200 X11.717 Y-1.293
G1 F1800 X11.651 Y-1.359 E37.42538
G0 F7200 X11.779 Y-1.513
G1 F1800 X11.843 Y-1.45 E37.4265
G0 F7200 X11.971 Y-1.605
G1 F1800 X11.903 Y-1.673 E37.4277
G0 F7200 X12.025 Y-1.834
G1 F1800 X12.098 Y-1.76 E37.42899
G0 F7200 X12.225 Y-1.916
G1 F1800 X12.146 Y-1.995 E37.43039
G0 F7200 X12.268 Y-2.156
G1 F1800 X12.353 Y-2.071 E37.43189
G0 F7200 X12.481 Y-2.226
G1 F1800 X12.389 Y-2.317 E37.4335
G0 F7200 X12.511 Y-2.479
G1 F1800 X12.608 Y-2.382 E37.43521
G0 F7200 X12.735 Y-2.537
G1 F1800 X12.632 Y-2.641 E37.43704
G0 F7200 X12.731 Y-2.824
G1 F1800 X12.862 Y-2.693 E37.43935
G0 F7200 X12.99 Y-2.848
G1 F1800 X12.833 Y-3.005 E37.44212
G0 F7200 X12.942 Y-3.179
G1 F1800 X13.118 Y-3.003 E37.44522
G0 F7200 X13.245 Y-3.159
G1 F1800 X13.051 Y-3.353 E37.44864
G0 F7200 X13.161 Y-3.526
G1 F1800 X13.367 Y-3.32 E37.45228
G0 F7200 X13.484 Y-3.486
G1 F1800 X13.27 Y-3.7 E37.45605
G0 F7200 X13.379 Y-3.873
G1 F1800 X13.602 Y-3.65 E37.45999
G0 F7200 X13.719 Y-3.816
G1 F1800 X13.489 Y-4.046 E37.46404
G0 F7200 X13.583 Y-4.235
G1 F1800 X13.765 Y-4.053 E37.46725
G0 F7200 X8.863 Y3.251
G0 X7.754 Y4.23
G0 X6.202 Y5.103
G0 X-1.63 Y6.298
G0 X-4.967 Y6.19
G0 X-6.411 Y5.348
G0 X-7.559 Y3.339
G0 X-7.883 Y1.484
G0 X-6.915 Y-.533
G0 X-6.199 Y-1.843
G0 X-4.956 Y-3.492
G0 X-3.882 Y-12.473
G0 X0.65 Y-14.745
G0 X7.882 Y-12.481
G0 X7.706 Y-12.657
G1 F1800 X6.988 Y-12.81 E37.47779
G1 X3.264 Y-13.988 E37.53386
G1 X0.81 Y-14.745 E37.57073
G1 X0.553 Y-14.719 E37.57444
G0 F7200 X0.544 Y-14.778
G0 X3.831 Y-13.987
G0 X4.085 Y-13.732
G1 F1800 X4.908 Y-13.476 E37.5874
G1 X7.409 Y-12.671 E37.62693
G0 F7200 X7.512 Y-12.653
;MESH:NONMESH
G0 F600 X7.512 Y-12.653 Z0.75
G0 F7200 X0.65 Y-14.745
G0 X-3.882 Y-12.473
G0 X-4.956 Y-3.492
G0 X-6.199 Y-1.843
G0 X-7.636 Y0.894
G0 X-7.559 Y3.339
G0 X-6.643 Y5.131
G0 X-4.967 Y6.19
G0 X-2.293 Y6.34
G0 X7.569 Y5.312
G0 X7.925 Y5.612
;TIME_ELAPSED:54.104373
;LAYER:3
;TYPE:WALL-INNER
;MESH:bunny.stl
G1 F3600 X7.96 Y5.791 E37.63148
G1 X6.615 Y6.101 E37.66591
G1 X6.314 Y6.157 E37.67354
G1 X5.806 Y6.24 E37.68638
G1 X3.305 Y6.685 E37.74975
G1 X2.104 Y6.923 E37.78029
G1 X1.208 Y7.124 E37.8032
G1 X0.525 Y7.296 E37.82077
G1 X-2.045 Y7.852 E37.88636
G1 X-4.668 Y8.344 E37.95293
G1 X-5.049 Y8.368 E37.96246
G1 X-5.977 Y8.261 E37.98576
G1 X-6.332 Y8.209 E37.99471
G1 X-6.63 Y7.869 E38.00599
G1 X-7.194 Y7.519 E38.02255
G1 X-7.573 Y7.497 E38.03202
G1 X-7.85 Y7.356 E38.03977
G1 X-8.136 Y6.798 E38.05541
G1 X-8.514 Y5.77 E38.08273
G1 X-9.315 Y4.433 E38.12161
G1 X-9.667 Y3.616 E38.1438
G1 X-10.178 Y3.391 E38.15773
G1 X-10.857 Y3.13 E38.17588
G1 X-12.942 Y2.144 E38.23341
G1 X-13.261 Y1.966 E38.24252
G1 X-14.861 Y1.013 E38.28898
G1 X-15.477 Y0.9 E38.3046
G1 X-15.586 Y0.91 E38.30733
G1 X-15.83 Y0.687 E38.31558
G1 X-16.103 Y0.245 E38.32854
G1 X-16.218 Y-.197 E38.33993
G1 X-16.393 Y-.831 E38.35633
G1 X-16.598 Y-1.291 E38.3689
G1 X-16.739 Y-1.933 E38.38529
G1 X-16.494 Y-2.593 E38.40286
G1 X-15.975 Y-3.357 E38.42589
G1 X-15.43 Y-4.144 E38.44977
G1 X-15.12 Y-4.537 E38.46226
G1 X-14.407 Y-5.696 E38.4962
G1 X-13.867 Y-6.424 E38.51882
G1 X-13.703 Y-6.892 E38.53119
G1 X-13.782 Y-7.248 E38.54028
G1 X-13.966 Y-7.453 E38.54715
G1 X-14.057 Y-7.658 E38.55275
G1 X-14.437 Y-8.945 E38.58622
G1 X-14.49 Y-9.15 E38.5915
G1 X-14.603 Y-10.142 E38.61641
G1 X-14.738 Y-11.197 E38.64294
G1 X-14.447 Y-12.101 E38.66663
G1 X-14.233 Y-12.462 E38.6771
G1 X-13.851 Y-12.945 E38.69246
G1 X-13.547 Y-13.035 E38.70037
G1 X-13.011 Y-13.158 E38.71409
G1 X-12.608 Y-13.309 E38.72482
G1 X-12.18 Y-13.682 E38.73899
G1 X-11.475 Y-13.816 E38.75689
G1 X-10.677 Y-13.753 E38.77686
G1 X-9.365 Y-13.649 E38.80969
G1 X-7.863 Y-13.48 E38.84739
G1 X-7.302 Y-13.401 E38.86152
G1 X-6.607 Y-13.345 E38.87892
G1 X-5.891 Y-13.496 E38.89717
G1 X-5.505 Y-13.765 E38.90891
G1 X-5.218 Y-14.237 E38.92268
G1 X-5.21 Y-14.375 E38.92613
G1 X-4.257 Y-15.056 E38.95535
G1 X-3.208 Y-15.735 E38.98652
G1 X-2.968 Y-15.871 E38.9934
G1 X-2.438 Y-15.957 E39.0068
G1 X-1.969 Y-15.962 E39.0185
G1 X-1.128 Y-15.677 E39.04065
G1 X-.184 Y-15.402 E39.06518
G1 X1.538 Y-14.812 E39.11058
G1 X2.801 Y-14.534 E39.14284
G1 X4.923 Y-14.005 E39.1974
G1 X5.885 Y-13.689 E39.22265
G1 X8.445 Y-12.835 E39.28997
G1 X9.267 Y-12.556 E39.31163
G1 X9.706 Y-12.182 E39.32601
G1 X10.06 Y-11.455 E39.34618
G1 X10.604 Y-10.645 E39.37052
G1 X10.617 Y-10.617 E39.37129
G1 X10.945 Y-9.279 E39.40566
G1 X11.066 Y-8.671 E39.42112
G1 X11.484 Y-8.361 E39.4341
G1 X14.058 Y-5.636 E39.52761
G1 X15.067 Y-3.457 E39.58751
G1 X11.747 Y-.181 E39.70386
G1 X11.342 Y-0.045 E39.71452
G1 X11.044 Y0.291 E39.72572
G1 X10.865 Y1.121 E39.7469
G1 X10.039 Y2.907 E39.79599
G1 X9.821 Y3.374 E39.80884
G1 X9.559 Y3.613 E39.81769
G1 X8.559 Y5.066 E39.86169
G1 X7.925 Y5.612 E39.88256
G0 F7200 X12.611 Y-4.101
G0 X12.209 Y-5.497
G0 X11.721 Y-6.421
G1 F3600 X10.876 Y-5.757 E39.90937
G1 X10.659 Y-5.507 E39.91762
G1 X10.478 Y-5.459 E39.9223
G1 X9.751 Y-4.656 E39.94932
G1 X9.415 Y-4.134 E39.9648
G1 X9.157 Y-3.686 E39.9777
G1 X7.313 Y-2.302 E40.03521
G1 X7.451 Y-1.569 E40.05382
G1 X9.733 Y-.931 E40.11293
G1 X10.647 Y-.795 E40.13598
G1 X11.526 Y-1.742 E40.16821
G1 X11.683 Y-2.03 E40.17639
G1 X12.428 Y-3.42 E40.21573
G1 X12.782 Y-4.074 E40.23428
G1 X12.626 Y-4.829 E40.25351
G1 X12.288 Y-5.746 E40.27789
G1 X11.721 Y-6.421 E40.29988
G0 F7200 X9.249 Y-10.245
G1 F3600 X6.501 Y-11.859 E40.37938
G1 X0.993 Y-13.669 E40.524
G1 X-2.657 Y-11.832 E40.62594
G1 X-1.301 Y-7.217 E40.74592
G1 X-1.858 Y-4.406 E40.81741
G1 X-5.391 Y-2.92 E40.91302
G1 X-6.089 Y-1.992 E40.94198
G1 X-6.345 Y-1.527 E40.95522
G1 X-7.05 Y-.225 E40.99216
G1 X-7.633 Y0.948 E41.02483
G1 X-7.836 Y1.664 E41.0434
G1 X-7.613 Y2.718 E41.07027
G1 X-7.506 Y3.343 E41.08609
G1 X-7.261 Y3.837 E41.09985
G1 X-6.877 Y4.68 E41.12295
G1 X-6.584 Y5.096 E41.13565
G1 X-6.133 Y5.517 E41.15104
G1 X-5.169 Y5.944 E41.17734
G1 X-4.816 Y6.171 E41.18781
G1 X-4.138 Y6.197 E41.20473
G1 X-2.746 Y6.365 E41.23971
G1 X-1.823 Y6.321 E41.26276
G1 X-1.124 Y6.262 E41.28026
G1 X0.17 Y6.05 E41.31297
G1 X1.886 Y5.749 E41.35642
G1 X4.143 Y5.361 E41.41355
G1 X5.445 Y5.184 E41.44633
G1 X6.433 Y5.036 E41.47125
G1 X6.938 Y4.786 E41.48531
G1 X7.308 Y4.533 E41.49649
G1 X7.913 Y4.172 E41.51406
G1 X8.414 Y3.715 E41.53098
G1 X8.771 Y3.428 E41.5424
G1 X8.959 Y2.965 E41.55487
G1 X8.866 Y2.287 E41.57194
G1 X8.566 Y1.668 E41.5891
G1 X8.253 Y1.1 E41.60528
G1 X7.643 Y0.128 E41.6339
G1 X7.469 Y-.263 E41.64458
G1 X6.914 Y-1.092 E41.66946
G1 X6.428 Y-1.825 E41.6914
G1 X6.39 Y-1.892 E41.69332
G1 X6.009 Y-2.753 E41.71681
G1 X5.851 Y-3.233 E41.72942
G1 X5.829 Y-3.723 E41.74165
G1 X5.864 Y-3.995 E41.74849
G1 X5.892 Y-4.939 E41.77205
G1 X5.559 Y-5.925 E41.79801
G1 X5.04 Y-7.078 E41.82955
G1 X5.112 Y-7.16 E41.83228
G1 X5.804 Y-7.91 E41.85773
G1 X9.249 Y-10.245 E41.96155
G0 F7200 X6.433 Y-11.712
G0 X1.007 Y-13.492
G0 X-2.454 Y-11.744
G0 X-5.868 Y-4.174
G0 X-6.761 Y-3.574
G0 X-7.602 Y-3.301
G0 X-8.669 Y-3.193
G0 X-9.155 Y-3.622
G1 F3600 X-8.751 Y-3.018 E41.97967
G1 X-7.571 Y-3.143 E42.00927
G1 X-6.7 Y-3.426 E42.03212
G1 X-6.014 Y-3.763 E42.05118
G1 X-5.733 Y-4.085 E42.06185
G1 X-5.539 Y-4.481 E42.07284
G1 X-5.588 Y-5.099 E42.08831
G1 X-5.916 Y-6.52 E42.12469
G1 X-6.619 Y-6.703 E42.14281
G1 X-7.365 Y-5.882 E42.17048
G1 X-7.519 Y-5.447 E42.18199
G1 X-8.201 Y-5.058 E42.20158
G1 X-8.53 Y-4.765 E42.21257
G1 X-9.155 Y-3.622 E42.24506
G0 F7200 X-8.688 Y-3.643
;TYPE:WALL-OUTER
G1 F1800 X-8.553 Y-3.441 E42.25112
G1 X-7.655 Y-3.536 E42.27365
G1 X-6.851 Y-3.798 E42.29474
G1 X-6.262 Y-4.087 E42.31111
G1 X-6.069 Y-4.308 E42.31843
G1 X-5.946 Y-4.559 E42.3254
G1 X-5.984 Y-5.038 E42.33739
G1 X-6.251 Y-6.194 E42.36698
G1 X-6.486 Y-6.255 E42.37304
G1 X-7.015 Y-5.673 E42.39266
G1 X-7.192 Y-5.172 E42.40591
G1 X-7.966 Y-4.731 E42.42814
G1 X-8.212 Y-4.512 E42.43635
G1 X-8.688 Y-3.643 E42.46107
G0 F7200 X-8.577 Y-3.477
G0 X-8.828 Y-3.311
G0 X-7.602 Y-3.301
G0 X-6.761 Y-3.574
G0 X-1.292 Y-6.4
G0 X-2.454 Y-11.744
G0 X1.007 Y-13.492
G0 X6.433 Y-11.712
G0 X8.651 Y-10.478
G0 X8.5 Y-10.221
G1 F1800 X6.335 Y-11.492 E42.52369
G1 X1.025 Y-13.237 E42.66312
G1 X-2.179 Y-11.625 E42.75259
G1 X-.89 Y-7.237 E42.86667
G1 X-1.507 Y-4.119 E42.94596
G1 X-5.136 Y-2.593 E43.04416
G1 X-5.752 Y-1.774 E43.06973
G1 X-5.994 Y-1.335 E43.08223
G1 X-6.695 Y-0.041 E43.11894
G1 X-7.258 Y1.093 E43.15053
G1 X-7.424 Y1.678 E43.16569
G1 X-7.219 Y2.651 E43.1905
G1 X-7.122 Y3.218 E43.20485
G1 X-6.897 Y3.671 E43.21747
G1 X-6.528 Y4.48 E43.23965
G1 X-6.281 Y4.832 E43.25037
G1 X-5.909 Y5.179 E43.26306
G1 X-4.979 Y5.591 E43.28844
G1 X-4.692 Y5.775 E43.29694
G1 X-4.111 Y5.797 E43.31144
G1 X-2.731 Y5.964 E43.34612
G1 X-1.849 Y5.922 E43.36815
G1 X-1.173 Y5.865 E43.38507
G1 X0.103 Y5.656 E43.41732
G1 X1.817 Y5.355 E43.46073
G1 X4.078 Y4.967 E43.51796
G1 X5.388 Y4.788 E43.55094
G1 X6.312 Y4.65 E43.57425
G1 X6.736 Y4.44 E43.58605
G1 X7.095 Y4.195 E43.59689
G1 X7.673 Y3.849 E43.61369
G1 X8.151 Y3.413 E43.62983
G1 X8.439 Y3.181 E43.63906
G1 X8.548 Y2.913 E43.64628
G1 X8.478 Y2.404 E43.65909
G1 X8.211 Y1.852 E43.67439
G1 X7.908 Y1.303 E43.69003
G1 X7.291 Y0.32 E43.71898
G1 X7.118 Y-0.069 E43.7296
G1 X6.582 Y-.869 E43.75362
G1 X6.089 Y-1.613 E43.77589
G1 X6.029 Y-1.718 E43.7789
G1 X5.635 Y-2.61 E43.80323
G1 X5.453 Y-3.16 E43.81768
G1 X5.427 Y-3.741 E43.83219
G1 X5.465 Y-4.027 E43.83938
G1 X5.49 Y-4.879 E43.86065
G1 X5.186 Y-5.778 E43.88432
G1 X4.569 Y-7.148 E43.9218
G1 X4.811 Y-7.424 E43.93096
G1 X5.541 Y-8.215 E43.95781
G1 X8.5 Y-10.221 E44.04698
G0 F7200 X8.328 Y-10.322
G0 X8.479 Y-10.579
G0 X11.48 Y-6.103
G0 X11.664 Y-5.867
G1 F1800 X11.153 Y-5.466 E44.06319
G1 X10.88 Y-5.152 E44.07357
G1 X10.695 Y-5.103 E44.07834
G1 X10.07 Y-4.412 E44.10158
G1 X9.757 Y-3.926 E44.116
G1 X9.463 Y-3.415 E44.13071
G1 X7.752 Y-2.131 E44.18407
G1 X7.798 Y-1.887 E44.19026
G1 X9.817 Y-1.323 E44.24256
G1 X10.497 Y-1.222 E44.2597
G1 X11.199 Y-1.977 E44.28542
G1 X11.331 Y-2.22 E44.29232
G1 X12.076 Y-3.611 E44.33168
G1 X12.361 Y-4.136 E44.34658
G1 X12.24 Y-4.719 E44.36144
G1 X11.937 Y-5.542 E44.38331
G1 X11.664 Y-5.867 E44.3939
G0 F7200 X11.507 Y-5.744
G0 X11.323 Y-5.98
G0 X12.147 Y-5.664
G0 X12.47 Y-4.789
G0 X8.067 Y5.821
G0 X8.362 Y5.764
G1 F1800 X8.426 Y6.094 E44.40229
G1 X6.705 Y6.491 E44.44634
G1 X6.378 Y6.552 E44.45464
G1 X5.873 Y6.634 E44.4674
G1 X3.379 Y7.078 E44.5306
G1 X2.187 Y7.314 E44.56091
G1 X1.301 Y7.513 E44.58356
G1 X0.618 Y7.685 E44.60113
G1 X-1.958 Y8.243 E44.66688
G1 X-4.617 Y8.741 E44.73436
G1 X-5.058 Y8.769 E44.74538
G1 X-6.035 Y8.657 E44.76991
G1 X-6.536 Y8.583 E44.78255
G1 X-6.892 Y8.177 E44.79602
G1 X-7.319 Y7.912 E44.80855
G1 X-7.681 Y7.891 E44.8176
G1 X-8.147 Y7.654 E44.83064
G1 X-8.502 Y6.96 E44.85008
G1 X-8.876 Y5.943 E44.87712
G1 X-9.67 Y4.619 E44.91563
G1 X-9.972 Y3.919 E44.93464
G1 X-10.33 Y3.761 E44.9444
G1 X-11.014 Y3.499 E44.96268
G1 X-13.129 Y2.498 E45.02105
G1 X-13.456 Y2.316 E45.03038
G1 X-15.004 Y1.393 E45.07534
G1 X-15.495 Y1.303 E45.08779
G1 X-15.708 Y1.323 E45.09313
G1 X-16.05 Y1.057 E45.10394
G1 X-16.157 Y0.918 E45.10831
G1 X-16.475 Y0.403 E45.12341
G1 X-16.604 Y-0.093 E45.13619
G1 X-16.771 Y-.695 E45.15178
G1 X-16.981 Y-1.167 E45.16467
G1 X-17.141 Y-1.9 E45.18338
G1 X-17.152 Y-1.968 E45.1851
G1 X-16.852 Y-2.779 E45.20667
G1 X-16.304 Y-3.585 E45.23098
G1 X-15.759 Y-4.372 E45.25486
G1 X-15.449 Y-4.766 E45.26737
G1 X-14.744 Y-5.912 E45.30093
G1 X-14.224 Y-6.614 E45.32272
G1 X-14.118 Y-6.916 E45.33071
G1 X-14.15 Y-7.059 E45.33436
G1 X-14.305 Y-7.232 E45.34016
G1 X-14.435 Y-7.523 E45.34811
G1 X-14.821 Y-8.832 E45.38215
G1 X-14.884 Y-9.076 E45.38844
G1 X-15 Y-10.094 E45.414
G1 X-15.145 Y-11.227 E45.44249
G1 X-15.144 Y-11.24 E45.44281
G1 X-14.814 Y-12.266 E45.4697
G1 X-14.563 Y-12.69 E45.48199
G1 X-14.087 Y-13.292 E45.50113
G1 X-13.642 Y-13.424 E45.51271
G1 X-13.126 Y-13.542 E45.52592
G1 X-12.816 Y-13.658 E45.53417
G1 X-12.361 Y-14.055 E45.54924
G1 X-11.503 Y-14.218 E45.57102
G1 X-10.985 Y-14.188 E45.58397
G1 X-10.64 Y-14.151 E45.59262
G1 X-9.334 Y-14.048 E45.6253
G1 X-7.808 Y-13.876 E45.66361
G1 X-7.258 Y-13.799 E45.67746
G1 X-6.633 Y-13.748 E45.6931
G1 X-6.053 Y-13.871 E45.70789
G1 X-5.803 Y-14.045 E45.71549
G1 X-5.611 Y-14.36 E45.72469
G1 X-5.597 Y-14.59 E45.73044
G1 X-4.48 Y-15.388 E45.76469
G1 X-3.413 Y-16.079 E45.7964
G1 X-3.133 Y-16.246 E45.80453
G1 X-3.032 Y-16.266 E45.8071
G1 X-2.473 Y-16.357 E45.82122
G1 X-1.904 Y-16.363 E45.83542
G1 X-1.008 Y-16.059 E45.85902
G1 X-0.072 Y-15.786 E45.88334
G1 X1.646 Y-15.198 E45.92864
G1 X2.887 Y-14.925 E45.96034
G1 X5.035 Y-14.389 E46.01556
G1 X6.01 Y-14.069 E46.04116
G1 X8.573 Y-13.214 E46.10856
G1 X9.429 Y-12.924 E46.1311
G1 X9.608 Y-12.824 E46.13622
G1 X10.034 Y-12.424 E46.15079
G1 X10.408 Y-11.655 E46.17213
G1 X10.955 Y-10.84 E46.19661
G1 X10.996 Y-10.748 E46.19912
G1 X11.337 Y-9.357 E46.23485
G1 X11.428 Y-8.9 E46.24647
G1 X11.754 Y-8.658 E46.2566
G1 X14.393 Y-5.864 E46.35247
G1 X15.482 Y-3.514 E46.41708
G1 X15.536 Y-3.348 E46.42143
G1 X15.421 Y-3.244 E46.4253
G1 X11.963 Y0.168 E46.54648
G1 X11.571 Y0.3 E46.5568
G1 X11.413 Y0.478 E46.56274
G1 X11.247 Y1.249 E46.58241
G1 X10.402 Y3.075 E46.6326
G1 X10.149 Y3.617 E46.64752
G1 X9.863 Y3.878 E46.65718
G1 X8.861 Y5.334 E46.70127
G1 X8.362 Y5.764 E46.7177
G0 F7200 X8.4 Y5.96
G0 X8.109 Y5.888
G0 X7.504 Y5.495
;TYPE:SKIN
G1 F1800 X6.543 Y5.717 E46.74231
G1 X5.74 Y5.856 E46.76264
G1 X3.233 Y6.301 E46.82615
G1 X2.024 Y6.541 E46.8569
G1 X1.118 Y6.744 E46.88006
G1 X0.436 Y6.916 E46.8976
G1 X-2.093 Y7.464 E46.96215
G1 X-4.716 Y7.956 E47.02873
G1 X-5.04 Y7.976 E47.03682
G1 X-5.932 Y7.873 E47.05922
G1 X-6.133 Y7.844 E47.06429
G1 X-6.375 Y7.569 E47.07343
G1 X-7.073 Y7.135 E47.09393
G1 X-7.472 Y7.111 E47.1039
G1 X-7.561 Y7.066 E47.10639
G1 X-7.776 Y6.645 E47.11818
G1 X-8.161 Y5.601 E47.14594
G1 X-8.97 Y4.249 E47.18524
G1 X-9.369 Y3.321 E47.21044
G1 X-10.03 Y3.03 E47.22845
G1 X-10.697 Y2.774 E47.24628
G1 X-12.767 Y1.795 E47.3034
G1 X-13.071 Y1.625 E47.31208
G1 X-14.722 Y0.642 E47.36002
G1 X-15.448 Y0.508 E47.37843
G1 X-15.74 Y0.091 E47.39113
G1 X-15.842 Y-.298 E47.40116
G1 X-16.025 Y-.963 E47.41837
G1 X-16.225 Y-1.411 E47.43061
G1 X-16.333 Y-1.906 E47.44324
G1 X-16.145 Y-2.414 E47.45676
G1 X-15.655 Y-3.135 E47.4785
G1 X-15.124 Y-3.902 E47.50177
G1 X-14.8 Y-4.313 E47.51483
G1 X-14.087 Y-5.472 E47.54877
G1 X-13.518 Y-6.239 E47.57259
G1 X-13.298 Y-6.868 E47.58922
G1 X-13.423 Y-7.433 E47.60365
G1 X-13.635 Y-7.669 E47.61157
G1 X-13.69 Y-7.795 E47.615
G1 X-14.063 Y-9.056 E47.6478
G1 X-14.106 Y-9.222 E47.65208
G1 X-14.215 Y-10.189 E47.67635
G1 X-14.34 Y-11.159 E47.70075
G1 X-14.089 Y-11.94 E47.72121
G1 X-13.913 Y-12.238 E47.72984
G1 X-13.622 Y-12.606 E47.74155
G1 X-13.444 Y-12.659 E47.74618
G1 X-12.898 Y-12.784 E47.76015
G1 X-12.405 Y-12.968 E47.77328
G1 X-12.004 Y-13.318 E47.78656
G1 X-11.451 Y-13.424 E47.8006
G1 X-9.408 Y-13.261 E47.85173
G1 X-7.906 Y-13.092 E47.88943
G1 X-7.345 Y-13.013 E47.90356
G1 X-6.582 Y-12.951 E47.92266
G1 X-5.733 Y-13.131 E47.94431
G1 X-5.215 Y-13.492 E47.96006
G1 X-4.834 Y-14.118 E47.97834
G1 X-4.831 Y-14.166 E47.97954
G1 X-4.045 Y-14.728 E48.00364
G1 X-3 Y-15.404 E48.03469
G1 X-2.836 Y-15.497 E48.03939
G1 X-2.405 Y-15.567 E48.05028
G1 X-2.03 Y-15.572 E48.05964
G1 X-1.245 Y-15.305 E48.08032
G1 X-.302 Y-15.03 E48.10482
G1 X1.433 Y-14.436 E48.15057
G1 X2.712 Y-14.155 E48.18324
G1 X4.808 Y-13.632 E48.23712
G1 X5.764 Y-13.318 E48.26223
G1 X8.324 Y-12.464 E48.32954
G1 X9.069 Y-12.212 E48.34916
G1 X9.391 Y-11.938 E48.35971
G1 X9.721 Y-11.26 E48.37852
G1 X10.251 Y-10.469 E48.40227
G1 X10.565 Y-9.195 E48.435
G1 X10.713 Y-8.447 E48.45402
G1 X11.23 Y-8.063 E48.47009
G1 X13.732 Y-5.416 E48.56095
G1 X14.599 Y-3.541 E48.61248
G1 X11.541 Y-.523 E48.71965
G1 X11.119 Y-.382 E48.73075
G1 X10.685 Y0.109 E48.7471
G1 X10.492 Y0.999 E48.76982
G1 X9.685 Y2.743 E48.81775
G1 X9.5 Y3.138 E48.82863
G1 X9.263 Y3.355 E48.83665
G1 X9.163 Y3.501 E48.84106
G1 X9.359 Y3.015 E48.85413
G1 X9.244 Y2.172 E48.87536
G1 X8.913 Y1.489 E48.89429
G1 X8.589 Y0.901 E48.91104
G1 X7.991 Y-0.05 E48.93906
G1 X7.812 Y-.452 E48.95004
G1 X7.308 Y-1.204 E48.97262
G1 X9.651 Y-.549 E49.03331
G1 X10.793 Y-.379 E49.06211
G1 X11.846 Y-1.512 E49.10069
G1 X12.771 Y-3.235 E49.14947
G1 X13.193 Y-4.013 E49.17155
G1 X13.002 Y-4.936 E49.19507
G1 X12.631 Y-5.945 E49.22188
G1 X11.777 Y-6.961 E49.25499
G1 X10.605 Y-6.04 E49.29217
G1 X10.443 Y-5.853 E49.29835
G1 X10.266 Y-5.806 E49.30291
G1 X9.441 Y-4.894 E49.33359
G1 X9.082 Y-4.337 E49.35012
G1 X8.858 Y-3.95 E49.36128
G1 X6.884 Y-2.468 E49.42285
G1 X7.049 Y-1.594 E49.44504
G1 X6.765 Y-2.023 E49.45787
G1 X6.739 Y-2.068 E49.45917
G1 X6.37 Y-2.902 E49.48192
G1 X6.239 Y-3.301 E49.49239
G1 X6.221 Y-3.712 E49.50265
G1 X6.254 Y-3.964 E49.50899
G1 X6.284 Y-4.998 E49.5348
G1 X5.922 Y-6.068 E49.56298
G1 X5.5 Y-7.005 E49.58861
G1 X6.062 Y-7.613 E49.60926
G1 X9.979 Y-10.269 E49.72732
G1 X6.663 Y-12.216 E49.82324
G1 X0.962 Y-14.09 E49.97294
G1 X-3.123 Y-12.034 E50.08702
G1 X-1.702 Y-7.198 E50.21275
G1 X-2.199 Y-4.685 E50.27665
G1 X-5.639 Y-3.238 E50.36975
G1 X-6.417 Y-2.205 E50.40201
G1 X-6.688 Y-1.714 E50.416
G1 X-7.397 Y-.404 E50.45315
G1 X-7.998 Y0.807 E50.48688
G1 X-8.238 Y1.65 E50.50874
G1 X-7.997 Y2.784 E50.53766
G1 X-7.881 Y3.466 E50.55492
G1 X-7.616 Y3.999 E50.56977
G1 X-7.217 Y4.875 E50.59378
G1 X-6.88 Y5.353 E50.60837
G1 X-6.351 Y5.847 E50.62642
G1 X-5.353 Y6.29 E50.65366
G1 X-4.937 Y6.557 E50.66599
G1 X-4.175 Y6.587 E50.68502
G1 X-2.76 Y6.757 E50.72057
G1 X-1.797 Y6.711 E50.74462
G1 X-1.076 Y6.65 E50.76267
G1 X0.235 Y6.434 E50.79581
G1 X1.954 Y6.133 E50.83934
G1 X4.211 Y5.745 E50.89647
G1 X5.5 Y5.57 E50.92892
G1 X6.552 Y5.412 E50.95546
G1 X7.135 Y5.123 E50.97169
G1 X7.523 Y4.858 E50.98341
G1 X8.147 Y4.486 E51.00153
G1 X8.668 Y4.011 E51.01912
G1 X8.989 Y3.753 E51.02939
G1 X8.268 Y4.8 E51.0611
G1 X7.498 Y5.464 E51.08646
G1 X7.504 Y5.495 E51.08725
G0 F7200 X-2.743 Y6.204
G0 X-4.767 Y6.011
G0 X-6.045 Y5.38
G0 X-6.736 Y4.6
G0 X-7.352 Y3.292
G0 X-7.669 Y1.671
G0 X-5.405 Y-3.867
G1 F1800 X-5.141 Y-4.405 E51.1022
G1 X-5.202 Y-5.159 E51.12107
G1 X-5.589 Y-6.838 E51.16405
G1 X-6.749 Y-7.14 E51.19395
G1 X-7.706 Y-6.087 E51.22945
G1 X-7.839 Y-5.714 E51.23933
G1 X-8.429 Y-5.376 E51.25629
G1 X-8.84 Y-5.011 E51.27
G1 X-9.611 Y-3.602 E51.31006
G1 X-8.944 Y-2.605 E51.33999
G1 X-7.489 Y-2.759 E51.37649
G1 X-6.553 Y-3.063 E51.40103
G1 X-5.772 Y-3.447 E51.42274
G1 X-5.405 Y-3.867 E51.43666
G0 F7200 X-6.056 Y-6.384
G0 X-12.843 Y-12.612
G1 F1800 X-14.08 Y-11.375 E51.4803
G0 F7200 X-14.108 Y-10.781
G1 F1800 X-11.696 Y-13.193 E51.56539
G0 F7200 X-11.107 Y-13.216
G1 F1800 X-14.043 Y-10.28 E51.66896
G0 F7200 X-13.985 Y-9.772
G1 F1800 X-10.584 Y-13.174 E51.78896
G0 F7200 X-10.06 Y-13.132
G1 F1800 X-13.929 Y-9.263 E51.92545
G0 F7200 X-13.804 Y-8.822
G1 F1800 X-9.537 Y-13.089 E52.07598
G0 F7200 X-9.025 Y-13.036
G1 F1800 X-13.676 Y-8.385 E52.24005
G0 F7200 X-13.546 Y-7.949
G1 F1800 X-8.517 Y-12.978 E52.41747
G0 F7200 X-8.007 Y-12.922
G1 F1800 X-13.33 Y-7.599 E52.60525
G0 F7200 X-13.182 Y-7.182
G1 F1800 X-7.51 Y-12.854 E52.80534
G0 F7200 X-6.995 Y-12.803
G1 F1800 X-13.2 Y-6.598 E53.02424
G1 X-13.27 Y-6.528
G0 F7200 X-14.059 Y-5.173
G1 F1800 X-6.436 Y-12.797 E53.29318
G0 F7200 X-5.716 Y-12.951
G1 F1800 X-15.216 Y-3.45 E53.62834
G1 X-15.286 Y-3.38
G0 F7200 X-16.106 Y-1.995
G1 F1800 X-2.783 Y-15.318 E54.09834
G0 F7200 X-2.145 Y-15.39
G1 F1800 X-16.054 Y-1.481 E54.58902
G0 F7200 X-15.881 Y-1.088
G1 F1800 X-1.7 Y-15.269 E55.08929
G0 F7200 X-1.277 Y-15.127
G1 F1800 X-15.75 Y-.654 E55.59987
G0 F7200 X-15.63 Y-.208
G1 F1800 X-.84 Y-14.999 E56.12164
G0 F7200 X-.402 Y-14.871
G1 F1800 X-2.954 Y-12.319 E56.21167
G0 F7200 X-3.295 Y-11.978
G1 F1800 X-15.455 Y0.181 E56.64063
G0 F7200 X-15.098 Y0.39
G1 F1800 X-3.166 Y-11.541 E57.06155
G0 F7200 X-3.038 Y-11.103
G1 F1800 X-6.803 Y-7.339 E57.19435
G1 X-6.894 Y-7.247
G1 X-14.629 Y0.487 E57.4672
G0 F7200 X-14.275 Y0.698
G1 F1800 X-9.623 Y-3.952 E57.63128
G0 F7200 X-9.659 Y-3.351
G1 F1800 X-13.92 Y0.909 E57.78158
G0 F7200 X-13.565 Y1.12
G1 F1800 X-9.432 Y-3.012 E57.92737
G0 F7200 X-9.206 Y-2.672
G1 F1800 X-13.21 Y1.331 E58.0686
G0 F7200 X-12.853 Y1.54
G1 F1800 X-8.883 Y-2.43 E58.20865
G0 F7200 X-8.251 Y-2.496
G1 F1800 X-12.479 Y1.731 E58.35779
G0 F7200 X-12.095 Y1.913
G1 F1800 X-7.618 Y-2.563 E58.51571
G1 X-7.548 Y-2.633
G0 F7200 X-6.834 Y-2.782
G1 F1800 X-11.711 Y2.095 E58.68776
G0 F7200 X-11.327 Y2.276
G1 F1800 X-6.017 Y-3.033 E58.87507
G1 X-5.947 Y-3.103
G0 F7200 X-5.221 Y-3.829
G1 F1800 X-1.892 Y-7.158 E58.99251
G0 F7200 X-2.01 Y-7.606
G1 F1800 X-4.978 Y-4.637 E59.09723
G0 F7200 X-5.021 Y-5.161
G1 F1800 X-2.138 Y-8.044 E59.19893
G0 F7200 X-2.266 Y-8.481
G1 F1800 X-5.123 Y-5.624 E59.29972
G0 F7200 X-5.229 Y-6.084
G1 F1800 X-2.395 Y-8.918 E59.3997
G0 F7200 X-2.524 Y-9.355
G1 F1800 X-5.335 Y-6.544 E59.49886
G0 F7200 X-5.456 Y-6.989
G1 F1800 X-2.652 Y-9.792 E59.59777
G0 F7200 X-2.781 Y-10.229
G1 F1800 X-5.905 Y-7.105 E59.70797
G0 F7200 X-6.354 Y-7.222
G1 F1800 X-2.909 Y-10.666 E59.82949
G1 X-2.839 Y-10.736
G0 F7200 X-2.528 Y-11.552
G0 X-1.815 Y-12.891
G1 F1800 X0.021 Y-14.729 E59.89429
G0 F7200 X0.442 Y-14.584
G1 F1800 X-.677 Y-13.464 E59.93379
G1 X-.747 Y-13.394
G0 F7200 X0.461 Y-14.037
G1 F1800 X0.864 Y-14.44 E59.948
G0 F7200 X1.191 Y-14.202
G1 F1800 X1.285 Y-14.296 E59.95132
G0 F7200 X1.617 Y-14.062
G1 F1800 X1.739 Y-14.184 E59.95562
G0 F7200 X2.042 Y-13.922
G1 F1800 X2.203 Y-14.082 E59.96128
G0 F7200 X2.468 Y-13.782
G1 F1800 X2.667 Y-13.98 E59.96829
G0 F7200 X2.894 Y-13.642
G1 F1800 X3.119 Y-13.867 E59.97622
G0 F7200 X3.32 Y-13.502
G1 F1800 X3.572 Y-13.754 E59.98511
G0 F7200 X3.746 Y-13.362
G1 F1800 X4.024 Y-13.641 E59.99494
G0 F7200 X4.171 Y-13.222
G1 F1800 X4.477 Y-13.528 E60.00573
G0 F7200 X4.92 Y-13.405
G1 F1800 X4.597 Y-13.082 E60.01713
G0 F7200 X5.023 Y-12.942
G1 F1800 X5.345 Y-13.265 E60.02851
G0 F7200 X5.771 Y-13.125
G1 F1800 X5.448 Y-12.802 E60.0399
G0 F7200 X5.874 Y-12.662
G1 F1800 X6.195 Y-12.983 E60.05122
G0 F7200 X6.619 Y-12.842
G1 F1800 X6.3 Y-12.522 E60.0625
G0 F7200 X6.725 Y-12.382
G1 F1800 X7.044 Y-12.701 E60.07375
G0 F7200 X7.468 Y-12.559
G1 F1800 X7.084 Y-12.175 E60.0873
G0 F7200 X7.441 Y-11.967
G1 F1800 X7.892 Y-12.418 E60.10321
G0 F7200 X8.316 Y-12.276
G1 F1800 X7.797 Y-11.757 E60.12152
G0 F7200 X8.154 Y-11.548
G1 F1800 X8.739 Y-12.133 E60.14215
G0 F7200 X9.111 Y-11.939
G1 F1800 X8.51 Y-11.339 E60.16334
G0 F7200 X8.867 Y-11.129
G1 F1800 X9.348 Y-11.611 E60.18032
G0 F7200 X9.533 Y-11.23
G1 F1800 X9.223 Y-10.92 E60.19126
G0 F7200 X9.579 Y-10.711
G1 F1800 X9.753 Y-10.885 E60.1974
G0 F7200 X10.145 Y-10.145
G1 F1800 X6.1 Y-6.1 E60.3401
G0 F7200 X5.927 Y-6.493
G1 F1800 X8.444 Y-9.01 E60.42889
G1 X8.514 Y-9.08
G0 F7200 X10.257 Y-9.691
G1 F1800 X6.243 Y-5.678 E60.57048
G0 F7200 X6.386 Y-5.255
G1 F1800 X10.368 Y-9.236 E60.71094
G0 F7200 X10.465 Y-8.768
G1 F1800 X6.457 Y-4.76 E60.85233
G0 F7200 X6.44 Y-4.177
G1 F1800 X10.582 Y-8.319 E60.99845
G0 F7200 X10.907 Y-8.078
G1 F1800 X6.407 Y-3.578 E61.1572
G0 F7200 X6.494 Y-3.099
G1 F1800 X11.212 Y-7.818 E61.32366
G0 F7200 X11.487 Y-7.527
G1 F1800 X6.657 Y-2.697 E61.49405
G1 X6.587 Y-2.627
G0 F7200 X8.227 Y-3.701
G1 F1800 X8.888 Y-4.362 E61.51737
G1 X8.958 Y-4.432
G0 F7200 X7.495 Y-2.23
G0 X8.138 Y-.784
G1 F1800 X7.938 Y-.584 E61.52442
G0 F7200 X8.12 Y-.2
G1 F1800 X8.58 Y-.661 E61.54067
G0 F7200 X9.023 Y-.538
G1 F1800 X8.331 Y0.154 E61.56508
G0 F7200 X8.549 Y0.501
G1 F1800 X9.465 Y-.414 E61.59738
G0 F7200 X9.941 Y-.324
G1 F1800 X8.766 Y0.85 E61.63881
G0 F7200 X8.966 Y1.215
G1 F1800 X10.433 Y-.251 E61.69054
G0 F7200 X10.462 Y0.285
G1 F1800 X9.16 Y1.587 E61.73648
G0 F7200 X9.345 Y1.968
G1 F1800 X10.273 Y1.04 E61.76921
G1 X10.343 Y0.97
G0 F7200 X9.786 Y2.093
G1 F1800 X9.458 Y2.42 E61.78077
G0 F7200 X11.42 Y-.672
G1 F1800 X14.364 Y-3.616 E61.88462
G0 F7200 X14.185 Y-4.003
G1 F1800 X12.461 Y-2.279 E61.94544
G1 X12.391 Y-2.209
G0 F7200 X13.121 Y-3.505
G1 F1800 X14.007 Y-4.39 E61.97668
G0 F7200 X13.828 Y-4.777
G1 F1800 X13.323 Y-4.272 E61.9945
G0 F7200 X13.225 Y-4.74
G1 F1800 X13.649 Y-5.164 E62.00945
G0 F7200 X13.411 Y-5.492
G1 F1800 X13.102 Y-5.183 E62.02036
G0 F7200 X12.95 Y-5.596
G1 F1800 X13.136 Y-5.782 E62.02692
G0 F7200 X12.862 Y-6.074
G1 F1800 X12.798 Y-6.01 E62.02918
G0 F7200 X11.762 Y-7.237
G1 F1800 X11.491 Y-6.965 E62.03875
G0 F7200 X6.686 Y-7.817
G1 F1800 X5.752 Y-6.883 E62.0717
G1 X5.682 Y-6.813
G0 F7200 X8.913 Y-10.233
G0 X6.433 Y-11.712
G0 X1.007 Y-13.492
G0 X-2.454 Y-11.744
G0 X-2.032 Y-6.453
G1 F1800 X-4.628 Y-3.857 E62.16328
G1 X-4.698 Y-3.787
G0 F7200 X-3.651 Y-4.268
G1 F1800 X-2.17 Y-5.748 E62.21551
G0 F7200 X-2.31 Y-5.043
G1 F1800 X-2.675 Y-4.678 E62.22839
G0 F7200 X-7.032 Y-1.453
G1 F1800 X-10.943 Y2.457 E62.36634
G0 F7200 X-10.554 Y2.635
G1 F1800 X-7.677 Y-.241 E62.46782
G1 X-7.607 Y-.311
G0 F7200 X-8.193 Y0.84
G1 F1800 X-10.146 Y2.792 E62.5367
G0 F7200 X-9.746 Y2.957
G1 F1800 X-8.419 Y1.631 E62.58349
G0 F7200 X-8.325 Y2.102
G1 F1800 X-9.353 Y3.131 E62.61978
G0 F7200 X-9.113 Y3.456
G1 F1800 X-8.225 Y2.568 E62.6511
G0 F7200 X-8.134 Y3.043
G1 F1800 X-8.943 Y3.852 E62.67964
G0 F7200 X-8.764 Y4.239
G1 F1800 X-8.051 Y3.526 E62.7048
G0 F7200 X-7.863 Y3.903
G1 F1800 X-8.552 Y4.592 E62.7291
G0 F7200 X-8.341 Y4.946
G1 F1800 X-7.682 Y4.287 E62.75235
G0 F7200 X-7.504 Y4.676
G1 F1800 X-8.129 Y5.301 E62.7744
G0 F7200 X-7.94 Y5.677
G1 F1800 X-7.312 Y5.05 E62.79654
G0 F7200 X-7.079 Y5.382
G1 F1800 X-7.787 Y6.09 E62.82151
G0 F7200 X-7.634 Y6.503
G1 F1800 X-6.801 Y5.67 E62.8509
G0 F7200 X-6.508 Y5.943
G1 F1800 X-7.45 Y6.885 E62.88413
G0 F7200 X-6.98 Y6.98
G1 F1800 X-6.137 Y6.137 E62.91387
G0 F7200 X-5.745 Y6.311
G1 F1800 X-6.631 Y7.197 E62.94513
G0 F7200 X-6.283 Y7.414
G1 F1800 X-5.363 Y6.494 E62.97758
G0 F7200 X-5.019 Y6.716
G1 F1800 X-5.985 Y7.682 E63.01166
G0 F7200 X-5.48 Y7.742
G1 F1800 X-4.491 Y6.754 E63.04653
G0 F7200 X-3.964 Y6.793
G1 F1800 X-4.961 Y7.789 E63.08169
G0 F7200 X-4.3 Y7.694
G1 F1800 X-3.459 Y6.853 E63.11135
G0 F7200 X-2.954 Y6.914
G1 F1800 X-3.604 Y7.563 E63.13427
G0 F7200 X-2.907 Y7.433
G1 F1800 X-2.393 Y6.919 E63.1524
G0 F7200 X-2.211 Y7.302
G1 F1800 X-1.799 Y6.89 E63.16693
G0 F7200 X-1.494 Y7.15
G1 F1800 X-1.182 Y6.839 E63.17792
G0 F7200 X-.77 Y6.993
G1 F1800 X-.516 Y6.739 E63.18688
G0 F7200 X-0.048 Y6.836
G1 F1800 X0.161 Y6.627 E63.19426
G0 F7200 X0.688 Y6.665
G1 F1800 X0.845 Y6.508 E63.1998
G0 F7200 X1.43 Y6.489
G1 F1800 X1.53 Y6.388 E63.20334
G0 F7200 X2.154 Y6.33
G1 F1800 X2.216 Y6.269 E63.20551
G0 F7200 X7.022 Y5.422
G1 F1800 X7.109 Y5.335 E63.20858
G0 F7200 X-1.834 Y6.16
G0 X-2.743 Y6.204
G0 X-4.767 Y6.011
G0 X-6.045 Y5.38
G0 X-6.736 Y4.6
G0 X-7.352 Y3.292
G0 X-7.669 Y1.671
G0 X-5.955 Y-1.902
G0 X-4.734 Y-13.933
G1 F1800 X-4.453 Y-14.214 E63.21849
;MESH:NONMESH
G0 F600 X-4.453 Y-14.214 Z0.9
G0 F7200 X1.007 Y-13.492
G0 X6.433 Y-11.712
G0 X8.913 Y-10.233
G0 X6.78 Y-1.003
G0 X7.329 Y-.184
G0 X8.711 Y2.335
G0 X8.463 Y5.28
G0 X8.767 Y5.633
;TIME_ELAPSED:91.071783
;LAYER:4
;TYPE:WALL-INNER
;MESH:bunny.stl
G1 F3600 X8.778 Y5.687 E63.21987
G1 X8.577 Y5.875 E63.22673
G1 X7.896 Y6.032 E63.24417
G1 X5.632 Y6.453 E63.30161
G1 X2.103 Y7.021 E63.39077
G1 X-1.826 Y7.841 E63.49089
G1 X-4.443 Y8.331 E63.55731
G1 X-4.955 Y8.437 E63.57035
G1 X-5.369 Y8.476 E63.58073
G1 X-6.028 Y8.415 E63.59724
G1 X-6.192 Y8.329 E63.60185
G1 X-6.647 Y8.047 E63.61521
G1 X-7.12 Y7.799 E63.62853
G1 X-7.894 Y7.41 E63.65014
G1 X-8.506 Y5.742 E63.69446
G1 X-8.999 Y4.921 E63.71835
G1 X-9.266 Y4.319 E63.73478
G1 X-9.576 Y3.577 E63.75484
G1 X-10.319 Y3.251 E63.77508
G1 X-10.743 Y3.126 E63.7861
G1 X-11.546 Y2.784 E63.80787
G1 X-12.937 Y2.126 E63.84626
G1 X-13.48 Y1.898 E63.86095
G1 X-14.188 Y1.589 E63.88022
G1 X-14.903 Y1.165 E63.90096
G1 X-15.403 Y1.073 E63.91364
G1 X-15.796 Y0.766 E63.92608
G1 X-15.856 Y0.678 E63.92873
G1 X-16.204 Y0.09 E63.94578
G1 X-16.454 Y-.554 E63.96301
G1 X-16.621 Y-1.144 E63.97831
G1 X-16.746 Y-1.9 E63.99742
G1 X-16.44 Y-2.728 E64.01944
G1 X-16.15 Y-3.155 E64.03232
G1 X-15.835 Y-3.611 E64.04614
G1 X-15.091 Y-4.554 E64.07611
G1 X-14.856 Y-4.848 E64.08549
G1 X-14.473 Y-5.256 E64.09945
G1 X-13.826 Y-6.127 E64.12652
G1 X-13.578 Y-6.841 E64.14537
G1 X-13.664 Y-7.239 E64.15553
G1 X-14.008 Y-7.622 E64.16837
G1 X-14.272 Y-8.212 E64.1845
G1 X-14.444 Y-8.796 E64.19968
G1 X-14.711 Y-9.826 E64.22623
G1 X-14.765 Y-10.293 E64.23795
G1 X-14.831 Y-10.81 E64.25095
G1 X-14.802 Y-11.529 E64.26891
G1 X-14.549 Y-12.209 E64.287
G1 X-14.401 Y-12.4 E64.29303
G1 X-14.216 Y-12.838 E64.30489
G1 X-13.909 Y-13.288 E64.31848
G1 X-13.703 Y-13.456 E64.32511
G1 X-13.43 Y-13.52 E64.33211
G1 X-12.816 Y-13.749 E64.34845
G1 X-12.566 Y-13.967 E64.35673
G1 X-12.21 Y-14.036 E64.36577
G1 X-11.532 Y-14 E64.38271
G1 X-10.401 Y-13.879 E64.41108
G1 X-10.178 Y-13.843 E64.41672
G1 X-7.644 Y-13.628 E64.48016
G1 X-6.827 Y-13.476 E64.50089
G1 X-6.495 Y-13.641 E64.51013
G1 X-6.317 Y-13.836 E64.51672
G1 X-5.904 Y-14.162 E64.52985
G1 X-4.378 Y-15.33 E64.57778
G1 X-4.051 Y-15.59 E64.5882
G1 X-3.185 Y-16.107 E64.61336
G1 X-2.66 Y-16.211 E64.62671
G1 X-2.466 Y-16.243 E64.63162
G1 X-.98 Y-15.941 E64.66944
G1 X-.217 Y-15.698 E64.68942
G1 X0.403 Y-15.485 E64.70577
G1 X0.861 Y-15.384 E64.71747
G1 X2.212 Y-15.048 E64.7522
G1 X4.926 Y-14.312 E64.82235
G1 X6.035 Y-13.922 E64.85167
G1 X8.417 Y-13.105 E64.91449
G1 X9.254 Y-12.846 E64.93634
G1 X9.588 Y-12.767 E64.94491
G1 X10.286 Y-12.111 E64.9688
G1 X10.501 Y-11.748 E64.97932
G1 X10.97 Y-10.499 E65.0126
G1 X11.122 Y-9.884 E65.02841
G1 X11.339 Y-8.788 E65.05628
G1 X12.114 Y-8.211 E65.08038
G1 X14.364 Y-5.83 E65.1621
G1 X15.291 Y-3.829 E65.21711
G1 X15.459 Y-3.4 E65.2286
G1 X15.451 Y-3.324 E65.23051
G1 X15.09 Y-2.998 E65.24264
G1 X12.324 Y-.269 E65.33957
G1 X11.49 Y0.009 E65.3615
G1 X11.094 Y0.457 E65.37641
G1 X10.734 Y2.123 E65.41893
G1 X9.941 Y3.841 E65.46613
G1 X9.385 Y5.002 E65.49824
G1 X9.171 Y5.282 E65.50704
G1 X8.767 Y5.633 E65.52039
G0 F7200 X8.673 Y5.601
G0 X9.531 Y-1.963
G0 X10.878 Y-3.437
G0 X10.887 Y-3.338
G1 F3600 X9.914 Y-2.251 E65.55678
G1 X9.871 Y-2.174 E65.55898
G1 X9.568 Y-1.949 E65.56839
G1 X9.711 Y-1.201 E65.58739
G1 X10.582 Y-1.003 E65.60967
G1 X10.889 Y-1.318 E65.62064
G1 X11.769 Y-2.657 E65.66061
G1 X10.887 Y-3.338 E65.68841
G0 F7200 X10.878 Y-3.437
G0 X7.257 Y-9.978
G0 X7.158 Y-9.975
G1 F3600 X5.065 Y-11.204 E65.74895
G1 X1.379 Y-12.416 E65.84574
G1 X-1.228 Y-11.103 E65.91856
G1 X-.312 Y-7.983 E65.99967
G1 X-1.066 Y-4.172 E66.09658
G1 X-5.768 Y-2.2 E66.22377
G1 X-7.041 Y0.175 E66.29099
G1 X-7.309 Y0.717 E66.30607
G1 X-7.625 Y1.836 E66.33508
G1 X-7.418 Y2.818 E66.36011
G1 X-7.183 Y3.585 E66.38012
G1 X-6.836 Y4.342 E66.40089
G1 X-6.413 Y4.946 E66.41929
G1 X-5.767 Y5.551 E66.44137
G1 X-5.037 Y5.872 E66.46126
G1 X-4.665 Y6.023 E66.47127
G1 X-4.208 Y6.107 E66.48287
G1 X-3.192 Y6.23 E66.50839
G1 X-1.745 Y6.161 E66.54453
G1 X-.645 Y6.068 E66.57207
G1 X1.417 Y5.731 E66.62419
G1 X1.939 Y5.639 E66.63741
G1 X6.331 Y4.886 E66.74857
G1 X6.643 Y4.798 E66.75665
G1 X7.039 Y4.567 E66.76809
G1 X7.849 Y4.083 E66.79163
G1 X8.032 Y3.918 E66.79777
G1 X8.541 Y3.505 E66.81413
G1 X8.769 Y2.948 E66.82914
G1 X8.726 Y2.704 E66.83532
G1 X8.674 Y2.104 E66.85034
G1 X8.594 Y1.948 E66.85472
G1 X6.735 Y-.999 E66.94163
G1 X6.403 Y-1.535 E66.95736
G1 X6.066 Y-2.123 E66.97427
G1 X6.049 Y-2.16 E66.97528
G1 X5.824 Y-2.853 E66.99346
G1 X5.676 Y-3.285 E67.00485
G1 X5.644 Y-3.85 E67.01897
G1 X5.521 Y-4.734 E67.04123
G1 X5.46 Y-4.887 E67.04534
G1 X5.052 Y-6.095 E67.07714
G1 X4.762 Y-6.735 E67.09467
G1 X4.27 Y-7.859 E67.12528
G1 X4.662 Y-8.286 E67.13974
G1 X7.158 Y-9.975 E67.21492
G0 F7200 X6.409 Y-9.951
;TYPE:WALL-OUTER
G1 F1800 X4.899 Y-10.837 E67.25859
G1 X1.411 Y-11.984 E67.35018
G1 X-.75 Y-10.896 E67.41053
G1 X0.099 Y-8.003 E67.48574
G1 X-.715 Y-3.885 E67.59045
G1 X-5.482 Y-1.886 E67.7194
G1 X-6.685 Y0.358 E67.78291
G1 X-6.934 Y0.861 E67.79691
G1 X-7.213 Y1.85 E67.82255
G1 X-7.03 Y2.718 E67.84468
G1 X-6.808 Y3.443 E67.86359
G1 X-6.488 Y4.142 E67.88277
G1 X-6.109 Y4.682 E67.89922
G1 X-5.543 Y5.212 E67.91857
G1 X-4.881 Y5.504 E67.93662
G1 X-4.553 Y5.637 E67.94544
G1 X-4.148 Y5.711 E67.95571
G1 X-3.177 Y5.829 E67.98011
G1 X-1.771 Y5.762 E68.01523
G1 X-.694 Y5.671 E68.04219
G1 X1.35 Y5.337 E68.09385
G1 X1.869 Y5.245 E68.107
G1 X6.243 Y4.495 E68.2177
G1 X6.486 Y4.427 E68.224
G1 X6.835 Y4.223 E68.23408
G1 X7.61 Y3.76 E68.2566
G1 X7.78 Y3.607 E68.26231
G1 X8.21 Y3.259 E68.27611
G1 X8.355 Y2.904 E68.28567
G1 X8.328 Y2.753 E68.2895
G1 X8.282 Y2.217 E68.30292
G1 X8.246 Y2.147 E68.30488
G1 X6.395 Y-.788 E68.39144
G1 X6.063 Y-1.324 E68.40717
G1 X5.71 Y-1.939 E68.42486
G1 X5.673 Y-2.022 E68.42712
G1 X5.445 Y-2.726 E68.44558
G1 X5.28 Y-3.207 E68.45827
G1 X5.246 Y-3.811 E68.47336
G1 X5.132 Y-4.63 E68.49398
G1 X5.083 Y-4.752 E68.49726
G1 X4.679 Y-5.948 E68.52875
G1 X4.398 Y-6.571 E68.5458
G1 X3.799 Y-7.939 E68.58306
G1 X4.396 Y-8.589 E68.60507
G1 X6.409 Y-9.951 E68.6657
G0 F7200 X6.237 Y-10.052
G0 X6.49 Y-10.482
G0 X7.197 Y-9.976
G0 X11.243 Y-3.189
G0 X10.937 Y-2.794
G1 F1800 X10.241 Y-2.016 E68.69174
G1 X10.178 Y-1.905 E68.69492
G1 X10.008 Y-1.778 E68.70022
G1 X10.055 Y-1.533 E68.70644
G1 X10.452 Y-1.443 E68.71659
G1 X10.576 Y-1.57 E68.72102
G1 X11.231 Y-2.567 E68.75078
G1 X10.937 Y-2.794 E68.76004
G0 F7200 X10.804 Y-2.645
G0 X10.432 Y-2.979
G0 X9.531 Y-1.963
G0 X8.878 Y5.405
G0 X9.205 Y5.782
G1 F1800 X9.214 Y5.827 E68.76119
G1 X8.771 Y6.241 E68.77631
G1 X7.986 Y6.422 E68.79641
G1 X5.696 Y6.848 E68.85451
G1 X2.176 Y7.414 E68.94345
G1 X-1.744 Y8.233 E69.04335
G1 X-4.366 Y8.724 E69.10989
G1 X-4.891 Y8.832 E69.12326
G1 X-5.368 Y8.878 E69.13521
G1 X-6.144 Y8.806 E69.15465
G1 X-6.387 Y8.678 E69.1615
G1 X-6.845 Y8.395 E69.17493
G1 X-7.303 Y8.155 E69.18783
G1 X-8.184 Y7.711 E69.21244
G1 X-8.218 Y7.688 E69.21347
G1 X-8.868 Y5.915 E69.26057
G1 X-9.355 Y5.105 E69.28415
G1 X-9.632 Y4.481 E69.30118
G1 X-9.883 Y3.879 E69.31745
G1 X-10.456 Y3.628 E69.33305
G1 X-10.877 Y3.504 E69.344
G1 X-11.716 Y3.146 E69.36676
G1 X-13.1 Y2.491 E69.40495
G1 X-13.64 Y2.265 E69.41955
G1 X-14.368 Y1.947 E69.43937
G1 X-15.046 Y1.545 E69.45903
G1 X-15.555 Y1.451 E69.47195
G1 X-15.582 Y1.44 E69.47267
G1 X-16.092 Y1.042 E69.48881
G1 X-16.196 Y0.888 E69.49345
G1 X-16.566 Y0.264 E69.51154
G1 X-16.834 Y-.426 E69.53001
G1 X-17.013 Y-1.058 E69.54639
G1 X-17.158 Y-1.939 E69.56866
G1 X-16.798 Y-2.914 E69.59459
G1 X-16.479 Y-3.383 E69.60874
G1 X-16.158 Y-3.847 E69.62281
G1 X-15.403 Y-4.804 E69.65322
G1 X-15.159 Y-5.109 E69.66296
G1 X-14.781 Y-5.513 E69.67677
G1 X-14.184 Y-6.316 E69.70173
G1 X-13.993 Y-6.866 E69.71625
G1 X-14.033 Y-7.051 E69.72097
G1 X-14.347 Y-7.401 E69.7327
G1 X-14.649 Y-8.077 E69.75117
G1 X-14.828 Y-8.683 E69.76693
G1 X-15.105 Y-9.75 E69.79443
G1 X-15.162 Y-10.245 E69.80686
G1 X-15.232 Y-10.793 E69.82064
G1 X-15.2 Y-11.609 E69.84101
G1 X-14.903 Y-12.405 E69.86221
G1 X-14.749 Y-12.604 E69.86848
G1 X-14.568 Y-13.032 E69.88007
G1 X-14.206 Y-13.562 E69.89609
G1 X-13.885 Y-13.824 E69.90642
G1 X-13.546 Y-13.904 E69.91511
G1 X-13.024 Y-14.098 E69.929
G1 X-12.747 Y-14.34 E69.93818
G1 X-12.241 Y-14.438 E69.95103
G1 X-11.489 Y-14.398 E69.96982
G1 X-10.351 Y-14.276 E69.99837
G1 X-10.129 Y-14.24 E70.00398
G1 X-7.598 Y-14.026 E70.06734
G1 X-6.885 Y-13.894 E70.08543
G1 X-6.74 Y-13.966 E70.08947
G1 X-6.589 Y-14.131 E70.09505
G1 X-6.147 Y-14.48 E70.10909
G1 X-4.624 Y-15.646 E70.15694
G1 X-4.282 Y-15.917 E70.16783
G1 X-3.33 Y-16.486 E70.19549
G1 X-2.725 Y-16.606 E70.21088
G1 X-2.459 Y-16.65 E70.2176
G1 X-.882 Y-16.329 E70.25775
G1 X-0.087 Y-16.076 E70.27856
G1 X0.511 Y-15.871 E70.29433
G1 X0.947 Y-15.775 E70.30547
G1 X2.317 Y-15.434 E70.34068
G1 X5.042 Y-14.695 E70.41111
G1 X6.166 Y-14.3 E70.44083
G1 X8.541 Y-13.485 E70.50347
G1 X9.359 Y-13.232 E70.52483
G1 X9.783 Y-13.133 E70.53569
G1 X10.601 Y-12.364 E70.5637
G1 X10.866 Y-11.915 E70.5767
G1 X11.35 Y-10.625 E70.61107
G1 X11.514 Y-9.962 E70.62811
G1 X11.701 Y-9.017 E70.65214
G1 X12.382 Y-8.511 E70.6733
G1 X14.699 Y-6.058 E70.75747
G1 X15.654 Y-3.997 E70.81414
G1 X15.868 Y-3.453 E70.82872
G1 X15.832 Y-3.129 E70.83685
G1 X15.365 Y-2.707 E70.85255
G1 X12.54 Y0.08 E70.95154
G1 X11.719 Y0.354 E70.97313
G1 X11.463 Y0.644 E70.98278
G1 X11.116 Y2.248 E71.02372
G1 X10.302 Y4.014 E71.07223
G1 X9.728 Y5.212 E71.10537
G1 X9.465 Y5.556 E71.11617
G1 X9.205 Y5.782 E71.12476
G0 F7200 X9.214 Y5.827
G0 X9.101 Y5.932
G0 X8.347 Y5.528
;TYPE:SKIN
G1 F1800 X7.824 Y5.648 E71.13815
G1 X5.535 Y6.074 E71.19623
G1 X2.033 Y6.637 E71.28471
G1 X-1.898 Y7.457 E71.38488
G1 X-4.519 Y7.949 E71.4514
G1 X-5.016 Y8.051 E71.46405
G1 X-5.371 Y8.084 E71.47295
G1 X-5.914 Y8.035 E71.48655
G1 X-5.996 Y7.991 E71.48887
G1 X-6.454 Y7.708 E71.5023
G1 X-6.942 Y7.452 E71.51605
G1 X-7.581 Y7.131 E71.53388
G1 X-8.153 Y5.573 E71.57529
G1 X-8.65 Y4.745 E71.59937
G1 X-8.91 Y4.161 E71.61532
G1 X-9.276 Y3.283 E71.63905
G1 X-10.185 Y2.884 E71.66381
G1 X-10.61 Y2.758 E71.67487
G1 X-11.385 Y2.428 E71.69588
G1 X-12.778 Y1.769 E71.73432
G1 X-13.324 Y1.541 E71.74908
G1 X-14.01 Y1.242 E71.76775
G1 X-14.764 Y0.794 E71.78963
G1 X-15.238 Y0.706 E71.80166
G1 X-15.527 Y0.468 E71.81099
G1 X-15.855 Y-0.087 E71.82708
G1 X-16.084 Y-.675 E71.84282
G1 X-16.241 Y-1.233 E71.85728
G1 X-16.345 Y-1.86 E71.87313
G1 X-16.089 Y-2.551 E71.89151
G1 X-15.907 Y-2.82 E71.89961
G1 X-15.521 Y-3.379 E71.91656
G1 X-14.571 Y-4.581 E71.95478
G1 X-14.173 Y-5.006 E71.9693
G1 X-13.477 Y-5.942 E71.9984
G1 X-13.174 Y-6.816 E72.02147
G1 X-13.305 Y-7.422 E72.03694
G1 X-13.676 Y-7.835 E72.05079
G1 X-13.907 Y-8.355 E72.06498
G1 X-14.07 Y-8.907 E72.07934
G1 X-14.326 Y-9.897 E72.10485
G1 X-14.439 Y-10.82 E72.12804
G1 X-14.414 Y-11.454 E72.14387
G1 X-14.204 Y-12.018 E72.15888
G1 X-14.062 Y-12.201 E72.16466
G1 X-13.872 Y-12.65 E72.17682
G1 X-13.618 Y-13.023 E72.18808
G1 X-13.529 Y-13.096 E72.19095
G1 X-13.317 Y-13.146 E72.19639
G1 X-12.613 Y-13.408 E72.21512
G1 X-12.388 Y-13.605 E72.22258
G1 X-12.189 Y-13.644 E72.22764
G1 X-11.555 Y-13.61 E72.24348
G1 X-10.453 Y-13.492 E72.27113
G1 X-10.225 Y-13.455 E72.27689
G1 X-7.709 Y-13.242 E72.33988
G1 X-6.77 Y-13.069 E72.36369
G1 X-6.256 Y-13.325 E72.37802
G1 X-6.051 Y-13.549 E72.38559
G1 X-5.667 Y-13.852 E72.39779
G1 X-4.138 Y-15.022 E72.44582
G1 X-3.828 Y-15.268 E72.45569
G1 X-3.041 Y-15.738 E72.47856
G1 X-2.475 Y-15.847 E72.49294
G1 X-1.085 Y-15.564 E72.52832
G1 X-.31 Y-15.318 E72.5486
G1 X0.297 Y-15.109 E72.56462
G1 X0.772 Y-15.005 E72.57675
G1 X2.11 Y-14.672 E72.61114
G1 X4.806 Y-13.941 E72.68082
G1 X5.907 Y-13.554 E72.70994
G1 X8.296 Y-12.734 E72.77294
G1 X9.151 Y-12.47 E72.79526
G1 X9.396 Y-12.411 E72.80155
G1 X9.981 Y-11.862 E72.82156
G1 X10.148 Y-11.58 E72.82974
G1 X10.598 Y-10.38 E72.86171
G1 X10.74 Y-9.808 E72.87641
G1 X10.986 Y-8.565 E72.90802
G1 X11.854 Y-7.92 E72.93499
G1 X14.038 Y-5.61 E73.01429
G1 X14.928 Y-3.686 E73.06717
G1 X15.018 Y-3.457 E73.07331
G1 X14.823 Y-3.281 E73.07986
G1 X12.117 Y-.611 E73.17469
G1 X11.267 Y-.328 E73.19704
G1 X10.735 Y0.275 E73.2171
G1 X10.363 Y1.997 E73.26105
G1 X9.55 Y3.756 E73.30938
G1 X9.054 Y4.793 E73.33806
G1 X8.884 Y5.015 E73.34503
G1 X8.339 Y5.489 E73.36305
G1 X8.347 Y5.528 E73.36404
G0 F7200 X8.081 Y4.399
G1 F1800 X8.286 Y4.215 E73.37092
G1 X8.864 Y3.745 E73.3895
G1 X9.173 Y2.991 E73.40983
G1 X9.111 Y2.642 E73.41867
G1 X9.056 Y1.995 E73.43487
G1 X8.933 Y1.755 E73.44159
G1 X7.065 Y-1.207 E73.52895
G1 X6.739 Y-1.734 E73.54441
G1 X6.419 Y-2.292 E73.56045
G1 X6.411 Y-2.309 E73.56092
G1 X6.194 Y-2.976 E73.57842
G1 X6.062 Y-3.361 E73.58857
G1 X6.032 Y-3.887 E73.60171
G1 X5.901 Y-4.835 E73.62558
G1 X5.826 Y-5.022 E73.63061
G1 X5.415 Y-6.238 E73.66263
G1 X5.117 Y-6.896 E73.68065
G1 X4.728 Y-7.783 E73.70481
G1 X4.917 Y-7.988 E73.71176
G1 X7.889 Y-9.998 E73.80126
G1 X5.227 Y-11.561 E73.87827
G1 X1.348 Y-12.837 E73.98013
G1 X-1.694 Y-11.305 E74.06509
G1 X-.713 Y-7.964 E74.15195
G1 X-1.407 Y-4.451 E74.24128
G1 X-6.047 Y-2.506 E74.36678
G1 X-7.388 Y-0.004 E74.43759
G1 X-7.674 Y0.577 E74.45375
G1 X-8.027 Y1.822 E74.48603
G1 X-7.796 Y2.916 E74.51392
G1 X-7.548 Y3.724 E74.535
G1 X-7.176 Y4.537 E74.55731
G1 X-6.709 Y5.203 E74.5776
G1 X-5.985 Y5.881 E74.60234
G1 X-5.189 Y6.231 E74.62403
G1 X-4.775 Y6.399 E74.63518
G1 X-4.267 Y6.493 E74.64806
G1 X-3.206 Y6.622 E74.67473
G1 X-1.719 Y6.551 E74.71186
G1 X-.597 Y6.456 E74.73995
G1 X1.482 Y6.115 E74.7925
G1 X2.007 Y6.023 E74.8058
G1 X6.418 Y5.267 E74.91744
G1 X6.797 Y5.16 E74.92726
G1 X7.238 Y4.903 E74.93999
G1 X8.081 Y4.399 E74.96449
G0 F7200 X10.709 Y-.574
G1 F1800 X11.195 Y-1.072 E74.98185
G1 X12.293 Y-2.745 E75.03177
G1 X10.838 Y-3.868 E75.07762
G1 X9.594 Y-2.479 E75.12413
G1 X9.571 Y-2.437 E75.12533
G1 X9.139 Y-2.116 E75.13875
G1 X9.376 Y-.877 E75.17022
G1 X10.709 Y-.574 E75.20432
G0 F7200 X9.683 Y-1.174
G0 X9.971 Y-11.524
G1 F1800 X9.232 Y-12.263 E75.23039
G1 X9.162 Y-12.333
G0 F7200 X8.425 Y-12.505
G1 F1800 X10.318 Y-10.612 E75.29717
G1 X10.388 Y-10.542
G0 F7200 X10.552 Y-9.811
G1 F1800 X7.573 Y-12.79 E75.40226
G1 X7.503 Y-12.86
G0 F7200 X6.712 Y-13.086
G1 F1800 X10.694 Y-9.103 E75.54276
G1 X10.764 Y-9.033
G0 F7200 X8.147 Y-9.954
G1 F1800 X14.693 Y-3.408 E75.77368
G0 F7200 X14.409 Y-3.126
G1 F1800 X7.809 Y-9.726 E76.00652
G0 F7200 X7.472 Y-9.497
G1 F1800 X14.124 Y-2.846 E76.24117
G0 F7200 X13.839 Y-2.565
G1 F1800 X7.135 Y-9.269 E76.47767
G0 F7200 X6.798 Y-9.041
G1 F1800 X13.555 Y-2.283 E76.71606
G0 F7200 X13.27 Y-2.003
G1 F1800 X12.515 Y-2.758 E76.74269
G0 F7200 X12.329 Y-2.943
G1 F1800 X6.46 Y-8.812 E76.94974
G0 F7200 X6.123 Y-8.584
G1 F1800 X10.711 Y-3.996 E77.11159
G0 F7200 X10.443 Y-3.698
G1 F1800 X5.786 Y-8.355 E77.27588
G0 F7200 X5.448 Y-8.127
G1 F1800 X10.176 Y-3.399 E77.44267
G0 F7200 X9.909 Y-3.101
G1 F1800 X5.111 Y-7.899 E77.61193
G0 F7200 X5.129 Y-7.315
G1 F1800 X9.642 Y-2.802 E77.77114
G0 F7200 X9.368 Y-2.51
G1 F1800 X5.585 Y-6.293 E77.9046
G1 X5.515 Y-6.363
G0 F7200 X5.873 Y-5.439
G1 F1800 X9.043 Y-2.27 E78.01641
G0 F7200 X9.031 Y-1.716
G1 F1800 X6.109 Y-4.638 E78.11949
G0 F7200 X6.199 Y-3.983
G1 F1800 X9.166 Y-1.016 E78.22416
G0 F7200 X9.524 Y-.658
G1 F1800 X10.534 Y0.352 E78.25979
G0 F7200 X10.742 Y-0.005
G1 F1800 X10.256 Y-.491 E78.27694
G0 F7200 X10.851 Y-.462
G1 F1800 X11.006 Y-.306 E78.28242
G0 F7200 X11.337 Y-.542
G1 F1800 X11.13 Y-.748 E78.28971
G0 F7200 X11.395 Y-1.05
G1 F1800 X11.762 Y-.683 E78.30265
G0 F7200 X12.131 Y-.878
G1 F1800 X11.619 Y-1.391 E78.32073
G0 F7200 X11.843 Y-1.733
G1 F1800 X12.416 Y-1.16 E78.34095
G0 F7200 X12.701 Y-1.441
G1 F1800 X12.067 Y-2.074 E78.3633
G0 F7200 X12.29 Y-2.416
G1 F1800 X12.986 Y-1.721 E78.38783
G1 X13.056 Y-1.651
G0 F7200 X14.511 Y-4.156
G1 F1800 X4.979 Y-13.688 E78.7241
G1 X4.909 Y-13.758
G0 F7200 X4.177 Y-13.924
G1 F1800 X7.904 Y-10.197 E78.85558
G1 X7.974 Y-10.127
G0 F7200 X6.535 Y-11.001
G1 F1800 X3.401 Y-14.134 E78.96612
G1 X3.331 Y-14.204
G0 F7200 X2.625 Y-14.345
G1 F1800 X5.217 Y-11.752 E79.05758
G1 X5.287 Y-11.682
G0 F7200 X4.374 Y-12.03
G1 F1800 X1.855 Y-14.549 E79.14644
G0 F7200 X1.102 Y-14.736
G1 F1800 X3.531 Y-12.307 E79.23213
G1 X3.601 Y-12.237
G0 F7200 X2.688 Y-12.585
G1 F1800 X0.363 Y-14.91 E79.31415
G1 X0.293 Y-14.98
G0 F7200 X-.47 Y-15.178
G1 F1800 X1.845 Y-12.862 E79.39584
G0 F7200 X1.185 Y-12.956
G1 F1800 X-1.274 Y-15.417 E79.48262
G0 F7200 X-1.984 Y-15.561
G1 F1800 X0.809 Y-12.766 E79.58119
G0 F7200 X0.433 Y-12.577
G1 F1800 X-2.622 Y-15.633 E79.68898
G0 F7200 X-3.066 Y-15.511
G1 F1800 X0.057 Y-12.387 E79.79917
G0 F7200 X-.318 Y-12.198
G1 F1800 X-3.42 Y-15.299 E79.90858
G0 F7200 X-3.769 Y-15.083
G1 F1800 X-.695 Y-12.008 E80.01704
G0 F7200 X-1.071 Y-11.819
G1 F1800 X-4.085 Y-14.833 E80.12337
G0 F7200 X-4.406 Y-14.589
G1 F1800 X-1.447 Y-11.629 E80.22778
G0 F7200 X-1.823 Y-11.44
G1 F1800 X-4.727 Y-14.343 E80.3302
G0 F7200 X-5.047 Y-14.098
G1 F1800 X-1.726 Y-10.777 E80.44736
G1 X-1.656 Y-10.707
G0 F7200 X-1.491 Y-9.977
G1 F1800 X-5.367 Y-13.852 E80.58408
G0 F7200 X-5.686 Y-13.606
G1 F1800 X-1.256 Y-9.176 E80.74036
G1 X-1.186 Y-9.106
G0 F7200 X-1.021 Y-8.374
G1 F1800 X-5.992 Y-13.346 E80.91574
G0 F7200 X-6.308 Y-13.097
G1 F1800 X-.941 Y-7.73 E81.10508
G0 F7200 X-1.035 Y-7.257
G1 F1800 X-6.685 Y-12.908 E81.30442
G0 F7200 X-7.331 Y-12.988
G1 F1800 X-1.128 Y-6.785 E81.52324
G0 F7200 X-1.221 Y-6.313
G1 F1800 X-7.993 Y-13.085 E81.76214
G0 F7200 X-8.611 Y-13.137
G1 F1800 X-1.315 Y-5.841 E82.01953
G0 F7200 X-1.409 Y-5.369
G1 F1800 X-9.229 Y-13.188 E82.29538
G0 F7200 X-9.847 Y-13.241
G1 F1800 X-1.502 Y-4.896 E82.58978
G0 F7200 X-1.696 Y-4.524
G1 F1800 X-10.484 Y-13.313 E82.89981
G0 F7200 X-11.118 Y-13.381
G1 F1800 X-2.095 Y-4.357 E83.21814
G0 F7200 X-2.493 Y-4.191
G1 F1800 X-11.741 Y-13.438 E83.54437
G0 F7200 X-12.305 Y-13.437
G1 F1800 X-2.892 Y-4.023 E83.87646
G0 F7200 X-3.29 Y-3.856
G1 F1800 X-12.639 Y-13.205 E84.20627
G0 F7200 X-13.051 Y-13.051
G1 F1800 X-3.689 Y-3.689 E84.53654
G0 F7200 X-4.088 Y-3.522
G1 F1800 X-13.473 Y-12.907 E84.86762
G0 F7200 X-13.705 Y-12.574
G1 F1800 X-4.486 Y-3.355 E85.19285
G0 F7200 X-4.885 Y-3.188
G1 F1800 X-13.875 Y-12.178 E85.50999
G0 F7200 X-14.084 Y-11.822
G1 F1800 X-5.284 Y-3.021 E85.82046
G0 F7200 X-5.683 Y-2.854
G1 F1800 X-14.234 Y-11.406 E86.12213
G0 F7200 X-14.256 Y-10.862
G1 F1800 X-6.081 Y-2.687 E86.41053
G0 F7200 X-6.325 Y-2.365
G1 F1800 X-14.184 Y-10.224 E86.68778
G0 F7200 X-14.041 Y-9.515
G1 F1800 X-6.522 Y-1.996 E86.95303
G0 F7200 X-6.719 Y-1.628
G1 F1800 X-13.832 Y-8.741 E87.20396
G1 X-13.902 Y-8.811
G0 F7200 X-13.133 Y-7.476
G1 F1800 X-6.917 Y-1.26 E87.42325
G0 F7200 X-7.114 Y-.892
G1 F1800 X-12.998 Y-6.775 E87.6308
G0 F7200 X-13.142 Y-6.354
G1 F1800 X-7.312 Y-.523 E87.83649
G0 F7200 X-7.509 Y-.155
G1 F1800 X-13.288 Y-5.934 E88.04036
G0 F7200 X-13.512 Y-5.592
G1 F1800 X-7.698 Y0.221 E88.24544
G0 F7200 X-7.87 Y0.614
G1 F1800 X-13.753 Y-5.267 E88.45295
G0 F7200 X-13.995 Y-4.944
G1 F1800 X-7.995 Y1.055 E88.6646
G0 F7200 X-8.121 Y1.495
G1 F1800 X-14.263 Y-4.646 E88.88125
G0 F7200 X-14.527 Y-4.345
G1 F1800 X-8.169 Y2.013 E89.10555
G0 F7200 X-8.018 Y2.729
G1 F1800 X-14.777 Y-4.029 E89.34397
G0 F7200 X-15.026 Y-3.713
G1 F1800 X-7.8 Y3.513 E89.59889
G1 X-7.73 Y3.583
G0 F7200 X-7.399 Y4.48
G1 F1800 X-15.276 Y-3.396 E89.87676
G0 F7200 X-15.514 Y-3.069
G1 F1800 X-9.424 Y3.02 E90.09158
G0 F7200 X-9.021 Y3.423
G1 F1800 X-4.652 Y7.792 E90.24571
G0 F7200 X-4.178 Y7.701
G1 F1800 X-5.658 Y6.221 E90.29792
G1 X-5.728 Y6.151
G0 F7200 X-4.722 Y6.59
G1 F1800 X-3.702 Y7.611 E90.33392
G0 F7200 X-3.225 Y7.522
G1 F1800 X-4.047 Y6.7 E90.36292
G0 F7200 X-3.403 Y6.779
G1 F1800 X-2.749 Y7.432 E90.38597
G0 F7200 X-2.274 Y7.342
G1 F1800 X-2.831 Y6.784 E90.40564
G0 F7200 X-2.292 Y6.758
G1 F1800 X-1.799 Y7.251 E90.42303
G0 F7200 X-1.331 Y7.153
G1 F1800 X-1.752 Y6.733 E90.43787
G0 F7200 X-1.228 Y6.69
G1 F1800 X-.863 Y7.056 E90.45076
G0 F7200 X-.707 Y6.646
G1 F1800 X-.395 Y6.958 E90.46177
G0 F7200 X-.212 Y6.575
G1 F1800 X0.072 Y6.861 E90.47182
G0 F7200 X0.272 Y6.495
G1 F1800 X0.54 Y6.763 E90.48127
G0 F7200 X0.758 Y6.415
G1 F1800 X1.009 Y6.665 E90.49011
G0 F7200 X1.244 Y6.335
G1 F1800 X1.477 Y6.568 E90.49833
G0 F7200 X1.728 Y6.253
G1 F1800 X1.945 Y6.47 E90.50599
G0 F7200 X2.21 Y6.17
G1 F1800 X2.43 Y6.39 E90.51375
G0 F7200 X2.693 Y6.087
G1 F1800 X2.917 Y6.311 E90.52165
G0 F7200 X3.176 Y6.004
G1 F1800 X3.404 Y6.233 E90.52971
G0 F7200 X3.659 Y5.922
G1 F1800 X3.892 Y6.155 E90.53793
G0 F7200 X4.142 Y5.839
G1 F1800 X4.379 Y6.076 E90.54629
G0 F7200 X4.625 Y5.756
G1 F1800 X4.867 Y5.998 E90.55483
G0 F7200 X5.108 Y5.673
G1 F1800 X5.354 Y5.92 E90.56353
G0 F7200 X5.591 Y5.591
G1 F1800 X5.832 Y5.832 E90.57203
G0 F7200 X6.074 Y5.508
G1 F1800 X6.31 Y5.744 E90.58035
G0 F7200 X6.548 Y5.417
G1 F1800 X6.786 Y5.655 E90.58875
G0 F7200 X6.967 Y5.27
G1 F1800 X7.264 Y5.567 E90.59923
G0 F7200 X7.74 Y5.477
G1 F1800 X7.324 Y5.061 E90.6139
G0 F7200 X7.678 Y4.85
G1 F1800 X8.198 Y5.37 E90.63225
G0 F7200 X8.501 Y5.107
G1 F1800 X8.032 Y4.637 E90.64881
G0 F7200 X8.355 Y4.395
G1 F1800 X8.794 Y4.835 E90.66431
G0 F7200 X9.004 Y4.478
G1 F1800 X8.664 Y4.139 E90.67629
G0 F7200 X8.976 Y3.885
G1 F1800 X9.187 Y4.096 E90.68373
G0 F7200 X9.37 Y3.713
G1 F1800 X9.157 Y3.5 E90.69125
G0 F7200 X9.549 Y3.326
G1 F1800 X9.321 Y3.099 E90.69927
G0 F7200 X9.728 Y2.94
G1 F1800 X9.277 Y2.489 E90.71518
G0 F7200 X9.906 Y2.552
G1 F1800 X9.16 Y1.806 E90.7415
G1 X9.09 Y1.736
G0 F7200 X10.085 Y2.165
G1 F1800 X8.239 Y0.32 E90.80661
G1 X8.169 Y0.25
G0 F7200 X7.274 Y-1.211
G1 F1800 X10.233 Y1.747 E90.91098
G0 F7200 X10.333 Y1.282
G1 F1800 X6.53 Y-2.52 E91.04512
G1 X6.46 Y-2.59
G0 F7200 X6.247 Y-3.368
G1 F1800 X10.434 Y0.817 E91.19279
G1 X10.504 Y0.887
G0 F7200 X14.025 Y-5.207
G1 F1800 X5.851 Y-13.381 E91.48115
G1 X5.781 Y-13.451
G0 F7200 X1.377 Y-12.455
G0 X-1.264 Y-11.118
G0 X-10.369 Y2.641
G1 F1800 X-15.746 Y-2.735 E91.67082
G0 F7200 X-15.958 Y-2.382
G1 F1800 X-11.317 Y2.259 E91.83455
G1 X-11.247 Y2.329
G0 F7200 X-12.39 Y1.751
G1 F1800 X-16.112 Y-1.969 E91.96581
G0 F7200 X-16.082 Y-1.374
G1 F1800 X-13.392 Y1.315 E92.06069
G1 X-13.322 Y1.385
G0 F7200 X-14.581 Y0.691
G1 F1800 X-15.852 Y-.579 E92.10551
G1 X-15.922 Y-.649
G0 F7200 X-9.548 Y3.549
G0 X-8.601 Y4.409
G1 F1800 X-5.13 Y7.879 E92.22794
G0 F7200 X-5.703 Y7.872
G1 F1800 X-7.936 Y5.639 E92.30672
G1 X-8.006 Y5.569
G0 F7200 X-7.607 Y6.534
G1 F1800 X-6.841 Y7.3 E92.33374
G1 X-6.771 Y7.37
;MESH:NONMESH
G0 F600 X-6.771 Y7.37 Z1.05
G0 F7200 X6.658 Y4.834
G0 X7.872 Y4.115
G0 X8.573 Y3.528
G0 X8.731 Y2.257
G0 X5.655 Y-8.838
G0 X5.068 Y-9.706
;TIME_ELAPSED:131.970104
;LAYER:5
;TYPE:WALL-INNER
;MESH:bunny.stl
G1 F3600 X3.627 Y-10.549 E92.37539
G1 X1.766 Y-11.162 E92.42426
G1 X0.2 Y-10.374 E92.46799
G1 X0.678 Y-8.749 E92.51025
G1 X-.273 Y-3.939 E92.63256
G1 X-3.394 Y-2.627 E92.71701
G1 X-4.628 Y-2.245 E92.74923
G1 X-5.592 Y-1.903 E92.77475
G1 X-5.968 Y-1.461 E92.78922
G1 X-6.138 Y-1.092 E92.79936
G1 X-6.971 Y0.463 E92.84336
G1 X-7.05 Y0.714 E92.84993
G1 X-7.408 Y1.994 E92.88308
G1 X-7.17 Y2.992 E92.90868
G1 X-6.824 Y3.902 E92.93296
G1 X-6.677 Y4.177 E92.94074
G1 X-6.239 Y4.796 E92.95966
G1 X-5.598 Y5.399 E92.98161
G1 X-5.42 Y5.575 E92.98785
G1 X-4.572 Y5.915 E93.01064
G1 X-3.598 Y6.094 E93.03535
G1 X-1.666 Y6 E93.0836
G1 X-.301 Y5.885 E93.11777
G1 X-.159 Y5.875 E93.12132
G1 X2.038 Y5.526 E93.17681
G1 X5.624 Y4.916 E93.26755
G1 X6.188 Y4.767 E93.2821
G1 X6.733 Y4.603 E93.2963
G1 X7.605 Y4.094 E93.32148
G1 X7.734 Y3.985 E93.3257
G1 X8.284 Y3.581 E93.34272
G1 X8.559 Y2.954 E93.3598
G1 X8.472 Y2.306 E93.37611
G1 X8.343 Y1.892 E93.38693
G1 X8.155 Y1.579 E93.39603
G1 X6.581 Y-.918 E93.46966
G1 X6.151 Y-1.645 E93.49073
G1 X5.818 Y-2.4 E93.51132
G1 X5.613 Y-3.013 E93.52744
G1 X5.496 Y-3.342 E93.53615
G1 X5.47 Y-3.707 E93.54528
G1 X5.382 Y-4.342 E93.56127
G1 X4.783 Y-5.818 E93.60101
G1 X4.578 Y-6.268 E93.61334
G1 X4.096 Y-7.304 E93.64185
G1 X3.507 Y-8.644 E93.67836
G1 X3.52 Y-8.658 E93.67884
G1 X5.068 Y-9.706 E93.72547
G0 F7200 X5.167 Y-9.709
G0 X11.53 Y-8.853
G0 X11.614 Y-8.906
G1 F3600 X12.741 Y-8.065 E93.76055
G1 X14.669 Y-6.025 E93.83056
G1 X15.463 Y-4.311 E93.87768
G1 X15.789 Y-3.483 E93.89988
G1 X15.747 Y-3.104 E93.90939
G1 X15.035 Y-2.461 E93.93333
G1 X12.902 Y-.358 E94.00805
G1 X11.64 Y0.064 E94.04124
G1 X11.144 Y0.622 E94.05986
G1 X10.603 Y3.122 E94.12367
G1 X10.104 Y4.203 E94.15337
G1 X9.754 Y4.931 E94.17352
G1 X9.535 Y5.219 E94.18255
G1 X8.823 Y5.994 E94.2088
G1 X8.502 Y6.059 E94.21697
G1 X5.879 Y6.485 E94.28326
G1 X4.18 Y6.756 E94.32617
G1 X3.007 Y6.935 E94.35577
G1 X2.316 Y7.017 E94.37313
G1 X1.98 Y7.067 E94.3816
G1 X-1.656 Y7.826 E94.47426
G1 X-3.659 Y8.201 E94.52509
G1 X-4.382 Y8.344 E94.54348
G1 X-4.925 Y8.463 E94.55734
G1 X-5.086 Y8.471 E94.56137
G1 X-5.793 Y8.545 E94.5791
G1 X-6.443 Y8.176 E94.59774
G1 X-6.797 Y7.99 E94.60772
G1 X-7.439 Y7.668 E94.62563
G1 X-7.808 Y7.416 E94.63678
G1 X-7.918 Y7.288 E94.64099
G1 X-8.258 Y6.372 E94.66536
G1 X-8.499 Y5.713 E94.68287
G1 X-8.685 Y5.406 E94.69182
G1 X-9.077 Y4.52 E94.71599
G1 X-9.482 Y3.546 E94.7423
G1 X-10.071 Y3.247 E94.75878
G1 X-10.461 Y3.115 E94.76905
G1 X-11.055 Y2.939 E94.78451
G1 X-12.266 Y2.422 E94.81735
G1 X-12.57 Y2.278 E94.82574
G1 X-13.73 Y1.792 E94.85712
G1 X-14.925 Y1.269 E94.88965
G1 X-15.454 Y1.045 E94.90399
G1 X-15.65 Y0.892 E94.91019
G1 X-16.005 Y0.37 E94.92593
G1 X-16.212 Y0.021 E94.93606
G1 X-16.494 Y-.707 E94.95553
G1 X-16.6 Y-1.152 E94.96694
G1 X-16.734 Y-1.918 E94.98634
G1 X-16.389 Y-2.854 E95.01123
G1 X-15.995 Y-3.388 E95.02778
G1 X-15.016 Y-4.609 E95.06682
G1 X-14.529 Y-5.123 E95.08448
G1 X-13.736 Y-5.98 E95.11361
G1 X-13.449 Y-6.794 E95.13514
G1 X-13.549 Y-7.233 E95.14637
G1 X-14.051 Y-7.794 E95.16515
G1 X-14.473 Y-8.736 E95.1909
G1 X-14.914 Y-10.438 E95.23476
G1 X-14.864 Y-11.701 E95.26629
G1 X-14.672 Y-12.272 E95.28131
G1 X-14.397 Y-12.629 E95.29255
G1 X-14.174 Y-13.156 E95.30683
G1 X-14.138 Y-13.21 E95.30845
G1 X-13.522 Y-13.727 E95.32851
G1 X-13.025 Y-13.986 E95.34249
G1 X-11.991 Y-14.204 E95.36885
G1 X-10.304 Y-13.942 E95.41144
G1 X-8.971 Y-13.829 E95.44481
G1 X-6.866 Y-13.438 E95.49822
G1 X-6.445 Y-13.648 E95.50995
G1 X-5.972 Y-14.153 E95.52721
G1 X-4.847 Y-15.044 E95.56301
G1 X-4.718 Y-15.172 E95.56754
G1 X-3.931 Y-15.857 E95.59357
G1 X-3.307 Y-16.313 E95.61285
G1 X-2.809 Y-16.395 E95.62544
G1 X-2.549 Y-16.39 E95.63193
G1 X-1.146 Y-16.104 E95.66764
G1 X-.466 Y-15.936 E95.68512
G1 X0.327 Y-15.73 E95.70555
G1 X4.217 Y-14.76 E95.80556
G1 X4.34 Y-14.726 E95.80874
G1 X6.834 Y-13.85 E95.87468
G1 X8.396 Y-13.316 E95.91586
G1 X8.954 Y-13.143 E95.93044
G1 X9.822 Y-12.942 E95.95266
G1 X9.864 Y-12.925 E95.95379
G1 X10.512 Y-12.251 E95.97711
G1 X10.794 Y-11.814 E95.99009
G1 X11.31 Y-10.409 E96.02742
G1 X11.328 Y-10.334 E96.02935
G1 X11.614 Y-8.906 E96.06568
G0 F7200 X11.976 Y-9.135
;TYPE:WALL-OUTER
G1 F1800 X13.012 Y-8.361 E96.09794
G1 X15.004 Y-6.253 E96.17028
G1 X15.826 Y-4.479 E96.21906
G1 X16.197 Y-3.536 E96.24434
G1 X16.129 Y-2.909 E96.26007
G1 X15.309 Y-2.17 E96.2876
G1 X13.118 Y-0.009 E96.36437
G1 X11.868 Y0.409 E96.39725
G1 X11.513 Y0.809 E96.41059
G1 X10.985 Y3.247 E96.47282
G1 X10.465 Y4.376 E96.50382
G1 X10.099 Y5.138 E96.52491
G1 X9.836 Y5.484 E96.53575
G1 X9.103 Y6.282 E96.56278
G1 X8.981 Y6.385 E96.56676
G1 X8.568 Y6.454 E96.57721
G1 X5.943 Y6.88 E96.64355
G1 X4.243 Y7.151 E96.68649
G1 X3.054 Y7.332 E96.71649
G1 X2.369 Y7.413 E96.7337
G1 X2.051 Y7.461 E96.74172
G1 X-1.574 Y8.218 E96.83409
G1 X-3.583 Y8.594 E96.88508
G1 X-4.3 Y8.736 E96.90331
G1 X-4.868 Y8.86 E96.91781
G1 X-5.055 Y8.87 E96.92249
G1 X-5.879 Y8.956 E96.94315
G1 X-6.635 Y8.527 E96.96484
G1 X-6.98 Y8.346 E96.97455
G1 X-7.639 Y8.015 E96.99295
G1 X-8.079 Y7.715 E97.00623
G1 X-8.268 Y7.494 E97.01349
G1 X-8.633 Y6.511 E97.03965
G1 X-8.861 Y5.887 E97.05622
G1 X-9.042 Y5.588 E97.06494
G1 X-9.443 Y4.682 E97.08965
G1 X-9.795 Y3.836 E97.11251
G1 X-10.227 Y3.617 E97.12459
G1 X-10.582 Y3.496 E97.13395
G1 X-11.189 Y3.317 E97.14973
G1 X-12.423 Y2.79 E97.1832
G1 X-12.733 Y2.643 E97.19176
G1 X-13.885 Y2.16 E97.22292
G1 X-15.083 Y1.636 E97.25554
G1 X-15.661 Y1.391 E97.2712
G1 X-15.945 Y1.17 E97.28018
G1 X-16.34 Y0.589 E97.2977
G1 X-16.573 Y0.197 E97.30908
G1 X-16.873 Y-.578 E97.32981
G1 X-16.975 Y-.932 E97.339
G1 X-16.996 Y-1.092 E97.34302
G1 X-17.146 Y-1.955 E97.36487
G1 X-16.949 Y-2.495 E97.37921
G1 X-16.744 Y-3.048 E97.39393
G1 X-16.317 Y-3.626 E97.41185
G1 X-15.319 Y-4.871 E97.45165
G1 X-14.821 Y-5.396 E97.46971
G1 X-14.086 Y-6.191 E97.49671
G1 X-13.865 Y-6.818 E97.5133
G1 X-13.916 Y-7.044 E97.51908
G1 X-14.39 Y-7.573 E97.5368
G1 X-14.805 Y-8.502 E97.56218
G1 X-14.85 Y-8.596 E97.56478
G1 X-15.316 Y-10.397 E97.61118
G1 X-15.262 Y-11.762 E97.64526
G1 X-15.147 Y-12.173 E97.6559
G1 X-15.02 Y-12.477 E97.66412
G1 X-14.745 Y-12.833 E97.67534
G1 X-14.526 Y-13.349 E97.68933
G1 X-14.44 Y-13.478 E97.69319
G1 X-13.746 Y-14.06 E97.71579
G1 X-13.161 Y-14.366 E97.73226
G1 X-12.012 Y-14.608 E97.76155
G1 X-11.949 Y-14.602 E97.76313
G1 X-10.256 Y-14.339 E97.80587
G1 X-8.925 Y-14.227 E97.83918
G1 X-6.925 Y-13.856 E97.88993
G1 X-6.688 Y-13.974 E97.89653
G1 X-6.242 Y-14.45 E97.9128
G1 X-5.113 Y-15.344 E97.94873
G1 X-4.988 Y-15.468 E97.95312
G1 X-4.185 Y-16.167 E97.97967
G1 X-3.466 Y-16.692 E98.00188
G1 X-2.839 Y-16.796 E98.01774
G1 X-2.505 Y-16.789 E98.02607
G1 X-1.066 Y-16.496 E98.0627
G1 X-.366 Y-16.323 E98.08069
G1 X0.426 Y-16.118 E98.1011
G1 X4.324 Y-15.146 E98.20131
G1 X4.447 Y-15.112 E98.20449
G1 X6.965 Y-14.228 E98.27106
G1 X8.52 Y-13.696 E98.31206
G1 X9.058 Y-13.529 E98.32611
G1 X9.943 Y-13.325 E98.34877
G1 X10.094 Y-13.262 E98.35285
G1 X10.821 Y-12.506 E98.37901
G1 X10.988 Y-12.277 E98.38608
G1 X11.156 Y-11.987 E98.39444
G1 X11.692 Y-10.527 E98.43324
G1 X11.72 Y-10.413 E98.43617
G1 X11.976 Y-9.135 E98.46868
G0 F7200 X12.136 Y-9.016
G0 X11.837 Y-8.616
G0 X4.571 Y-10.112
G0 X4.318 Y-9.681
G1 F1800 X3.462 Y-10.182 E98.49342
G1 X1.798 Y-10.73 E98.53712
G1 X0.678 Y-10.167 E98.56839
G1 X1.089 Y-8.769 E98.60474
G1 X0.078 Y-3.652 E98.73486
G1 X-3.253 Y-2.252 E98.82499
G1 X-4.502 Y-1.865 E98.85761
G1 X-5.357 Y-1.562 E98.88023
G1 X-5.628 Y-1.244 E98.89066
G1 X-5.785 Y-.903 E98.90002
G1 X-6.601 Y0.619 E98.9431
G1 X-6.667 Y0.828 E98.94857
G1 X-6.995 Y2.002 E98.97897
G1 X-6.787 Y2.874 E99.00134
G1 X-6.459 Y3.736 E99.02434
G1 X-6.336 Y3.966 E99.03085
G1 X-5.936 Y4.532 E99.04814
G1 X-5.324 Y5.107 E99.06909
G1 X-5.196 Y5.234 E99.07358
G1 X-4.46 Y5.529 E99.09336
G1 X-3.571 Y5.692 E99.11591
G1 X-1.693 Y5.601 E99.16281
G1 X-.335 Y5.486 E99.19681
G1 X-.204 Y5.477 E99.20008
G1 X1.973 Y5.131 E99.25507
G1 X5.539 Y4.525 E99.3453
G1 X6.079 Y4.382 E99.35923
G1 X6.572 Y4.234 E99.37207
G1 X7.374 Y3.765 E99.39525
G1 X7.488 Y3.67 E99.39895
G1 X7.961 Y3.322 E99.4136
G1 X8.148 Y2.896 E99.42521
G1 X8.08 Y2.393 E99.43787
G1 X7.975 Y2.057 E99.44665
G1 X7.814 Y1.789 E99.45445
G1 X6.237 Y-.714 E99.52824
G1 X5.795 Y-1.461 E99.5499
G1 X5.442 Y-2.261 E99.57171
G1 X5.235 Y-2.883 E99.58806
G1 X5.101 Y-3.259 E99.59802
G1 X5.072 Y-3.665 E99.60817
G1 X4.993 Y-4.238 E99.6226
G1 X4.415 Y-5.66 E99.66089
G1 X4.215 Y-6.101 E99.67297
G1 X3.733 Y-7.135 E99.70143
G1 X3.036 Y-8.723 E99.74469
G1 X3.257 Y-8.963 E99.75283
G1 X4.318 Y-9.681 E99.78478
G0 F7200 X4.146 Y-9.782
G0 X4.398 Y-10.213
G0 X3.789 Y-10.906
;TYPE:SKIN
G1 F1800 X1.735 Y-11.583 E99.83873
G1 X-.266 Y-10.577 E99.8946
G1 X0.277 Y-8.73 E99.94262
G1 X-.614 Y-4.218 E100.05735
G1 X-3.523 Y-2.995 E100.13607
G1 X-4.751 Y-2.615 E100.16813
G1 X-5.822 Y-2.236 E100.19647
G1 X-6.3 Y-1.673 E100.2149
G1 X-6.499 Y-1.242 E100.22674
G1 X-7.332 Y0.311 E100.2707
G1 X-7.424 Y0.603 E100.27834
G1 X-7.811 Y1.986 E100.31416
G1 X-7.544 Y3.107 E100.34291
G1 X-7.179 Y4.064 E100.36846
G1 X-7.009 Y4.382 E100.37745
G1 X-6.535 Y5.053 E100.39794
G1 X-5.873 Y5.676 E100.42062
G1 X-5.638 Y5.908 E100.42886
G1 X-4.681 Y6.291 E100.45457
G1 X-3.624 Y6.486 E100.48138
G1 X-1.64 Y6.39 E100.53093
G1 X-.361 Y6.281 E100.56295
G1 X-.114 Y6.263 E100.56913
G1 X2.101 Y5.91 E100.62508
G1 X5.706 Y5.298 E100.71629
G1 X6.294 Y5.142 E100.73147
G1 X6.889 Y4.964 E100.74696
G1 X7.831 Y4.414 E100.77417
G1 X7.986 Y4.283 E100.77923
G1 X8.6 Y3.833 E100.79822
G1 X8.96 Y3.01 E100.82063
G1 X8.854 Y2.222 E100.84047
G1 X8.702 Y1.732 E100.85326
G1 X8.487 Y1.374 E100.86368
G1 X6.914 Y-1.122 E100.93728
G1 X6.499 Y-1.824 E100.95762
G1 X6.179 Y-2.549 E100.97739
G1 X5.982 Y-3.14 E100.99293
G1 X5.881 Y-3.422 E101.0004
G1 X5.858 Y-3.748 E101.00855
G1 X5.762 Y-4.443 E101.02605
G1 X5.142 Y-5.972 E101.06721
G1 X4.933 Y-6.431 E101.07979
G1 X4.449 Y-7.468 E101.10834
G1 X3.993 Y-8.506 E101.13662
G1 X5.799 Y-9.73 E101.19104
G1 X3.789 Y-10.906 E101.24913
G0 F7200 X6.707 Y-13.481
G1 F1800 X8.275 Y-12.945 E101.29047
G1 X8.852 Y-12.766 E101.30554
G1 X9.654 Y-12.581 E101.32607
G1 X10.206 Y-12.007 E101.34594
G1 X10.443 Y-11.639 E101.35685
G1 X10.937 Y-10.294 E101.3926
G1 X11.261 Y-8.683 E101.43359
G1 X12.482 Y-7.772 E101.47159
G1 X14.344 Y-5.803 E101.53919
G1 X15.1 Y-4.168 E101.58413
G1 X15.391 Y-3.431 E101.60389
G1 X15.375 Y-3.293 E101.60736
