;FLAVOR:Marlin
;TIME:4953
;Filament used: 9.69496m
;Layer height: 0.4
;MINX:-24.202
;MINY:-18.589
;MINZ:0.3
;MAXX:24.202
;MAXY:18.586
;MAXZ:47.9
;Generated with Cura_SteamEngine 4.13.1
M104 S200
M105
M109 S200
M82 ;absolute extrusion mode

G92 E0
G92 E0
;LAYER_COUNT:120
;LAYER:0
M107
;MESH:bunny.stl
G0 F3600 X-10.477 Y1.308 Z0.3
;TYPE:WALL-INNER
G1 F1722 X-10.003 Y2.356 E0.05738
G1 X-9.437 Y3.321 E0.1132
G1 X-9.342 Y3.673 E0.13139
G1 X-9.968 Y2.606 E0.1681
G1 X-11.505 Y2.104 E0.24877
G1 X-11.951 Y1.977 E0.27191
G1 X-12.792 Y1.429 E0.32199
G1 X-13.246 Y0.994 E0.35335
G1 X-13.29 Y-.289 E0.4174
G1 X-13.954 Y-1.437 E0.48357
G1 X-14.218 Y-2.15 E0.5215
G1 X-13.583 Y-4.506 E0.64323
G1 X-13.284 Y-5.455 E0.69287
G1 X-13.049 Y-5.842 E0.71546
G1 X-11.332 Y-6.466 E0.8066
G1 X-11.112 Y-5.601 E0.85113
G1 X-11.368 Y-5.257 E0.87253
G1 X-11.67 Y-4.776 E0.90086
G1 X-11.652 Y-4.127 E0.93325
G1 X-11.652 Y-3.484 E0.96533
G1 X-11.217 Y-2.57 E1.01583
G1 X-10.87 Y-2.041 E1.0474
G1 X-10.252 Y-2.029 E1.07823
G1 X-9 Y-2.087 E1.14076
G1 X-8.628 Y-2.051 E1.15941
G1 X-7.702 Y-2.068 E1.20562
G1 X-6.779 Y-1.999 E1.25179
G1 X-7.19 Y-1.376 E1.28903
G1 X-7.936 Y-.776 E1.33679
G1 X-9.366 Y0.29 E1.42578
G1 X-10.477 Y1.308 E1.50095
G0 F3600 X-9.993 Y1.407
;TYPE:WALL-OUTER
G1 F1722 X-9.647 Y2.172 E1.54284
G1 X-9.065 Y3.166 E1.60031
G1 X-8.632 Y4.763 E1.68286
G1 X-8.58 Y5.34 E1.71176
G1 X-9.057 Y5.115 E1.73807
G1 X-9.416 Y4.337 E1.78082
G1 X-10.236 Y2.939 E1.86168
G1 X-11.622 Y2.487 E1.93441
G1 X-12.117 Y2.346 E1.96009
G1 X-13.044 Y1.742 E2.01529
G1 X-13.64 Y1.17 E2.0565
G1 X-13.686 Y-.175 E2.12364
G1 X-14.318 Y-1.268 E2.18663
G1 X-14.637 Y-2.131 E2.23254
G1 X-13.965 Y-4.626 E2.36145
G1 X-13.652 Y-5.621 E2.41349
G1 X-13.379 Y-6.069 E2.43966
G1 X-13.33 Y-6.266 E2.44979
G1 X-13.151 Y-6.23 E2.4589
G1 X-11.053 Y-6.993 E2.57028
G1 X-10.677 Y-5.515 E2.64636
G1 X-11.038 Y-5.031 E2.67649
G1 X-11.267 Y-4.666 E2.69798
G1 X-11.252 Y-4.127 E2.72488
G1 X-11.252 Y-3.574 E2.75247
G1 X-10.868 Y-2.767 E2.79706
G1 X-10.651 Y-2.437 E2.81676
G1 X-10.257 Y-2.429 E2.83643
G1 X-8.994 Y-2.488 E2.89951
G1 X-8.612 Y-2.451 E2.91865
G1 X-7.69 Y-2.468 E2.96466
G1 X-6.62 Y-2.388 E3.01819
G1 X-6.11 Y-3.146 E3.06377
G1 X-5.884 Y-3.404 E3.08088
G1 X-5.709 Y-3.868 E3.10562
G1 X-5.565 Y-4.08 E3.11841
G1 X-5.245 Y-4.064 E3.13439
G1 X-4.887 Y-4.558 E3.16483
G1 X-4.9 Y-4.186 E3.17062
G1 X-5.069 Y-3.608 E3.20066
G1 X-6.607 Y-1.562 E3.32836
G1 X-6.886 Y-1.107 E3.35499
G1 X-7.686 Y-.463 E3.40622
G1 X-9.111 Y0.599 E3.49489
G1 X-9.993 Y1.407 E3.55457
G0 F3600 X-9.911 Y1.589
G0 X-10.597 Y1.99
;TYPE:SKIN
G1 F1722 X-11.391 Y1.731 E3.59623
G1 X-11.786 Y1.619 E3.61672
G1 X-12.554 Y1.118 E3.66246
G1 X-12.862 Y0.824 E3.68371
G1 X-12.904 Y-.4 E3.74481
G1 X-13.598 Y-1.599 E3.81392
G1 X-13.809 Y-2.17 E3.8443
G1 X-13.211 Y-4.389 E3.95895
G1 X-12.926 Y-5.293 E4.00624
G1 X-12.787 Y-5.522 E4.0196
G1 X-11.603 Y-5.952 E4.08245
G1 X-11.535 Y-5.684 E4.09624
G1 X-11.69 Y-5.478 E4.10911
G1 X-12.064 Y-4.883 E4.14417
G1 X-12.042 Y-4.127 E4.1819
G1 X-12.042 Y-3.396 E4.21837
G1 X-11.558 Y-2.379 E4.27456
G1 X-11.083 Y-1.655 E4.31776
G1 X-10.246 Y-1.639 E4.35953
G1 X-9.005 Y-1.695 E4.4215
G1 X-8.643 Y-1.661 E4.43964
G1 X-7.703 Y-1.678 E4.48655
G1 X-7.482 Y-1.642 E4.49772
G1 X-8.17 Y-1.088 E4.54179
G1 X-9.615 Y-0.011 E4.6317
G1 X-10.949 Y1.211 E4.72196
G1 X-10.597 Y1.99 E4.76461
G0 F3600 X-12.699 Y0.311
G1 F1722 X-11.496 Y1.513 E4.84945
G0 F3600 X-11.073 Y1.371
G1 F1722 X-12.72 Y-.275 E4.96562
G1 X-12.79 Y-.345
G0 F3600 X-13.267 Y-1.388
G1 F1722 X-10.929 Y0.949 E5.13054
G0 F3600 X-10.634 Y0.678
G1 F1722 X-13.592 Y-2.279 E5.33921
G0 F3600 X-13.472 Y-2.724
G1 F1722 X-10.339 Y0.408 E5.56022
G0 F3600 X-10.043 Y0.138
G1 F1722 X-13.352 Y-3.169 E5.79362
G0 F3600 X-13.232 Y-3.615
G1 F1722 X-11.344 Y-1.728 E5.92679
G0 F3600 X-11.091 Y-1.475
G1 F1722 X-9.748 Y-.132 E6.02155
G0 F3600 X-9.426 Y-.375
G1 F1722 X-10.515 Y-1.464 E6.09838
G0 F3600 X-9.956 Y-1.471
G1 F1722 X-9.101 Y-.616 E6.15871
G0 F3600 X-8.778 Y-.858
G1 F1722 X-9.415 Y-1.495 E6.20365
G0 F3600 X-8.852 Y-1.499
G1 F1722 X-8.454 Y-1.1 E6.23177
G0 F3600 X-8.134 Y-1.346
G1 F1722 X-8.275 Y-1.487 E6.24172
G0 F3600 X-10.78 Y-2.204
G0 X-12.052 Y-3.001
G1 F1722 X-13.112 Y-4.061 E6.31651
G0 F3600 X-12.986 Y-4.5
G1 F1722 X-12.221 Y-3.736 E6.37045
G0 F3600 X-12.226 Y-4.306
G1 F1722 X-12.85 Y-4.931 E6.41451
G0 F3600 X-12.689 Y-5.335
G1 F1722 X-12.243 Y-4.889 E6.44598
G0 F3600 X-12.042 Y-5.254
G1 F1722 X-12.295 Y-5.507 E6.46383
G0 F3600 X-11.881 Y-5.658
G1 F1722 X-11.822 Y-5.6 E6.46795
;MESH:NONMESH
G0 F600 X-11.822 Y-5.6 Z0.7
G0 F3600 X-11.491 Y-3.521
G0 X-11.075 Y-2.646
G0 X-6.731 Y-2.162
G0 X-4.919 Y-4.189
G0 X-4.035 Y-4.159
G0 X6.94 Y-2.918
;TIME_ELAPSED:6.159746
;LAYER:1
M106 S255
;TYPE:WALL-INNER
;MESH:bunny.stl
G1 F2700 X6.882 Y-2.23 E6.51388
G1 X6.963 Y-1.603 E6.55594
G1 X6.509 Y-2.23 E6.57921
G1 X6.158 Y-3.014 E6.63635
G1 X6.058 Y-3.46 E6.66675
G1 X6.055 Y-3.961 E6.70008
G1 X6.295 Y-4.734 E6.75392
G1 X6.311 Y-5.248 E6.78813
G1 X6.149 Y-5.726 E6.8217
G1 X6.023 Y-6.007 E6.84219
G1 X6.279 Y-6.297 E6.86792
G1 X7.228 Y-7.362 E6.96281
G1 X7.403 Y-7.481 E6.97689
G1 X7.536 Y-7.194 E6.99029
G1 X7.735 Y-5.774 E7.08567
G1 X7.964 Y-4.354 E7.18135
G1 X7.994 Y-4.313 E7.18473
G1 X6.94 Y-2.918 E7.30103
G0 F5400 X6.983 Y-1.301
G0 X8.956 Y2.581
G0 X7.682 Y4.314
G0 X6.172 Y5.14
G0 X-2.215 Y6.363
G0 X-5.001 Y6.22
G0 X-6.471 Y5.343
G0 X-7.594 Y3.343
G0 X-7.915 Y1.467
G0 X-6.916 Y-.597
G0 X-6.238 Y-1.833
G0 X-4.9 Y-3.61
G0 X-4.181 Y-4.455
G0 X-6.332 Y-8.164
G1 F2700 X-7.084 Y-7.993 E7.35233
G1 X-7.824 Y-7.626 E7.40728
G1 X-8.197 Y-7.164 E7.44678
G1 X-8.522 Y-6.453 E7.49878
G1 X-8.582 Y-6.283 E7.51077
G1 X-8.765 Y-6.179 E7.52477
G1 X-9.266 Y-5.807 E7.56628
G1 X-9.885 Y-4.968 E7.63564
G1 X-10.085 Y-4.295 E7.68234
G1 X-10.383 Y-3.757 E7.72325
G1 X-10.229 Y-3.218 E7.76054
G1 X-9.939 Y-2.639 E7.80362
G1 X-9.167 Y-2.632 E7.85497
G1 X-8.401 Y-2.655 E7.90595
G1 X-7.752 Y-2.728 E7.9494
G1 X-7.091 Y-2.954 E7.99586
G1 X-6.121 Y-3.429 E8.06771
G1 X-5.616 Y-4.009 E8.11887
G1 X-5.297 Y-4.67 E8.16769
G1 X-5.373 Y-5.689 E8.23566
G1 X-5.407 Y-5.952 E8.2533
G1 X-5.828 Y-7.229 E8.34275
G1 X-6.332 Y-8.164 E8.4134
G0 F5400 X-4.324 Y-12.682
G1 F2700 X-2.456 Y-6.323 E8.85428
G1 X-2.781 Y-4.678 E8.96582
G1 X-5.004 Y-3.743 E9.12624
G1 X-6.374 Y-1.92 E9.27794
G1 X-7.055 Y-.678 E9.37216
G1 X-8.011 Y1.216 E9.51329
G1 X-8.082 Y1.461 E9.53025
G1 X-8.034 Y1.694 E9.54608
G1 X-7.748 Y3.396 E9.66088
G1 X-7.052 Y4.79 E9.76453
G1 X-6.801 Y5.253 E9.79956
G1 X-6.562 Y5.479 E9.82144
G1 X-6.222 Y5.63 E9.84619
G1 X-5.052 Y6.38 E9.93864
G1 X-2.649 Y6.47 E10.0986
G1 X-2.215 Y6.525 E10.1277
G1 X-1.294 Y6.424 E10.18933
G1 X0.06 Y6.188 E10.28076
G1 X2.468 Y5.839 E10.44261
G1 X3.828 Y5.655 E10.5339
G1 X6.22 Y5.296 E10.6948
G1 X7.337 Y4.747 E10.77759
G1 X7.781 Y4.441 E10.81346
G1 X8.406 Y3.891 E10.86884
G1 X8.836 Y3.498 E10.9076
G1 X9.038 Y3.337 E10.92478
G1 X9.187 Y2.968 E10.95125
G1 X9.11 Y2.53 E10.98083
G1 X8.512 Y1.297 E11.07199
G1 X8.223 Y0.772 E11.11185
G1 X7.544 Y-.758 E11.2232
G1 X7.222 Y-1.235 E11.26149
G1 X8.025 Y-.98 E11.2928
G1 X8.862 Y-.83 E11.34936
G1 X9.097 Y-.765 E11.36558
G1 X9.853 Y-.612 E11.41689
G1 X10.674 Y-.499 E11.47202
G1 X11.179 Y-1.025 E11.52052
G1 X11.561 Y-1.488 E11.56045
G1 X12.402 Y-2.603 E11.65336
G1 X12.744 Y-3.036 E11.69006
G1 X13.475 Y-4.189 E11.78087
G1 X13.651 Y-3.964 E11.79987
G1 X13.588 Y-3.874 E11.80718
G1 X12.935 Y-3.054 E11.84935
G1 X12.852 Y-2.839 E11.86099
G1 X12.56 Y-2.476 E11.87614
G1 X11.522 Y-1.186 E11.94897
G1 X11.104 Y-.459 E11.99469
G1 X10.724 Y0.322 E12.05246
G1 X10.51 Y0.915 E12.0944
G1 X10.188 Y1.713 E12.15164
G1 X9.601 Y2.962 E12.24344
G1 X8.92 Y3.588 E12.28241
G1 X8.491 Y3.982 E12.29442
G1 X7.707 Y4.703 E12.33341
G1 X7.317 Y5.269 E12.37913
G1 X7.033 Y5.512 E12.404
G1 X6.6 Y5.618 E12.43365
G1 X4.647 Y6.303 E12.57132
G1 X2.113 Y6.804 E12.74315
G1 X0.173 Y7.242 E12.87545
G1 X-1.307 Y7.613 E12.97694
G1 X-2.39 Y7.848 E13.05066
G1 X-3.499 Y8.056 E13.12572
G1 X-4.713 Y8.243 E13.20742
G1 X-5.246 Y8.211 E13.24294
G1 X-5.806 Y8.195 E13.28021
G1 X-6.139 Y8.157 E13.30251
G1 X-6.22 Y7.965 E13.31637
G1 X-6.617 Y7.508 E13.35664
G1 X-7.042 Y7.246 E13.38985
G1 X-7.802 Y7.201 E13.44049
G1 X-8.084 Y6.742 E13.47633
G1 X-8.481 Y5.865 E13.54036
G1 X-9.679 Y3.875 E13.69488
G1 X-9.774 Y3.651 E13.71106
G1 X-10.134 Y3.498 E13.73708
G1 X-12.826 Y2.094 E13.93904
G1 X-13.799 Y1.441 E14.01699
G1 X-14.812 Y0.838 E14.09541
G1 X-15.255 Y0.756 E14.12538
G1 X-15.643 Y0.791 E14.1513
G1 X-15.888 Y0.422 E14.18076
G1 X-15.978 Y0.00 E14.20946
G1 X-16.205 Y-.716 E14.25943
G1 X-16.479 Y-1.334 E14.3044
G1 X-16.491 Y-1.518 E14.31666
G1 X-16.413 Y-2.16 E14.35968
G1 X-16.344 Y-2.472 E14.38094
G1 X-15.715 Y-3.659 E14.4703
G1 X-14.213 Y-6.066 E14.65903
G1 X-13.8 Y-6.673 E14.70787
G1 X-13.7 Y-7.264 E14.74774
G1 X-13.679 Y-7.836 E14.78582
G1 X-13.779 Y-9.098 E14.87003
G1 X-14.101 Y-9.171 E14.89199
G1 X-14.304 Y-9.96 E14.94618
G1 X-14.134 Y-10.576 E14.98869
G1 X-13.869 Y-11.412 E15.04703
G1 X-13.69 Y-11.933 E15.08368
G1 X-12.73 Y-12.68 E15.16459
G1 X-12.35 Y-12.794 E15.19098
G1 X-10.51 Y-13.184 E15.3161
G1 X-9.698 Y-13.327 E15.37094
G1 X-8.114 Y-13.106 E15.47733
G1 X-6.019 Y-12.936 E15.61715
G1 X-4.09 Y-13.345 E15.74832
G1 X-3.275 Y-13.917 E15.81455
G1 X-2.89 Y-14.55 E15.86384
G1 X-1.142 Y-14.994 E15.98381
G1 X-.377 Y-14.87 E16.03536
G1 X-.123 Y-14.796 E16.05296
G1 X-4.324 Y-12.682 E16.3658
G0 F5400 X-3.846 Y-12.475
;TYPE:WALL-OUTER
G1 F1800 X-2.045 Y-6.343 E16.79093
G1 X-2.43 Y-4.391 E16.92328
G1 X-4.749 Y-3.416 E17.09062
G1 X-6.037 Y-1.703 E17.23319
G1 X-6.701 Y-.492 E17.32506
G1 X-7.637 Y1.363 E17.46327
G1 X-7.67 Y1.477 E17.47117
G1 X-7.642 Y1.613 E17.4804
G1 X-7.363 Y3.271 E17.59224
G1 X-6.697 Y4.605 E17.69143
G1 X-6.48 Y5.006 E17.72176
G1 X-6.337 Y5.141 E17.73484
G1 X-6.029 Y5.278 E17.75726
G1 X-4.928 Y5.984 E17.84426
G1 X-2.618 Y6.071 E17.99803
G1 X-2.212 Y6.122 E18.02525
G1 X-1.35 Y6.028 E18.08293
G1 X0.00 Y5.792 E18.1741
G1 X2.411 Y5.443 E18.33615
G1 X3.772 Y5.259 E18.42751
G1 X6.099 Y4.91 E18.58403
G1 X7.134 Y4.401 E18.66076
G1 X7.535 Y4.125 E18.69314
G1 X8.139 Y3.593 E18.74668
G1 X8.575 Y3.195 E18.78595
G1 X8.706 Y3.09 E18.79712
G1 X8.773 Y2.924 E18.80902
G1 X8.726 Y2.654 E18.82725
G1 X8.157 Y1.481 E18.91398
G1 X7.861 Y0.944 E18.95477
G1 X7.192 Y-.564 E19.06451
G1 X6.927 Y-.959 E19.09615
G1 X6.62 Y-1.396 E19.13167
G1 X6.163 Y-2.025 E19.18339
G1 X5.777 Y-2.887 E19.24622
G1 X5.658 Y-3.416 E19.28229
G1 X5.655 Y-4.02 E19.32247
G1 X5.897 Y-4.801 E19.37686
G1 X5.909 Y-5.188 E19.40261
G1 X5.776 Y-5.58 E19.43015
G1 X5.553 Y-6.077 E19.46638
G1 X5.98 Y-6.563 E19.50942
G1 X6.961 Y-7.664 E19.60751
G1 X7.567 Y-8.078 E19.65633
G1 X7.924 Y-7.308 E19.71279
G1 X8.131 Y-5.834 E19.8118
G1 X8.344 Y-4.512 E19.90088
G1 X8.492 Y-4.309 E19.91759
G1 X7.329 Y-2.769 E20.04596
G1 X7.284 Y-2.239 E20.08134
G1 X7.366 Y-1.609 E20.1236
G1 X8.121 Y-1.369 E20.1763
G1 X8.945 Y-1.222 E20.23198
G1 X9.19 Y-1.154 E20.2489
G1 X9.92 Y-1.007 E20.29843
G1 X10.527 Y-.923 E20.33919
G1 X10.88 Y-1.291 E20.37311
G1 X11.247 Y-1.736 E20.41148
G1 X12.088 Y-2.851 E20.50439
G1 X12.417 Y-3.268 E20.53972
G1 X13.081 Y-4.315 E20.62219
G1 X12.988 Y-4.765 E20.65276
G1 X12.57 Y-5.714 E20.72174
G1 X12.907 Y-5.427 E20.75118
G1 X13.603 Y-5.089 E20.80265
G1 X13.76 Y-4.474 E20.84487
G1 X14.151 Y-3.975 E20.88704
G1 X13.909 Y-3.636 E20.91475
G1 X13.286 Y-2.853 E20.98131
G1 X13.202 Y-2.635 E20.99685
G1 X11.853 Y-.96 E21.13991
G1 X11.458 Y-.272 E21.19269
G1 X11.093 Y0.478 E21.24817
G1 X10.881 Y1.065 E21.28969
G1 X10.557 Y1.869 E21.34735
G1 X9.929 Y3.205 E21.44555
G1 X8.011 Y4.967 E21.6188
G1 X7.616 Y5.54 E21.6651
G1 X7.377 Y5.745 E21.68604
G1 X7.395 Y5.836 E21.69221
G1 X6.714 Y6.002 E21.73884
G1 X4.751 Y6.69 E21.87721
G1 X2.196 Y7.195 E22.05045
G1 X0.266 Y7.631 E22.18207
G1 X-1.222 Y8.004 E22.28412
G1 X-2.303 Y8.239 E22.35771
G1 X-3.425 Y8.449 E22.43364
G1 X-4.695 Y8.645 E22.51912
G1 X-5.264 Y8.611 E22.55704
G1 X-5.829 Y8.595 E22.59463
G1 X-6.417 Y8.527 E22.63401
G1 X-6.564 Y8.179 E22.65914
G1 X-6.879 Y7.816 E22.69111
G1 X-7.166 Y7.639 E22.71354
G1 X-8.034 Y7.588 E22.77138
G1 X-8.441 Y6.926 E22.82307
G1 X-8.836 Y6.051 E22.88693
G1 X-10.035 Y4.06 E23.04154
G1 X-10.079 Y3.956 E23.04905
G1 X-10.312 Y3.857 E23.06589
G1 X-13.028 Y2.44 E23.26967
G1 X-14.013 Y1.779 E23.34858
G1 X-14.955 Y1.218 E23.42151
G1 X-15.274 Y1.159 E23.44309
G1 X-15.826 Y1.208 E23.47995
G1 X-16.178 Y0.752 E23.51827
G1 X-16.27 Y0.548 E23.53316
G1 X-16.365 Y0.103 E23.56343
G1 X-16.58 Y-.574 E23.61068
G1 X-16.873 Y-1.235 E23.65877
G1 X-16.893 Y-1.529 E23.67838
G1 X-16.807 Y-2.231 E23.72542
G1 X-16.724 Y-2.61 E23.75123
G1 X-16.062 Y-3.857 E23.84515
G1 X-14.544 Y-6.291 E24.03596
G1 X-14.18 Y-6.826 E24.07901
G1 X-14.099 Y-7.305 E24.11132
G1 X-14.08 Y-7.827 E24.14607
G1 X-14.155 Y-8.773 E24.2092
G1 X-14.427 Y-8.835 E24.22775
G1 X-14.718 Y-9.965 E24.30537
G1 X-14.52 Y-10.682 E24.35485
G1 X-14.247 Y-11.542 E24.41487
G1 X-14.029 Y-12.177 E24.45953
G1 X-12.918 Y-13.041 E24.55316
G1 X-12.451 Y-13.181 E24.58559
G1 X-10.579 Y-13.578 E24.71288
G1 X-9.706 Y-13.732 E24.77185
G1 X-8.07 Y-13.504 E24.88173
G1 X-6.045 Y-13.339 E25.01688
G1 X-4.253 Y-13.719 E25.13874
G1 X-3.573 Y-14.196 E25.19399
G1 X-3.152 Y-14.889 E25.24793
G1 X-3.051 Y-14.922 E25.25499
G1 X-1.16 Y-15.402 E25.38477
G1 X-.29 Y-15.261 E25.4434
G1 X0.205 Y-15.117 E25.47769
G1 X0.657 Y-14.988 E25.50896
G1 X3.202 Y-14.258 E25.68508
G1 X4.454 Y-13.898 E25.77174
G1 X6.409 Y-13.321 E25.90733
G1 X7.806 Y-12.862 E26.00515
G1 X8.928 Y-12.487 E26.08384
G1 X9.153 Y-12.361 E26.101
G1 X9.456 Y-11.809 E26.14289
G1 X9.826 Y-10.994 E26.20242
G1 X8.882 Y-11.745 E26.24867
G1 X8.011 Y-12.257 E26.31588
G1 X3.091 Y-13.873 E26.66036
G1 X0.575 Y-14.699 E26.8145
G1 X-3.846 Y-12.475 E27.1437
G0 F5400 X-3.79 Y-12.284
G0 X-4.077 Y-12.2
G0 X-6.275 Y-7.848
G0 X-6.54 Y-7.707
G1 F1800 X-6.949 Y-7.614 E27.1716
G1 X-7.568 Y-7.307 E27.21756
G1 X-7.854 Y-6.952 E27.24789
G1 X-8.151 Y-6.303 E27.29537
G1 X-8.255 Y-6.009 E27.31611
G1 X-8.546 Y-5.843 E27.3384
G1 X-8.98 Y-5.521 E27.37434
G1 X-9.522 Y-4.787 E27.43504
G1 X-9.715 Y-4.137 E27.48014
G1 X-9.953 Y-3.708 E27.51278
G1 X-9.855 Y-3.364 E27.53657
G1 X-9.691 Y-3.037 E27.56091
G1 X-9.171 Y-3.032 E27.5955
G1 X-8.43 Y-3.054 E27.64481
G1 X-7.84 Y-3.121 E27.68431
G1 X-7.244 Y-3.324 E27.72619
G1 X-6.37 Y-3.753 E27.79096
G1 X-5.953 Y-4.231 E27.83315
G1 X-5.704 Y-4.747 E27.87127
G1 X-5.771 Y-5.648 E27.93137
G1 X-5.799 Y-5.863 E27.94579
G1 X-6.197 Y-7.07 E28.03033
G1 X-6.54 Y-7.707 E28.07846
G0 F5400 X-6.735 Y-7.663
G0 X-7.216 Y-8.363
;TYPE:SKIN
G1 F1800 X-8.074 Y-7.938 E28.14215
G1 X-8.531 Y-7.371 E28.19059
G1 X-8.884 Y-6.599 E28.24706
G1 X-8.978 Y-6.506 E28.25586
G1 X-9.545 Y-6.086 E28.30279
G1 X-10.24 Y-5.145 E28.38061
G1 X-10.447 Y-4.446 E28.4291
G1 X-10.802 Y-3.805 E28.47785
G1 X-10.594 Y-3.076 E28.52827
G1 X-10.181 Y-2.251 E28.58965
G1 X-9.163 Y-2.242 E28.65737
G1 X-8.373 Y-2.265 E28.70994
G1 X-7.666 Y-2.346 E28.75728
G1 X-6.941 Y-2.593 E28.80823
G1 X-6.014 Y-3.047 E28.87689
G1 X-6.702 Y-2.132 E28.95304
G1 X-7.4 Y-.86 E29.04956
G1 X-8.376 Y1.072 E29.19354
G1 X-8.484 Y1.446 E29.21944
G1 X-8.417 Y1.766 E29.24119
G1 X-8.123 Y3.519 E29.35942
G1 X-7.398 Y4.97 E29.46732
G1 X-7.115 Y5.493 E29.50688
G1 X-6.782 Y5.808 E29.53737
G1 X-6.406 Y5.976 E29.56477
G1 X-5.173 Y6.766 E29.66218
G1 X-2.668 Y6.86 E29.82893
G1 X-2.219 Y6.917 E29.85904
G1 X-1.239 Y6.81 E29.92461
G1 X0.116 Y6.574 E30.0161
G1 X2.524 Y6.225 E30.17796
G1 X3.883 Y6.041 E30.26918
G1 X4.213 Y5.991 E30.29139
G1 X2.033 Y6.422 E30.43921
G1 X0.083 Y6.862 E30.57218
G1 X-1.396 Y7.233 E30.67362
G1 X-2.437 Y7.46 E30.74449
G1 X-3.569 Y7.672 E30.8211
G1 X-4.73 Y7.851 E30.89924
G1 X-5.229 Y7.821 E30.9325
G1 X-5.775 Y7.805 E30.96883
G1 X-5.869 Y7.795 E30.97512
G1 X-5.885 Y7.756 E30.97792
G1 X-6.362 Y7.208 E31.02625
G1 X-6.921 Y6.862 E31.06998
G1 X-7.577 Y6.823 E31.1137
G1 X-7.74 Y6.557 E31.13445
G1 X-8.135 Y5.684 E31.19819
G1 X-9.331 Y3.698 E31.35241
G1 X-9.476 Y3.354 E31.37724
G1 X-9.976 Y3.141 E31.41339
G1 X-12.62 Y1.762 E31.61176
G1 X-13.59 Y1.111 E31.68946
G1 X-14.672 Y0.467 E31.77322
G1 X-15.237 Y0.362 E31.81145
G1 X-15.447 Y0.382 E31.82548
G1 X-15.521 Y0.269 E31.83447
G1 X-15.6 Y-.1 E31.85957
G1 X-15.84 Y-.854 E31.91221
G1 X-16.093 Y-1.428 E31.95393
G1 X-16.099 Y-1.507 E31.9592
G1 X-16.025 Y-2.113 E31.99981
G1 X-15.976 Y-2.331 E32.01468
G1 X-15.37 Y-3.476 E32.10085
G1 X-13.886 Y-5.853 E32.28726
G1 X-13.43 Y-6.525 E32.34128
G1 X-13.312 Y-7.225 E32.3885
G1 X-13.289 Y-7.844 E32.4297
G1 X-13.413 Y-9.416 E32.5346
G1 X-13.782 Y-9.499 E32.55976
G1 X-13.9 Y-9.957 E32.59122
G1 X-13.762 Y-10.459 E32.62585
G1 X-13.5 Y-11.285 E32.6835
G1 X-13.359 Y-11.696 E32.7124
G1 X-12.548 Y-12.327 E32.78075
G1 X-12.252 Y-12.416 E32.80131
G1 X-10.43 Y-12.802 E32.9252
G1 X-9.69 Y-12.933 E32.97519
G1 X-8.157 Y-12.718 E33.07817
G1 X-5.994 Y-12.542 E33.22253
G1 X-4.766 Y-12.803 E33.30604
G1 X-2.857 Y-6.304 E33.75662
G1 X-3.122 Y-4.957 E33.84794
G1 X-5.134 Y-4.111 E33.99313
G1 X-4.901 Y-4.594 E34.0288
G1 X-4.985 Y-5.728 E34.10444
G1 X-5.025 Y-6.039 E34.1253
G1 X-5.469 Y-7.383 E34.21945
G1 X-6.129 Y-8.61 E34.31213
G1 X-7.216 Y-8.363 E34.38628
G0 F5400 X-4.121 Y-12.594
G0 X-2.853 Y-13.859
G1 F1800 X-2.639 Y-14.211 E34.41369
G1 X-1.66 Y-14.46 E34.48088
G1 X-2.853 Y-13.859 E34.56974
G0 F5400 X-13.435 Y-10.888
G1 F1800 X-12.05 Y-12.273 E34.70004
G0 F5400 X-11.332 Y-12.425
G1 F1800 X-13.678 Y-10.079 E34.92073
G0 F5400 X-13.56 Y-9.632
G1 F1800 X-10.615 Y-12.578 E35.19783
G0 F5400 X-9.917 Y-12.709
G1 F1800 X-13.229 Y-9.397 E35.5094
G0 F5400 X-13.188 Y-8.872
G1 F1800 X-9.357 Y-12.704 E35.86984
G0 F5400 X-8.86 Y-12.635
G1 F1800 X-13.147 Y-8.348 E36.27314
G0 F5400 X-13.109 Y-7.821
G1 F1800 X-8.365 Y-12.565 E36.71943
G0 F5400 X-7.852 Y-12.512
G1 F1800 X-13.13 Y-7.233 E37.21599
G0 F5400 X-13.241 Y-6.557
G1 F1800 X-7.329 Y-12.469 E37.77216
G0 F5400 X-6.805 Y-12.427
G1 F1800 X-14.159 Y-5.074 E38.46393
G1 X-14.229 Y-5.004
G0 F5400 X-15.098 Y-3.569
G1 F1800 X-6.283 Y-12.384 E39.29319
G0 F5400 X-5.677 Y-12.424
G1 F1800 X-15.769 Y-2.332 E40.24259
G0 F5400 X-15.9 Y-1.636
G1 F1800 X-4.959 Y-12.576 E41.2718
G0 F5400 X-4.775 Y-12.194
G1 F1800 X-15.786 Y-1.183 E42.30765
G0 F5400 X-15.625 Y-.779
G1 F1800 X-4.647 Y-11.757 E43.34039
G0 F5400 X-4.519 Y-11.32
G1 F1800 X-7.336 Y-8.502 E43.60544
G0 F5400 X-6.583 Y-8.69
G1 F1800 X-4.39 Y-10.883 E43.81175
G0 F5400 X-4.261 Y-10.446
G1 F1800 X-5.984 Y-8.722 E43.97388
G0 F5400 X-5.786 Y-8.355
G1 F1800 X-4.133 Y-10.008 E44.12939
G0 F5400 X-4.005 Y-9.571
G1 F1800 X-5.589 Y-7.986 E44.27845
G0 F5400 X-5.391 Y-7.619
G1 F1800 X-3.876 Y-9.134 E44.42097
G0 F5400 X-3.748 Y-8.696
G1 F1800 X-5.225 Y-7.219 E44.55992
G0 F5400 X-5.084 Y-6.794
G1 F1800 X-3.619 Y-8.259 E44.69774
G0 F5400 X-3.49 Y-7.822
G1 F1800 X-4.944 Y-6.369 E44.83447
G0 F5400 X-4.828 Y-5.919
G1 F1800 X-3.362 Y-7.385 E44.97238
G0 F5400 X-3.234 Y-6.948
G1 F1800 X-4.78 Y-5.402 E45.11782
G0 F5400 X-4.74 Y-4.876
G1 F1800 X-3.105 Y-6.511 E45.27163
G0 F5400 X-3.111 Y-5.938
G1 F1800 X-4.463 Y-4.587 E45.39877
G1 X-4.533 Y-4.517
G0 F5400 X-3.487 Y-4.997
G1 F1800 X-3.25 Y-5.234 E45.42107
G0 F5400 X-6.889 Y-2.161
G1 F1800 X-11.299 Y2.248 E45.83589
G0 F5400 X-11.67 Y2.054
G1 F1800 X-7.354 Y-2.262 E46.24191
G0 F5400 X-8.062 Y-2.119
G1 F1800 X-12.042 Y1.86 E46.61628
G0 F5400 X-12.414 Y1.666
G1 F1800 X-8.671 Y-2.076 E46.96835
G0 F5400 X-9.25 Y-2.063
G1 F1800 X-12.763 Y1.449 E47.29878
G0 F5400 X-13.101 Y1.221
G1 F1800 X-9.811 Y-2.068 E47.60824
G0 F5400 X-10.318 Y-2.126
G1 F1800 X-13.439 Y0.994 E47.9018
G0 F5400 X-13.792 Y0.781
G1 F1800 X-10.507 Y-2.503 E48.21078
G0 F5400 X-10.696 Y-2.88
G1 F1800 X-14.146 Y0.569 E48.53529
G0 F5400 X-14.501 Y0.359
G1 F1800 X-10.844 Y-3.297 E48.87927
G0 F5400 X-10.97 Y-3.737
G1 F1800 X-14.941 Y0.234 E49.25284
G0 F5400 X-15.371 Y0.098
G1 F1800 X-10.552 Y-4.721 E49.70618
G1 X-10.482 Y-4.791
G0 F5400 X-9.813 Y-6.025
G1 F1800 X-15.489 Y-.35 E50.2401
G1 X-15.559 Y-.28
G0 F5400 X-10.927 Y2.442
G1 F1800 X-7.574 Y-.91 E50.55548
G1 X-7.504 Y-.98
G0 F5400 X-8.151 Y0.231
G1 F1800 X-10.555 Y2.636 E50.78168
G0 F5400 X-10.183 Y2.829
G1 F1800 X-8.618 Y1.264 E50.92891
G0 F5400 X-8.592 Y1.804
G1 F1800 X-9.806 Y3.017 E51.04307
G0 F5400 X-9.409 Y3.186
G1 F1800 X-8.511 Y2.288 E51.12754
G0 F5400 X-8.43 Y2.773
G1 F1800 X-9.2 Y3.543 E51.19998
G0 F5400 X-8.995 Y3.904
G1 F1800 X-8.348 Y3.257 E51.26085
G0 F5400 X-8.23 Y3.705
G1 F1800 X-8.782 Y4.257 E51.31278
G0 F5400 X-8.57 Y4.61
G1 F1800 X-8.041 Y4.082 E51.36249
G0 F5400 X-7.853 Y4.459
G1 F1800 X-8.357 Y4.963 E51.40991
G0 F5400 X-8.144 Y5.316
G1 F1800 X-7.665 Y4.836 E51.45501
G0 F5400 X-7.471 Y5.209
G1 F1800 X-7.939 Y5.676 E51.49899
G0 F5400 X-7.763 Y6.066
G1 F1800 X-7.273 Y5.576 E51.54509
G0 F5400 X-6.989 Y5.857
G1 F1800 X-7.587 Y6.456 E51.60139
G0 F5400 X-7.229 Y6.663
G1 F1800 X-6.635 Y6.069 E51.65727
G0 F5400 X-6.272 Y6.272
G1 F1800 X-6.754 Y6.754 E51.70262
G0 F5400 X-6.404 Y6.969
G1 F1800 X-5.928 Y6.494 E51.74735
G0 F5400 X-5.583 Y6.714
G1 F1800 X-6.1 Y7.232 E51.79603
G0 F5400 X-5.837 Y7.534
G1 F1800 X-5.238 Y6.935 E51.85238
G0 F5400 X-4.7 Y6.962
G1 F1800 X-5.373 Y7.636 E51.91574
G0 F5400 X-4.835 Y7.663
G1 F1800 X-4.154 Y6.983 E51.97976
G0 F5400 X-3.609 Y7.003
G1 F1800 X-4.191 Y7.585 E52.03451
G0 F5400 X-3.518 Y7.478
G1 F1800 X-3.064 Y7.024 E52.07722
G0 F5400 X-2.822 Y7.348
G1 F1800 X-2.531 Y7.056 E52.10464
G0 F5400 X-2.114 Y7.206
G1 F1800 X-1.979 Y7.07 E52.11739
G0 F5400 X-5.001 Y6.22
G0 X-6.471 Y5.343
G0 X-7.594 Y3.343
G0 X-10.207 Y-3.737
G0 X-9.482 Y-6.356
G1 F1800 X-8.947 Y-6.891 E52.16772
G0 F5400 X-7.031 Y-7.84
G0 X-5.977 Y-7.164
G0 X-5.564 Y-5.916
G0 X-5.153 Y-3.277
G0 X-6.238 Y-1.833
G0 X-7.862 Y1.276
G0 X-7.594 Y3.343
G0 X-6.671 Y5.154
G0 X-5.001 Y6.22
G0 X-2.494 Y6.348
G0 X4.379 Y5.803
;TYPE:SKIN
G1 F1800 X4.438 Y5.743 E52.17052
G0 F5400 X4.42 Y6.044
G1 F1800 X4.771 Y5.693 E52.18703
G0 F5400 X5.103 Y5.644
G1 F1800 X4.631 Y6.116 E52.20923
G0 F5400 X5.066 Y5.964
G1 F1800 X5.436 Y5.593 E52.22666
G0 F5400 X5.501 Y5.811
G1 F1800 X5.769 Y5.544 E52.23924
G0 F5400 X5.937 Y5.658
G1 F1800 X6.102 Y5.494 E52.24698
G0 F5400 X6.372 Y5.506
G1 F1800 X6.542 Y5.336 E52.25497
G0 F5400 X6.772 Y5.389
G1 F1800 X7.097 Y5.064 E52.27026
G0 F5400 X8.904 Y3.236
G0 X7.699 Y-0.058
G0 X6.563 Y-3.065
;TYPE:SKIN
G1 F1800 X6.448 Y-3.502 E52.30032
G1 X6.445 Y-3.905 E52.32713
G1 X6.683 Y-4.669 E52.38036
G1 X6.703 Y-5.307 E52.42282
G1 X6.512 Y-5.869 E52.4623
G1 X6.482 Y-5.936 E52.46719
G1 X7.205 Y-6.749 E52.53956
G1 X7.349 Y-5.716 E52.60894
G1 X7.562 Y-4.389 E52.69834
G1 X6.563 Y-3.065 E52.80867
G0 F5400 X6.625 Y-3.797
G1 F1800 X7.356 Y-4.528 E52.87744
G0 F5400 X7.278 Y-5.015
G1 F1800 X6.842 Y-4.579 E52.91846
G0 F5400 X6.878 Y-5.181
G1 F1800 X7.199 Y-5.502 E52.94865
G0 F5400 X6.777 Y-5.646
G1 F1800 X7.126 Y-5.995 E52.98149
G0 F5400 X7.045 Y-2.233
G0 X7.154 Y-1.432
G0 X8.051 Y-.579
G1 F1800 X8.774 Y-.45 E53.03034
G1 X9.006 Y-.385 E53.04637
G1 X9.787 Y-.228 E53.09936
G1 X10.509 Y-.129 E53.14783
G1 X10.364 Y0.17 E53.16994
G1 X10.149 Y0.769 E53.21227
G1 X9.835 Y1.547 E53.26808
G1 X9.457 Y2.351 E53.32718
G1 X8.859 Y1.118 E53.41834
G1 X8.578 Y0.608 E53.45707
G1 X8.051 Y-.579 E53.54346
G0 F5400 X8.498 Y-0.013
G1 F1800 X8.753 Y-.268 E53.56745
G0 F5400 X9.211 Y-.16
G1 F1800 X8.672 Y0.378 E53.61811
G0 F5400 X8.863 Y0.753
G1 F1800 X9.683 Y-0.066 E53.69521
G0 F5400 X10.175 Y0.006
G1 F1800 X9.06 Y1.122 E53.80014
G0 F5400 X9.244 Y1.503
G1 F1800 X9.938 Y0.809 E53.86543
G1 X10.008 Y0.739
G0 F5400 X9.519 Y1.794
G1 F1800 X9.429 Y1.883 E53.87385
G0 F5400 X8.904 Y3.236
G0 X7.682 Y4.314
G0 X6.172 Y5.14
G0 X-2.215 Y6.363
G0 X-5.001 Y6.22
G0 X-6.471 Y5.343
G0 X-7.594 Y3.343
G0 X-7.915 Y1.467
G0 X-6.916 Y-.597
G0 X-6.238 Y-1.833
G0 X-4.9 Y-3.61
G0 X-4.121 Y-12.594
G0 X0.296 Y-14.807
G0 X8.023 Y-12.294
G0 X9.197 Y-11.742
G0 X9.22 Y-11.765
;TYPE:SKIN
G1 F1800 X9.091 Y-11.92 E53.87799
G1 X8.598 Y-12.275 E53.89047
G1 X7.15 Y-12.807 E53.92215
G1 X3.925 Y-13.824 E53.99158
G0 F5400 X3.87 Y-13.65
;MESH:NONMESH
G0 F600 X3.87 Y-13.65 Z1.1
G0 F5400 X3.892 Y-13.715
G0 X7.016 Y-12.584
G0 X6.747 Y-11.761
G0 X6.114 Y-9.84
;TIME_ELAPSED:33.236446
;LAYER:2
;TYPE:WALL-INNER
;MESH:bunny.stl
G1 F3600 X4.345 Y-10.877 E54.12799
G1 X1.573 Y-11.789 E54.3221
G1 X-.514 Y-10.738 E54.47754
G1 X0.183 Y-8.366 E54.642
G1 X-.669 Y-4.056 E54.93425
G1 X-4.469 Y-2.458 E55.20847
G1 X-5.079 Y-2.27 E55.25093
G1 X-5.645 Y-2.069 E55.29088
G1 X-5.909 Y-1.757 E55.31807
G1 X-6.007 Y-1.546 E55.33355
G1 X-7.034 Y0.374 E55.47839
G1 X-7.147 Y0.599 E55.49514
G1 X-7.519 Y1.921 E55.58649
G1 X-7.445 Y2.271 E55.61029
G1 X-7.247 Y3.103 E55.66718
G1 X-6.954 Y3.875 E55.72211
G1 X-6.816 Y4.174 E55.74401
G1 X-6.327 Y4.872 E55.8007
G1 X-5.584 Y5.566 E55.86834
G1 X-5.231 Y5.722 E55.89401
G1 X-4.619 Y5.97 E55.93793
G1 X-3.861 Y6.109 E55.9892
G1 X-3.413 Y6.162 E56.01921
G1 X-1.707 Y6.081 E56.13282
G1 X-.406 Y5.971 E56.21967
G1 X1.963 Y5.586 E56.37932
G1 X5.98 Y4.902 E56.65038
G1 X6.688 Y4.7 E56.69936
G1 X7.803 Y4.048 E56.78528
G1 X8.428 Y3.544 E56.83869
G1 X8.669 Y2.949 E56.88139
G1 X8.571 Y2.2 E56.93164
G1 X8.392 Y1.794 E56.96115
G1 X6.654 Y-.964 E57.17801
G1 X6.397 Y-1.381 E57.21059
G1 X6.076 Y-1.938 E57.25335
G1 X5.951 Y-2.225 E57.27418
G1 X5.782 Y-2.744 E57.31049
G1 X5.589 Y-3.308 E57.35014
G1 X5.558 Y-3.78 E57.3816
G1 X5.451 Y-4.539 E57.43259
G1 X4.872 Y-5.964 E57.53491
G1 X4.74 Y-6.308 E57.55942
G1 X3.888 Y-8.253 E57.70067
G1 X4.089 Y-8.472 E57.72044
G1 X6.114 Y-9.84 E57.883
G0 F7200 X6.213 Y-9.843
G0 X11.392 Y-8.793
G0 X11.476 Y-8.846
G1 F3600 X12.428 Y-8.137 E57.96196
G1 X14.517 Y-5.928 E58.16421
G1 X15.377 Y-4.07 E58.3004
G1 X15.623 Y-3.442 E58.34527
G1 X15.599 Y-3.214 E58.36052
G1 X15.062 Y-2.73 E58.40861
G1 X12.613 Y-.313 E58.63749
G1 X11.566 Y0.036 E58.71091
G1 X11.119 Y0.539 E58.75567
G1 X10.669 Y2.622 E58.89743
G1 X10.023 Y4.022 E58.99999
G1 X9.572 Y4.964 E59.06947
G1 X9.267 Y5.363 E59.10287
G1 X8.836 Y5.832 E59.14524
G1 X8.699 Y5.961 E59.15776
G1 X8.543 Y5.996 E59.1684
G1 X7.656 Y6.161 E59.22841
G1 X5.751 Y6.471 E59.3568
G1 X3.169 Y6.884 E59.53074
G1 X2.579 Y6.973 E59.57043
G1 X2.051 Y7.042 E59.60585
G1 X-1.741 Y7.834 E59.86354
G1 X-4.051 Y8.266 E60.01987
G1 X-4.551 Y8.365 E60.05377
G1 X-5.065 Y8.457 E60.08851
G1 X-5.718 Y8.523 E60.13216
G1 X-5.849 Y8.512 E60.14091
G1 X-6.547 Y8.11 E60.19449
G1 X-6.959 Y7.894 E60.22544
G1 X-7.692 Y7.526 E60.27999
G1 X-7.906 Y7.352 E60.29834
G1 X-8.502 Y5.728 E60.41342
G1 X-8.842 Y5.162 E60.45734
G1 X-9.171 Y4.419 E60.51139
G1 X-9.526 Y3.569 E60.57267
G1 X-10.06 Y3.296 E60.61256
G1 X-10.399 Y3.181 E60.63637
G1 X-10.897 Y3.033 E60.67093
G1 X-11.902 Y2.604 E60.74362
G1 X-12.754 Y2.202 E60.80629
G1 X-13.607 Y1.844 E60.86782
G1 X-14.755 Y1.343 E60.95115
G1 X-15.397 Y1.084 E60.9972
G1 X-15.722 Y0.83 E61.02463
G1 X-15.93 Y0.524 E61.04925
G1 X-16.207 Y0.057 E61.08537
G1 X-16.582 Y-.911 E61.15442
G1 X-16.75 Y-1.888 E61.22036
G1 X-16.413 Y-2.795 E61.28473
G1 X-16.034 Y-3.349 E61.32938
G1 X-15.548 Y-3.965 E61.38157
G1 X-14.939 Y-4.723 E61.44625
G1 X-14.642 Y-5.037 E61.475
G1 X-13.956 Y-5.779 E61.54222
G1 X-13.807 Y-5.976 E61.55865
G1 X-13.514 Y-6.819 E61.61802
G1 X-13.608 Y-7.237 E61.64652
G1 X-14.03 Y-7.708 E61.68859
G1 X-14.378 Y-8.491 E61.74559
G1 X-14.449 Y-8.725 E61.76185
G1 X-14.822 Y-10.168 E61.861
G1 X-14.875 Y-10.59 E61.88929
G1 X-14.83 Y-11.72 E61.96452
G1 X-14.614 Y-12.235 E62.00167
G1 X-14.399 Y-12.515 E62.02515
G1 X-14.142 Y-13.122 E62.069
G1 X-13.831 Y-13.427 E62.09797
G1 X-13.454 Y-13.715 E62.12953
G1 X-12.973 Y-13.951 E62.16517
G1 X-12.096 Y-14.121 E62.2246
G1 X-11.788 Y-14.105 E62.24511
G1 X-11.198 Y-14.041 E62.28459
G1 X-10.241 Y-13.892 E62.34902
G1 X-8.308 Y-13.729 E62.47806
G1 X-7.241 Y-13.532 E62.55023
G1 X-6.849 Y-13.457 E62.57678
G1 X-6.471 Y-13.644 E62.60483
G1 X-6.141 Y-13.997 E62.63698
G1 X-5.287 Y-14.673 E62.70943
G1 X-4.658 Y-15.155 E62.76214
G1 X-4.082 Y-15.658 E62.81301
G1 X-3.385 Y-16.166 E62.87039
G1 X-3.286 Y-16.225 E62.87805
G1 X-2.658 Y-16.341 E62.92053
G1 X-.23 Y-15.844 E63.08539
G1 X4.554 Y-14.547 E63.41511
G1 X6.434 Y-13.887 E63.54766
G1 X8.406 Y-13.21 E63.68635
G1 X9.105 Y-12.994 E63.73502
G1 X9.761 Y-12.841 E63.77982
G1 X10.35 Y-12.29 E63.83348
G1 X10.518 Y-12.104 E63.85015
G1 X10.636 Y-11.778 E63.87321
G1 X11.159 Y-10.391 E63.97182
G1 X11.21 Y-10.186 E63.98587
G1 X11.476 Y-8.846 E64.07674
G0 F7200 X11.392 Y-8.793
G0 X5.642 Y-9.402
G0 X5.364 Y-9.816
;TYPE:WALL-OUTER
G1 F1800 X4.18 Y-10.51 E64.16804
G1 X1.605 Y-11.357 E64.34836
G1 X-0.036 Y-10.531 E64.47056
G1 X0.594 Y-8.386 E64.61928
G1 X-.318 Y-3.769 E64.93233
G1 X-4.328 Y-2.083 E65.2217
G1 X-4.953 Y-1.89 E65.26521
G1 X-5.409 Y-1.728 E65.2974
G1 X-5.569 Y-1.539 E65.31387
G1 X-5.654 Y-1.357 E65.32724
G1 X-6.679 Y0.558 E65.47172
G1 X-6.772 Y0.744 E65.48556
G1 X-7.107 Y1.935 E65.56786
G1 X-7.055 Y2.184 E65.58478
G1 X-6.864 Y2.985 E65.63955
G1 X-6.585 Y3.72 E65.69185
G1 X-6.468 Y3.974 E65.71045
G1 X-6.023 Y4.608 E65.76198
G1 X-5.36 Y5.228 E65.82236
G1 X-5.075 Y5.354 E65.84309
G1 X-4.507 Y5.584 E65.88385
G1 X-3.801 Y5.713 E65.93159
G1 X-3.399 Y5.761 E65.95852
G1 X-1.733 Y5.682 E66.06947
G1 X-.455 Y5.574 E66.15479
G1 X1.598 Y5.239 E66.29316
G1 X1.898 Y5.191 E66.31337
G1 X5.891 Y4.511 E66.58281
G1 X6.53 Y4.329 E66.62701
G1 X7.575 Y3.718 E66.70753
G1 X8.096 Y3.298 E66.75205
G1 X8.259 Y2.896 E66.7809
G1 X8.182 Y2.309 E66.82028
G1 X8.038 Y1.982 E66.84405
G1 X6.316 Y-.751 E67.05893
G1 X6.05 Y-1.181 E67.09256
G1 X5.723 Y-1.749 E67.13616
G1 X5.576 Y-2.085 E67.16056
G1 X5.403 Y-2.617 E67.19777
G1 X5.193 Y-3.231 E67.24094
G1 X5.16 Y-3.739 E67.2748
G1 X5.062 Y-4.434 E67.32149
G1 X4.501 Y-5.813 E67.42052
G1 X4.37 Y-6.156 E67.44494
G1 X3.418 Y-8.331 E67.60288
G1 X3.825 Y-8.776 E67.64299
G1 X5.364 Y-9.816 E67.76655
G0 F7200 X5.192 Y-9.917
G0 X5.445 Y-10.347
G0 X4.361 Y-10.913
G0 X1.571 Y-11.828
G0 X-.55 Y-10.753
G0 X-9.612 Y3.414
G0 X-9.839 Y3.858
G1 F1800 X-10.216 Y3.665 E67.79473
G1 X-10.52 Y3.562 E67.81608
G1 X-11.031 Y3.411 E67.85152
G1 X-12.073 Y2.966 E67.92689
G1 X-12.917 Y2.567 E67.98899
G1 X-13.762 Y2.213 E68.04994
G1 X-14.91 Y1.712 E68.13326
G1 X-15.571 Y1.445 E68.18068
G1 X-15.613 Y1.422 E68.18386
G1 X-16.019 Y1.105 E68.21813
G1 X-16.265 Y0.743 E68.24724
G1 X-16.568 Y0.233 E68.2867
G1 X-16.969 Y-.804 E68.36066
G1 X-17.162 Y-1.926 E68.43639
G1 X-16.771 Y-2.98 E68.51118
G1 X-16.357 Y-3.585 E68.55994
G1 X-15.86 Y-4.215 E68.61332
G1 X-15.242 Y-4.985 E68.679
G1 X-14.934 Y-5.31 E68.70878
G1 X-14.263 Y-6.036 E68.77454
G1 X-14.164 Y-6.167 E68.78547
G1 X-13.929 Y-6.843 E68.83307
G1 X-13.975 Y-7.048 E68.84705
G1 X-14.369 Y-7.487 E68.88629
G1 X-14.755 Y-8.354 E68.94942
G1 X-14.832 Y-8.609 E68.96714
G1 X-15.216 Y-10.094 E69.06917
G1 X-15.276 Y-10.574 E69.10135
G1 X-15.228 Y-11.793 E69.1825
G1 X-15.212 Y-11.845 E69.18612
G1 X-14.963 Y-12.437 E69.22884
G1 X-14.747 Y-12.718 E69.25242
G1 X-14.494 Y-13.316 E69.29561
G1 X-14.405 Y-13.446 E69.30609
G1 X-14.085 Y-13.736 E69.33482
G1 X-13.667 Y-14.056 E69.36983
G1 X-13.132 Y-14.319 E69.40949
G1 X-13.117 Y-14.331 E69.41077
G1 X-12.127 Y-14.523 E69.47785
G1 X-11.745 Y-14.503 E69.5033
G1 X-11.155 Y-14.439 E69.54277
G1 X-10.193 Y-14.289 E69.60754
G1 X-8.263 Y-14.127 E69.73637
G1 X-7.165 Y-13.925 E69.81064
G1 X-6.906 Y-13.875 E69.82819
G1 X-6.714 Y-13.97 E69.84244
G1 X-6.415 Y-14.291 E69.87162
G1 X-5.53 Y-14.991 E69.94668
G1 X-4.911 Y-15.465 E69.99854
G1 X-4.329 Y-15.973 E70.04993
G1 X-3.61 Y-16.497 E70.10911
G1 X-3.429 Y-16.605 E70.12313
G1 X-2.666 Y-16.746 E70.17474
G1 X-2.637 Y-16.745 E70.17667
G1 X-.138 Y-16.234 E70.34635
G1 X4.665 Y-14.931 E70.67739
G1 X6.565 Y-14.265 E70.81132
G1 X8.53 Y-13.59 E70.94953
G1 X9.209 Y-13.38 E70.99681
G1 X9.955 Y-13.207 E71.04775
G1 X10.638 Y-12.568 E71.10997
G1 X10.867 Y-12.314 E71.13272
G1 X11.011 Y-11.917 E71.16081
G1 X11.541 Y-10.51 E71.26082
G1 X11.602 Y-10.264 E71.27768
G1 X11.838 Y-9.075 E71.35832
G1 X12.696 Y-8.437 E71.42944
G1 X14.852 Y-6.156 E71.63823
G1 X15.74 Y-4.238 E71.77882
G1 X16.032 Y-3.495 E71.83193
G1 X15.98 Y-3.019 E71.86378
G1 X15.337 Y-2.439 E71.92138
G1 X12.829 Y0.036 E72.15577
G1 X11.794 Y0.382 E72.22837
G1 X11.488 Y0.726 E72.25899
G1 X11.051 Y2.748 E72.3966
G1 X10.384 Y4.195 E72.50259
G1 X9.915 Y5.174 E72.5748
G1 X9.571 Y5.624 E72.61248
G1 X9.129 Y6.105 E72.65593
G1 X8.893 Y6.327 E72.67749
G1 X8.626 Y6.387 E72.69569
G1 X7.72 Y6.556 E72.757
G1 X5.815 Y6.866 E72.88539
G1 X3.232 Y7.279 E73.05939
G1 X2.631 Y7.37 E73.09982
G1 X2.118 Y7.437 E73.13424
G1 X-1.659 Y8.226 E73.39091
G1 X-3.975 Y8.659 E73.54764
G1 X-4.481 Y8.759 E73.58195
G1 X-5.009 Y8.853 E73.61763
G1 X-5.712 Y8.925 E73.66463
G1 X-5.973 Y8.902 E73.68206
G1 X-6.74 Y8.461 E73.74092
G1 X-7.142 Y8.25 E73.77112
G1 X-7.912 Y7.863 E73.82844
G1 X-8.243 Y7.593 E73.85686
G1 X-8.447 Y7.041 E73.896
G1 X-8.864 Y5.901 E73.97675
G1 X-9.198 Y5.346 E74.01984
G1 X-9.537 Y4.581 E74.0755
G1 X-9.839 Y3.858 E74.12762
G0 F7200 X-10.017 Y3.767
G0 X-9.908 Y2.936
;TYPE:SKIN
G1 F1800 X-10.28 Y2.809 E74.15377
G1 X-10.76 Y2.666 E74.18709
G1 X-11.748 Y2.245 E74.25853
G1 X-12.596 Y1.845 E74.3209
G1 X-13.451 Y1.487 E74.38255
G1 X-14.604 Y0.984 E74.46623
G1 X-15.197 Y0.745 E74.50876
G1 X-15.436 Y0.558 E74.52895
G1 X-15.856 Y-.115 E74.58172
G1 X-16.204 Y-1.014 E74.64585
G1 X-16.348 Y-1.851 E74.70234
G1 X-16.065 Y-2.613 E74.75641
G1 X-15.728 Y-3.107 E74.79619
G1 X-15.244 Y-3.721 E74.8482
G1 X-14.645 Y-4.467 E74.91184
G1 X-14.357 Y-4.77 E74.93965
G1 X-13.656 Y-5.528 E75.00833
G1 X-13.458 Y-5.79 E75.03017
G1 X-13.109 Y-6.796 E75.10101
G1 X-13.249 Y-7.422 E75.14368
G1 X-13.697 Y-7.92 E75.18823
G1 X-14.014 Y-8.633 E75.24014
G1 X-14.069 Y-8.813 E75.25266
G1 X-14.438 Y-10.243 E75.3509
G1 X-14.483 Y-10.605 E75.37517
G1 X-14.442 Y-11.638 E75.44394
G1 X-14.277 Y-12.032 E75.47235
G1 X-14.059 Y-12.317 E75.49622
G1 X-13.814 Y-12.897 E75.5381
G1 X-13.251 Y-13.38 E75.58745
G1 X-12.845 Y-13.579 E75.61752
G1 X-12.07 Y-13.729 E75.67003
G1 X-11.814 Y-13.715 E75.68709
G1 X-11.258 Y-13.655 E75.72429
G1 X-10.288 Y-13.504 E75.78959
G1 X-8.369 Y-13.343 E75.91769
G1 X-7.268 Y-13.14 E75.99216
G1 X-6.794 Y-13.049 E76.02427
G1 X-6.235 Y-13.326 E76.06577
G1 X-5.874 Y-13.711 E76.10088
G1 X-5.049 Y-14.363 E76.17083
G1 X-4.411 Y-14.853 E76.22434
G1 X-3.844 Y-15.348 E76.27441
G1 X-3.163 Y-15.844 E76.33045
G1 X-2.66 Y-15.943 E76.36455
G1 X-.316 Y-15.464 E76.5237
G1 X4.434 Y-14.176 E76.85108
G1 X6.306 Y-13.519 E76.98305
G1 X8.285 Y-12.839 E77.12225
G1 X9.003 Y-12.618 E77.17222
G1 X9.57 Y-12.485 E77.21096
G1 X10.083 Y-12.005 E77.25769
G1 X10.177 Y-11.901 E77.26702
G1 X10.27 Y-11.643 E77.28526
G1 X10.788 Y-10.269 E77.38294
G1 X10.828 Y-10.11 E77.39385
G1 X11.123 Y-8.623 E77.49469
G1 X12.165 Y-7.849 E77.58104
G1 X14.19 Y-5.708 E77.77707
G1 X15.018 Y-3.917 E77.90832
G1 X15.221 Y-3.399 E77.94533
G1 X14.795 Y-3.014 E77.98353
G1 X12.406 Y-.655 E78.20686
G1 X11.344 Y-.301 E78.28133
G1 X10.76 Y0.356 E78.3398
G1 X10.299 Y2.492 E78.48516
G1 X9.632 Y3.938 E78.59109
G1 X9.241 Y4.755 E78.65134
G1 X8.961 Y5.12 E78.68194
G1 X8.569 Y5.547 E78.7205
G1 X8.465 Y5.613 E78.72869
G1 X7.556 Y5.782 E78.79019
G1 X5.689 Y6.086 E78.91602
G1 X3.186 Y6.487 E79.08465
G1 X2.472 Y6.595 E79.13268
G1 X1.986 Y6.658 E79.16528
G1 X-1.813 Y7.45 E79.42343
G1 X-4.125 Y7.883 E79.57989
G1 X-4.62 Y7.981 E79.61346
G1 X-5.122 Y8.071 E79.64739
G1 X-5.729 Y8.131 E79.68796
G1 X-6.359 Y7.769 E79.73629
G1 X-6.781 Y7.547 E79.76801
G1 X-7.482 Y7.195 E79.82019
G1 X-7.577 Y7.117 E79.82837
G1 X-8.149 Y5.559 E79.93877
G1 X-8.493 Y4.986 E79.98323
G1 X-8.815 Y4.261 E80.036
G1 X-9.222 Y3.287 E80.10622
G1 X-9.908 Y2.936 E80.15748
G0 F7200 X-7.621 Y3.218
G1 F1800 X-7.314 Y4.026 E80.21498
G1 X-7.155 Y4.369 E80.24012
G1 X-6.623 Y5.129 E80.30184
G1 X-5.802 Y5.896 E80.37657
G1 X-5.383 Y6.081 E80.40704
G1 X-4.728 Y6.346 E80.45404
G1 X-3.919 Y6.495 E80.50876
G1 X-3.427 Y6.554 E80.54173
G1 X-1.681 Y6.471 E80.658
G1 X-.358 Y6.359 E80.74632
G1 X2.027 Y5.97 E80.90707
G1 X6.066 Y5.283 E81.1796
G1 X6.842 Y5.061 E81.23329
G1 X8.025 Y4.37 E81.32443
G1 X8.752 Y3.784 E81.38654
G1 X9.069 Y3 E81.4428
G1 X8.951 Y2.094 E81.50357
G1 X8.737 Y1.61 E81.53878
G1 X6.984 Y-1.172 E81.75751
G1 X6.729 Y-1.586 E81.78985
G1 X6.419 Y-2.124 E81.83116
G1 X6.32 Y-2.354 E81.84781
G1 X6.152 Y-2.867 E81.88372
G1 X5.975 Y-3.384 E81.92007
G1 X5.946 Y-3.82 E81.94914
G1 X5.831 Y-4.641 E82.00429
G1 X5.254 Y-6.059 E82.10612
G1 X5.101 Y-6.456 E82.13442
G1 X4.347 Y-8.176 E82.25935
G1 X6.845 Y-9.863 E82.45986
G1 X4.507 Y-11.234 E82.64015
G1 X1.542 Y-12.21 E82.8478
G1 X-.98 Y-10.94 E83.03563
G1 X-.218 Y-8.347 E83.21541
G1 X-1.01 Y-4.335 E83.48744
G1 X-4.598 Y-2.826 E83.74637
G1 X-5.202 Y-2.64 E83.78841
G1 X-5.875 Y-2.401 E83.83591
G1 X-6.241 Y-1.969 E83.87358
G1 X-6.351 Y-1.73 E83.89108
G1 X-7.381 Y0.195 E84.03631
G1 X-7.512 Y0.457 E84.05579
G1 X-7.921 Y1.908 E84.15608
G1 X-7.825 Y2.357 E84.18662
G1 X-7.621 Y3.218 E84.24548
G0 F7200 X-14.394 Y0.878
G1 F1800 X-15.834 Y-.56 E84.38085
G1 X-15.904 Y-.63
G0 F7200 X-16.083 Y-1.375
G1 F1800 X-13.391 Y1.316 E84.63405
G1 X-13.321 Y1.386
G0 F7200 X-12.408 Y1.733
G1 F1800 X-16.112 Y-1.969 E84.98241
G0 F7200 X-15.958 Y-2.382
G1 F1800 X-11.363 Y2.212 E85.41463
G1 X-11.293 Y2.282
G0 F7200 X-10.437 Y2.573
G1 F1800 X-15.756 Y-2.745 E85.91496
G0 F7200 X-15.522 Y-3.077
G1 F1800 X-9.506 Y2.938 E86.48086
G1 X-9.436 Y3.008
G0 F7200 X-8.93 Y3.514
G1 F1800 X-4.643 Y7.801 E86.88416
G0 F7200 X-4.171 Y7.708
G1 F1800 X-5.775 Y6.103 E87.0351
G1 X-5.845 Y6.033
G0 F7200 X-4.805 Y6.508
G1 F1800 X-3.695 Y7.618 E87.13952
G0 F7200 X-3.218 Y7.529
G1 F1800 X-4.104 Y6.643 E87.22287
G0 F7200 X-3.45 Y6.731
G1 F1800 X-2.742 Y7.44 E87.28952
G0 F7200 X-2.265 Y7.351
G1 F1800 X-2.907 Y6.709 E87.34992
G0 F7200 X-2.367 Y6.683
G1 F1800 X-1.79 Y7.26 E87.4042
G0 F7200 X-1.322 Y7.162
G1 F1800 X-1.827 Y6.658 E87.45166
G0 F7200 X-1.3 Y6.619
G1 F1800 X-.854 Y7.065 E87.49361
G0 F7200 X-.386 Y6.967
G1 F1800 X-.778 Y6.575 E87.53049
G0 F7200 X-.262 Y6.525
G1 F1800 X0.082 Y6.87 E87.5629
G0 F7200 X0.223 Y6.445
G1 F1800 X0.55 Y6.772 E87.59366
G0 F7200 X0.709 Y6.366
G1 F1800 X1.018 Y6.675 E87.62273
G0 F7200 X1.196 Y6.287
G1 F1800 X1.486 Y6.577 E87.65001
G0 F7200 X1.682 Y6.208
G1 F1800 X1.954 Y6.479 E87.67555
G0 F7200 X2.168 Y6.128
G1 F1800 X2.455 Y6.415 E87.70255
G0 F7200 X2.651 Y6.045
G1 F1800 X2.945 Y6.339 E87.73021
G0 F7200 X3.135 Y5.963
G1 F1800 X3.436 Y6.264 E87.75853
G0 F7200 X3.618 Y5.881
G1 F1800 X3.923 Y6.186 E87.78722
G0 F7200 X4.102 Y5.799
G1 F1800 X4.411 Y6.108 E87.81629
G0 F7200 X4.585 Y5.716
G1 F1800 X4.898 Y6.03 E87.84578
G0 F7200 X5.069 Y5.634
G1 F1800 X5.386 Y5.951 E87.8756
G0 F7200 X5.552 Y5.552
G1 F1800 X5.873 Y5.873 E87.9058
G0 F7200 X6.035 Y5.47
G1 F1800 X6.359 Y5.794 E87.93628
G0 F7200 X6.482 Y5.35
G1 F1800 X6.846 Y5.714 E87.97052
G0 F7200 X7.333 Y5.636
G1 F1800 X6.92 Y5.223 E88.00937
G0 F7200 X7.277 Y5.014
G1 F1800 X7.813 Y5.55 E88.0598
G0 F7200 X8.29 Y5.461
G1 F1800 X7.635 Y4.806 E88.12142
G0 F7200 X7.992 Y4.598
G1 F1800 X8.619 Y5.225 E88.1804
G0 F7200 X8.883 Y4.923
G1 F1800 X8.321 Y4.361 E88.23327
G0 F7200 X8.634 Y4.108
G1 F1800 X9.118 Y4.593 E88.27885
G0 F7200 X9.301 Y4.21
G1 F1800 X8.924 Y3.833 E88.31431
G0 F7200 X9.087 Y3.43
G1 F1800 X9.484 Y3.827 E88.35166
G0 F7200 X9.662 Y3.44
G1 F1800 X9.25 Y3.027 E88.39047
G0 F7200 X9.841 Y3.053
G1 F1800 X9.169 Y2.38 E88.45373
G1 X9.099 Y2.31
G0 F7200 X8.908 Y1.554
G1 F1800 X10.019 Y2.665 E88.55825
G0 F7200 X10.168 Y2.248
G1 F1800 X7.958 Y0.038 E88.76615
G1 X7.888 Y-0.032
G0 F7200 X7.003 Y-1.481
G1 F1800 X10.268 Y1.783 E89.07326
G0 F7200 X10.368 Y1.317
G1 F1800 X6.416 Y-2.633 E89.44494
G1 X6.346 Y-2.703
G0 F7200 X6.148 Y-3.468
G1 F1800 X10.468 Y0.852 E89.85134
G0 F7200 X10.569 Y0.386
G1 F1800 X6.088 Y-4.094 E90.27284
G0 F7200 X5.967 Y-4.78
G1 F1800 X10.793 Y0.045 E90.72679
G0 F7200 X11.059 Y-.253
G1 F1800 X5.578 Y-5.735 E91.24246
G1 X5.508 Y-5.805
G0 F7200 X5.198 Y-6.68
G1 F1800 X11.376 Y-.502 E91.82365
G0 F7200 X11.801 Y-.643
G1 F1800 X4.757 Y-7.687 E92.4863
G0 F7200 X4.768 Y-8.242
G1 F1800 X12.225 Y-.784 E93.18786
G0 F7200 X12.537 Y-1.038
G1 F1800 X5.106 Y-8.469 E93.88692
G0 F7200 X5.444 Y-8.698
G1 F1800 X12.821 Y-1.32 E94.58095
G0 F7200 X13.106 Y-1.6
G1 F1800 X5.782 Y-8.925 E95.26999
G0 F7200 X6.119 Y-9.154
G1 F1800 X13.391 Y-1.882 E95.9541
G0 F7200 X13.676 Y-2.163
G1 F1800 X6.457 Y-9.381 E96.63317
G0 F7200 X6.794 Y-9.61
G1 F1800 X13.96 Y-2.444 E97.30731
G0 F7200 X14.245 Y-2.725
G1 F1800 X7.132 Y-9.837 E97.97641
G0 F7200 X6.974 Y-9.995
G1 F1800 X2.44 Y-14.529 E98.40294
G1 X2.37 Y-14.599
G0 F7200 X1.665 Y-14.739
G1 F1800 X5.608 Y-10.796 E98.77387
G1 X5.678 Y-10.726
G0 F7200 X4.372 Y-11.467
G1 F1800 X0.888 Y-14.95 E99.10158
G1 X0.818 Y-15.02
G0 F7200 X0.113 Y-15.16
G1 F1800 X3.528 Y-11.745 E99.42284
G1 X3.598 Y-11.675
G0 F7200 X2.685 Y-12.022
G1 F1800 X-.637 Y-15.344 E99.73535
G0 F7200 X-1.347 Y-15.489
G1 F1800 X1.842 Y-12.3 E100.03535
G0 F7200 X1.291 Y-12.284
G1 F1800 X-2.058 Y-15.634 E100.35045
G0 F7200 X-2.732 Y-15.743
G1 F1800 X0.915 Y-12.095 E100.69359
G0 F7200 X0.538 Y-11.906
G1 F1800 X-3.169 Y-15.615 E101.04241
G0 F7200 X-3.497 Y-15.376
G1 F1800 X0.162 Y-11.716 E101.38668
G0 F7200 X-.213 Y-11.527
G1 F1800 X-3.816 Y-15.13 E101.72563
G0 F7200 X-4.119 Y-14.867
G1 F1800 X-.589 Y-11.337 E102.05771
G0 F7200 X-.965 Y-11.148
G1 F1800 X-4.428 Y-14.61 E102.38344
G0 F7200 X-4.748 Y-14.364
G1 F1800 X-1.103 Y-10.719 E102.72634
G1 X-1.033 Y-10.649
G0 F7200 X-.867 Y-9.918
G1 F1800 X-5.067 Y-14.118 E103.12145
G0 F7200 X-5.383 Y-13.868
G1 F1800 X-.632 Y-9.117 E103.56839
G1 X-.562 Y-9.047
G0 F7200 X-.405 Y-8.324
G1 F1800 X-5.699 Y-13.619 E104.06647
G0 F7200 X-5.981 Y-13.335
G1 F1800 X-.498 Y-7.852 E104.58227
G0 F7200 X-.591 Y-7.379
G1 F1800 X-6.302 Y-13.09 E105.11953
G0 F7200 X-6.68 Y-12.903
G1 F1800 X-.684 Y-6.907 E105.6836
G0 F7200 X-.777 Y-6.434
G1 F1800 X-7.306 Y-12.963 E106.2978
G0 F7200 X-7.999 Y-13.09
G1 F1800 X-.871 Y-5.962 E106.96836
G0 F7200 X-.963 Y-5.489
G1 F1800 X-8.66 Y-13.186 E107.69245
G0 F7200 X-9.277 Y-13.237
G1 F1800 X-1.057 Y-5.016 E108.46578
G0 F7200 X-1.15 Y-4.544
G1 F1800 X-9.894 Y-13.288 E109.28837
G0 F7200 X-10.529 Y-13.357
G1 F1800 X-1.496 Y-4.325 E110.13809
G0 F7200 X-1.895 Y-4.157
G1 F1800 X-11.199 Y-13.461 E111.01335
G0 F7200 X-11.837 Y-13.534
G1 F1800 X-2.293 Y-3.99 E111.91119
G0 F7200 X-2.691 Y-3.822
G1 F1800 X-12.358 Y-13.489 E112.8206
G0 F7200 X-12.822 Y-13.388
G1 F1800 X-3.089 Y-3.655 E113.73622
G0 F7200 X-3.488 Y-3.488
G1 F1800 X-13.192 Y-13.192 E114.64912
G0 F7200 X-13.497 Y-12.931
G1 F1800 X-3.886 Y-3.32 E115.55326
G0 F7200 X-4.284 Y-3.152
G1 F1800 X-13.74 Y-12.609 E116.44287
G0 F7200 X-13.91 Y-12.213
G1 F1800 X-4.684 Y-2.987 E117.3108
G0 F7200 X-5.118 Y-2.855
G1 F1800 X-14.144 Y-11.881 E118.15991
G0 F7200 X-14.268 Y-11.44
G1 F1800 X-5.54 Y-2.711 E118.98103
G0 F7200 X-5.957 Y-2.563
G1 F1800 X-14.29 Y-10.896 E119.76495
G0 F7200 X-14.264 Y-10.304
G1 F1800 X-6.224 Y-2.264 E120.5213
G0 F7200 X-6.455 Y-1.93
G1 F1800 X-14.071 Y-9.545 E121.23772
G0 F7200 X-13.871 Y-8.78
G1 F1800 X-6.646 Y-1.555 E121.91741
G0 F7200 X-6.844 Y-1.187
G1 F1800 X-13.059 Y-7.402 E122.50208
G0 F7200 X-12.943 Y-6.721
G1 F1800 X-7.041 Y-.818 E123.05735
G0 F7200 X-7.238 Y-.45
G1 F1800 X-13.089 Y-6.301 E123.60777
G0 F7200 X-13.234 Y-5.881
G1 F1800 X-7.435 Y-0.082 E124.15331
G0 F7200 X-7.628 Y0.291
G1 F1800 X-13.437 Y-5.517 E124.69973
G0 F7200 X-13.699 Y-5.214
G1 F1800 X-7.77 Y0.714 E125.25745
G0 F7200 X-7.894 Y1.156
G1 F1800 X-13.971 Y-4.92 E125.82909
G0 F7200 X-14.243 Y-4.627
G1 F1800 X-8.019 Y1.597 E126.41461
G0 F7200 X-8.056 Y2.125
G1 F1800 X-14.518 Y-4.335 E127.02242
G0 F7200 X-14.77 Y-4.022
G1 F1800 X-7.889 Y2.858 E127.66969
G1 X-7.819 Y2.928
G0 F7200 X-7.638 Y3.674
G1 F1800 X-15.022 Y-3.708 E128.36424
G0 F7200 X-15.272 Y-3.393
G1 F1800 X-7.058 Y4.821 E129.13696
G1 X-6.988 Y4.891
G0 F7200 X-7.921 Y5.654
G1 F1800 X-5.635 Y7.94 E129.35202
G0 F7200 X-5.122 Y7.887
G1 F1800 X-8.51 Y4.5 E129.67069
G1 X-8.58 Y4.43
G0 F7200 X-7.593 Y6.548
G1 F1800 X-6.812 Y7.329 E129.74416
G1 X-6.742 Y7.399
G0 F7200 X5.988 Y4.941
G0 X7.825 Y4.08
G0 X8.46 Y3.567
G0 X14.529 Y-3.006
G1 F1800 X3.217 Y-14.318 E130.80833
G1 X3.147 Y-14.388
G0 F7200 X3.993 Y-14.108
G1 F1800 X14.82 Y-3.28 E131.82691
G0 F7200 X14.871 Y-3.796
G1 F1800 X4.817 Y-13.85 E132.77273
G1 X4.747 Y-13.92
G0 F7200 X5.689 Y-13.543
G1 F1800 X14.391 Y-4.842 E133.59131
G1 X14.461 Y-4.772
G0 F7200 X10.88 Y-8.918
G1 F1800 X6.557 Y-13.241 E133.998
G1 X6.487 Y-13.311
G0 F7200 X7.418 Y-12.945
G1 F1800 X10.74 Y-9.624 E134.31046
G0 F7200 X10.555 Y-10.374
G1 F1800 X8.277 Y-12.652 E134.52476
G1 X8.207 Y-12.722
G0 F7200 X9.082 Y-12.413
G1 F1800 X10.213 Y-11.282 E134.63116
G1 X10.283 Y-11.212
;MESH:NONMESH
G0 F600 X10.283 Y-11.212 Z1.5
G0 F7200 X4.24 Y-6.702
G0 X2.847 Y-6.093
;TIME_ELAPSED:74.961174
;LAYER:3
;TYPE:WALL-INNER
;MESH:bunny.stl
G1 F3600 X1.674 Y-4.605 E134.7572
G1 X1.444 Y-3.434 E134.83658
G1 X1.263 Y-3.358 E134.84964
G1 X-.462 Y-2.823 E134.96978
G1 X-2.672 Y-2.071 E135.12507
G1 X-3.342 Y-1.747 E135.17457
G1 X-5.115 Y-1.053 E135.30123
G1 X-6.078 Y-.363 E135.38003
G1 X-6.297 Y-0.035 E135.40627
G1 X-6.721 Y1.58 E135.51734
G1 X-6.916 Y2.23 E135.56248
G1 X-6.777 Y2.684 E135.59407
G1 X-6.595 Y3.024 E135.61972
G1 X-5.972 Y4.287 E135.7134
G1 X-5.525 Y4.837 E135.76054
G1 X-4.874 Y5.48 E135.82141
G1 X-4.371 Y5.683 E135.85749
G1 X-3.826 Y5.783 E135.89435
G1 X-2.284 Y5.701 E135.99707
G1 X-.287 Y5.566 E136.13022
G1 X1.292 Y5.444 E136.23556
G1 X2.361 Y5.275 E136.30756
G1 X4.1 Y4.979 E136.4249
G1 X5.571 Y4.592 E136.52608
G1 X5.919 Y4.487 E136.55026
G1 X6.944 Y4.097 E136.62321
G1 X7.613 Y3.564 E136.68011
G1 X7.687 Y3.359 E136.69461
G1 X7.862 Y3.1 E136.7154
G1 X8.013 Y2.582 E136.75129
G1 X7.891 Y2.128 E136.78257
G1 X7.701 Y1.603 E136.81971
G1 X7.189 Y0.752 E136.88577
G1 X6.424 Y-.479 E136.98218
G1 X6.263 Y-.839 E137.00841
G1 X5.73 Y-2.091 E137.09893
G1 X5.064 Y-3.535 E137.20471
G1 X4.932 Y-3.842 E137.22694
G1 X3.376 Y-5.681 E137.38718
G1 X2.847 Y-6.093 E137.43179
G0 F7200 X2.835 Y-6.192
G0 X12.123 Y-9.107
G0 X12.207 Y-9.16
G1 F3600 X14.101 Y-7.746 E137.58901
G1 X15.331 Y-6.445 E137.70811
G1 X15.83 Y-5.367 E137.78713
G1 X16.501 Y-3.663 E137.90895
G1 X16.389 Y-2.629 E137.97814
G1 X14.912 Y-1.298 E138.11039
G1 X14.153 Y-.549 E138.18133
G1 X11.962 Y0.183 E138.33499
G1 X11.253 Y0.981 E138.406
G1 X10.423 Y4.807 E138.66643
G1 X9.025 Y6.06 E138.79131
G1 X8.321 Y6.218 E138.8393
G1 X6.534 Y6.515 E138.95981
G1 X4.834 Y6.766 E139.07412
G1 X2.687 Y7.024 E139.21796
G1 X1.691 Y7.173 E139.28495
G1 X-1.29 Y7.794 E139.48751
G1 X-1.963 Y7.921 E139.53307
G1 X-3.586 Y8.242 E139.64312
G1 X-4.21 Y8.356 E139.68532
G1 X-4.877 Y8.522 E139.73104
G1 X-5.492 Y8.566 E139.77205
G1 X-5.881 Y8.527 E139.79806
G1 X-6.239 Y8.335 E139.82508
G1 X-7.494 Y7.48 E139.9261
G1 X-8.025 Y6.862 E139.9803
G1 X-8.442 Y5.742 E140.0598
G1 X-8.71 Y4.988 E140.11303
G1 X-8.784 Y4.683 E140.1339
G1 X-9.167 Y3.762 E140.20026
G1 X-9.319 Y3.455 E140.22304
G1 X-9.571 Y3.315 E140.24222
G1 X-10.118 Y3.035 E140.2831
G1 X-10.735 Y2.827 E140.32641
G1 X-11.738 Y2.531 E140.39597
G1 X-12.291 Y2.295 E140.43597
G1 X-13.409 Y1.922 E140.51437
G1 X-14.261 Y1.566 E140.57579
G1 X-15.013 Y1.237 E140.63039
G1 X-15.406 Y1.056 E140.65918
G1 X-15.91 Y0.371 E140.71575
G1 X-16.177 Y-0.055 E140.74919
G1 X-16.246 Y-.18 E140.75869
G1 X-16.455 Y-.748 E140.79895
G1 X-16.576 Y-1.407 E140.84352
G1 X-16.665 Y-2.048 E140.88657
G1 X-16.432 Y-2.705 E140.93294
G1 X-15.989 Y-3.225 E140.97838
G1 X-15.183 Y-4.254 E141.06533
G1 X-14.423 Y-5.089 E141.14043
G1 X-13.863 Y-5.681 E141.19464
G1 X-13.329 Y-6.263 E141.24718
G1 X-13.178 Y-6.686 E141.27706
G1 X-13.295 Y-7.217 E141.31323
G1 X-13.985 Y-7.989 E141.3821
G1 X-14.226 Y-8.226 E141.40459
G1 X-14.5 Y-8.773 E141.44529
G1 X-14.785 Y-9.587 E141.50266
G1 X-14.845 Y-10.337 E141.55271
G1 X-14.876 Y-10.793 E141.58311
G1 X-14.926 Y-11.422 E141.62508
G1 X-14.834 Y-12.065 E141.66829
G1 X-14.777 Y-12.253 E141.68136
G1 X-14.621 Y-12.516 E141.7017
G1 X-13.827 Y-13.761 E141.79993
G1 X-12.792 Y-14.184 E141.8743
G1 X-12.459 Y-14.249 E141.89687
G1 X-11.955 Y-14.367 E141.9313
G1 X-11.376 Y-14.279 E141.97026
G1 X-10.799 Y-14.168 E142.00935
G1 X-9.599 Y-13.847 E142.09198
G1 X-7.861 Y-13.53 E142.2095
G1 X-6.957 Y-13.354 E142.27076
G1 X-6.319 Y-13.672 E142.31818
G1 X-5.963 Y-14.102 E142.35532
G1 X-5.214 Y-14.85 E142.42573
G1 X-5.027 Y-14.998 E142.44159
G1 X-3.413 Y-16.597 E142.59272
G1 X-2.32 Y-16.515 E142.66564
G1 X-1.778 Y-16.383 E142.70274
G1 X-1.039 Y-16.248 E142.75272
G1 X-.195 Y-15.942 E142.81243
G1 X0.492 Y-15.742 E142.86003
G1 X2.706 Y-15.221 E143.01133
G1 X3.738 Y-14.965 E143.08206
G1 X7.146 Y-14.047 E143.31684
G1 X8.287 Y-13.73 E143.39562
G1 X8.576 Y-13.647 E143.41562
G1 X10.463 Y-12.859 E143.55165
G1 X10.971 Y-12.354 E143.59929
G1 X11.265 Y-11.755 E143.64368
G1 X11.59 Y-11.195 E143.68675
G1 X11.907 Y-10.473 E143.7392
G1 X12.066 Y-9.86 E143.78133
G1 X12.207 Y-9.16 E143.82883
G0 F7200 X12.569 Y-9.389
;TYPE:WALL-OUTER
G1 F1800 X14.372 Y-8.042 E143.97854
G1 X15.666 Y-6.673 E144.10385
G1 X16.198 Y-5.524 E144.18808
G1 X16.91 Y-3.717 E144.31727
G1 X16.77 Y-2.434 E144.40313
G1 X15.187 Y-1.007 E144.5449
G1 X14.369 Y-.2 E144.62133
G1 X12.19 Y0.528 E144.77416
G1 X11.622 Y1.168 E144.83108
G1 X10.825 Y4.846 E145.08142
G1 X10.785 Y5.02 E145.09329
G1 X9.215 Y6.427 E145.23353
G1 X8.387 Y6.613 E145.28998
G1 X6.6 Y6.91 E145.41049
G1 X4.892 Y7.162 E145.52533
G1 X2.741 Y7.42 E145.66944
G1 X1.762 Y7.567 E145.7353
G1 X-1.208 Y8.186 E145.93711
G1 X-1.887 Y8.314 E145.98307
G1 X-3.515 Y8.636 E146.09346
G1 X-4.126 Y8.747 E146.13477
G1 X-4.814 Y8.919 E146.18195
G1 X-5.498 Y8.967 E146.22756
G1 X-5.999 Y8.917 E146.26105
G1 X-6.452 Y8.674 E146.29525
G1 X-7.764 Y7.78 E146.40086
G1 X-8.009 Y7.486 E146.42631
G1 X-8.374 Y7.072 E146.46303
G1 X-8.817 Y5.881 E146.54756
G1 X-9.094 Y5.102 E146.60255
G1 X-9.165 Y4.807 E146.62274
G1 X-9.531 Y3.928 E146.68608
G1 X-9.622 Y3.744 E146.69973
G1 X-9.759 Y3.668 E146.71015
G1 X-10.274 Y3.405 E146.74862
G1 X-10.856 Y3.208 E146.78949
G1 X-11.872 Y2.909 E146.85994
G1 X-12.433 Y2.669 E146.90053
G1 X-13.548 Y2.298 E146.9787
G1 X-14.416 Y1.934 E147.04131
G1 X-15.173 Y1.603 E147.09627
G1 X-15.67 Y1.374 E147.13267
G1 X-16.005 Y0.909 E147.17079
G1 X-16.24 Y0.598 E147.19672
G1 X-16.52 Y0.15 E147.23187
G1 X-16.61 Y-0.013 E147.24425
G1 X-16.842 Y-.642 E147.28885
G1 X-16.972 Y-1.349 E147.33667
G1 X-17.067 Y-2.036 E147.3828
G1 X-17.076 Y-2.087 E147.38625
G1 X-16.785 Y-2.908 E147.44419
G1 X-16.299 Y-3.478 E147.49402
G1 X-15.492 Y-4.509 E147.58111
G1 X-14.714 Y-5.364 E147.65801
G1 X-14.156 Y-5.954 E147.71203
G1 X-13.678 Y-6.474 E147.75901
G1 X-13.593 Y-6.712 E147.77582
G1 X-13.663 Y-7.028 E147.79735
G1 X-14.275 Y-7.713 E147.85846
G1 X-14.554 Y-7.988 E147.88451
G1 X-14.867 Y-8.613 E147.93101
G1 X-15.163 Y-9.454 E147.99032
G1 X-15.181 Y-9.524 E147.99513
G1 X-15.244 Y-10.305 E148.04725
G1 X-15.275 Y-10.764 E148.07785
G1 X-15.328 Y-11.433 E148.12249
G1 X-15.225 Y-12.156 E148.17107
G1 X-15.147 Y-12.411 E148.18881
G1 X-14.958 Y-12.731 E148.21353
G1 X-14.164 Y-13.977 E148.31182
G1 X-14.09 Y-14.078 E148.32014
G1 X-13.983 Y-14.129 E148.32803
G1 X-12.906 Y-14.57 E148.40544
G1 X-12.542 Y-14.64 E148.4301
G1 X-11.971 Y-14.774 E148.46912
G1 X-11.301 Y-14.672 E148.5142
G1 X-10.717 Y-14.56 E148.55375
G1 X-9.511 Y-14.238 E148.63679
G1 X-7.789 Y-13.924 E148.75322
G1 X-7.014 Y-13.773 E148.80575
G1 X-6.573 Y-13.992 E148.8385
G1 X-6.262 Y-14.369 E148.87101
G1 X-5.482 Y-15.148 E148.94434
G1 X-5.293 Y-15.298 E148.96039
G1 X-3.592 Y-16.982 E149.11961
G1 X-3.537 Y-17.008 E149.12366
G1 X-2.255 Y-16.911 E149.20918
G1 X-1.694 Y-16.774 E149.2476
G1 X-.93 Y-16.634 E149.29927
G1 X-0.071 Y-16.322 E149.36006
G1 X0.594 Y-16.129 E149.40612
G1 X2.802 Y-15.609 E149.55702
G1 X3.842 Y-15.351 E149.62829
G1 X7.25 Y-14.433 E149.86308
G1 X8.398 Y-14.114 E149.94233
G1 X8.71 Y-14.024 E149.96393
G1 X10.694 Y-13.196 E150.10694
G1 X10.726 Y-13.162 E150.11005
G1 X11.301 Y-12.589 E150.16405
G1 X11.618 Y-11.944 E150.21185
G1 X11.946 Y-11.379 E150.25531
G1 X12.286 Y-10.604 E150.31161
G1 X12.456 Y-9.951 E150.35649
G1 X12.569 Y-9.389 E150.39463
G0 F7200 X12.729 Y-9.27
G0 X12.43 Y-8.87
G0 X3.222 Y-5.926
G0 X2.915 Y-5.533
G1 F1800 X2.048 Y-4.433 E150.4878
G1 X1.796 Y-3.147 E150.57497
G1 X1.4 Y-2.982 E150.6035
G1 X-.338 Y-2.443 E150.72455
G1 X-2.52 Y-1.7 E150.87788
G1 X-3.179 Y-1.382 E150.92655
G1 X-4.923 Y-.699 E151.05115
G1 X-5.786 Y-0.08 E151.12179
G1 X-5.927 Y0.131 E151.13867
G1 X-6.334 Y1.682 E151.24534
G1 X-6.498 Y2.229 E151.28333
G1 X-6.406 Y2.53 E151.30426
G1 X-6.236 Y2.847 E151.32819
G1 X-5.633 Y4.07 E151.4189
G1 X-5.228 Y4.568 E151.4616
G1 X-4.65 Y5.139 E151.51564
G1 X-4.259 Y5.297 E151.54369
G1 X-3.8 Y5.381 E151.57473
G1 X-2.308 Y5.302 E151.67412
G1 X-.316 Y5.167 E151.80693
G1 X1.245 Y5.046 E151.91108
G1 X2.296 Y4.88 E151.98186
G1 X4.015 Y4.588 E152.09785
G1 X5.462 Y4.207 E152.19739
G1 X5.79 Y4.108 E152.22018
G1 X6.744 Y3.745 E152.28808
G1 X7.275 Y3.322 E152.33323
G1 X7.327 Y3.177 E152.34348
G1 X7.496 Y2.928 E152.3635
G1 X7.598 Y2.578 E152.38775
G1 X7.509 Y2.248 E152.41049
G1 X7.338 Y1.776 E152.44388
G1 X6.924 Y1.088 E152.49729
G1 X6.848 Y0.961 E152.50714
G1 X6.07 Y-.291 E152.60519
G1 X5.898 Y-.675 E152.63318
G1 X5.364 Y-1.929 E152.72385
G1 X4.696 Y-3.377 E152.82992
G1 X4.588 Y-3.629 E152.84816
G1 X3.097 Y-5.391 E153.0017
G1 X2.915 Y-5.533 E153.01706
G0 F7200 X2.792 Y-5.376
G0 X2.4 Y-5.686
G0 X3.647 Y-5.964
;TYPE:SKIN
G1 F1800 X2.781 Y-6.639 E153.0901
G1 X1.309 Y-4.773 E153.2482
G1 X1.102 Y-3.715 E153.31991
G1 X-.583 Y-3.194 E153.43723
G1 X-2.82 Y-2.432 E153.59443
G1 X-3.5 Y-2.104 E153.64465
G1 X-5.302 Y-1.398 E153.7734
G1 X-6.363 Y-.638 E153.86021
G1 X-6.658 Y-.197 E153.89551
G1 X-7.092 Y1.458 E154.00932
G1 X-7.324 Y2.232 E154.06307
G1 X-7.139 Y2.835 E154.10503
G1 X-6.944 Y3.196 E154.13232
G1 X-6.302 Y4.499 E154.22895
G1 X-5.814 Y5.1 E154.28044
G1 X-5.092 Y5.812 E154.3479
G1 X-4.48 Y6.059 E154.3918
G1 X-3.851 Y6.175 E154.43434
G1 X-2.261 Y6.091 E154.54026
G1 X-.259 Y5.955 E154.67374
G1 X1.337 Y5.832 E154.78022
G1 X2.424 Y5.659 E154.85344
G1 X4.182 Y5.361 E154.97205
G1 X5.677 Y4.968 E155.07488
G1 X6.045 Y4.856 E155.10046
G1 X7.139 Y4.44 E155.17832
G1 X7.943 Y3.8 E155.24668
G1 X8.038 Y3.535 E155.2654
G1 X8.219 Y3.268 E155.28686
G1 X8.418 Y2.586 E155.33412
G1 X8.263 Y2.011 E155.37373
G1 X8.054 Y1.435 E155.41449
G1 X7.522 Y0.549 E155.48324
G1 X6.771 Y-.66 E155.57792
G1 X6.604 Y-1.033 E155.6051
G1 X6.087 Y-2.249 E155.693
G1 X5.418 Y-3.699 E155.79922
G1 X5.267 Y-4.049 E155.82458
G1 X3.647 Y-5.964 E155.99143
G0 F7200 X3.64 Y-14.588
G1 F1800 X6.902 Y-13.71 E156.21615
G1 X8.223 Y-13.343 E156.30735
G1 X8.448 Y-13.278 E156.32293
G1 X10.241 Y-12.529 E156.45218
G1 X10.651 Y-12.122 E156.49061
G1 X10.921 Y-11.571 E156.53143
G1 X11.241 Y-11.021 E156.57376
G1 X11.535 Y-10.351 E156.62243
G1 X11.688 Y-9.762 E156.66291
G1 X11.854 Y-8.937 E156.71889
G1 X13.842 Y-7.453 E156.88391
G1 X15.006 Y-6.223 E156.99656
G1 X15.467 Y-5.224 E157.06975
G1 X16.103 Y-3.61 E157.18515
G1 X16.017 Y-2.819 E157.23808
G1 X14.645 Y-1.582 E157.36096
G1 X13.944 Y-.891 E157.42644
G1 X11.74 Y-.154 E157.58103
G1 X10.894 Y0.798 E157.66575
G1 X10.069 Y4.601 E157.92461
G1 X8.841 Y5.702 E158.03432
G1 X8.241 Y5.836 E158.07521
G1 X6.477 Y6.129 E158.19416
G1 X4.787 Y6.378 E158.3078
G1 X2.635 Y6.638 E158.45199
G1 X1.623 Y6.789 E158.52005
G1 X-1.362 Y7.41 E158.72287
G1 X-2.037 Y7.538 E158.76857
G1 X-3.656 Y7.858 E158.87835
G1 X-4.292 Y7.974 E158.92135
G1 X-4.942 Y8.136 E158.96592
G1 X-5.481 Y8.176 E159.00187
G1 X-5.766 Y8.147 E159.02092
G1 X-6.034 Y8.003 E159.04116
G1 X-7.231 Y7.187 E159.13753
G1 X-7.685 Y6.659 E159.18385
G1 X-8.077 Y5.606 E159.25859
G1 X-8.335 Y4.879 E159.30991
G1 X-8.412 Y4.562 E159.33161
G1 X-8.812 Y3.6 E159.40091
G1 X-9.023 Y3.172 E159.43265
G1 X-9.388 Y2.971 E159.46037
G1 X-9.966 Y2.674 E159.5036
G1 X-10.618 Y2.455 E159.54935
G1 X-11.605 Y2.163 E159.61782
G1 X-12.153 Y1.93 E159.65743
G1 X-13.271 Y1.557 E159.73583
G1 X-14.153 Y1.188 E159.79943
G1 X-14.785 Y0.912 E159.8453
G1 X-15.152 Y0.742 E159.87221
G1 X-15.596 Y0.139 E159.92202
G1 X-15.89 Y-.341 E159.95946
G1 X-16.077 Y-.85 E159.99554
G1 X-16.192 Y-1.477 E160.03794
G1 X-16.266 Y-2.008 E160.0736
G1 X-16.09 Y-2.505 E160.10868
G1 X-15.687 Y-2.978 E160.15001
G1 X-14.894 Y-3.991 E160.23559
G1 X-14.082 Y-4.883 E160.31583
G1 X-13.578 Y-5.415 E160.36458
G1 X-12.988 Y-6.058 E160.42263
G1 X-12.773 Y-6.661 E160.46521
G1 X-12.936 Y-7.401 E160.51562
G1 X-13.702 Y-8.258 E160.59208
G1 X-13.905 Y-8.457 E160.61099
G1 X-14.142 Y-8.928 E160.64606
G1 X-14.401 Y-9.671 E160.6984
G1 X-14.445 Y-10.215 E160.73471
G1 X-14.488 Y-10.822 E160.77519
G1 X-14.534 Y-11.406 E160.81415
G1 X-14.453 Y-11.979 E160.85265
G1 X-14.292 Y-12.306 E160.87689
G1 X-13.565 Y-13.447 E160.96689
G1 X-12.68 Y-13.808 E161.03047
G1 X-11.94 Y-13.97 E161.08086
G1 X-11.442 Y-13.894 E161.11437
G1 X-10.889 Y-13.788 E161.15183
G1 X-9.685 Y-13.466 E161.23473
G1 X-7.802 Y-13.122 E161.36206
G1 X-6.902 Y-12.946 E161.42307
G1 X-6.071 Y-13.36 E161.48483
G1 X-5.673 Y-13.841 E161.52635
G1 X-4.957 Y-14.556 E161.59366
G1 X-4.768 Y-14.706 E161.60972
G1 X-3.263 Y-16.195 E161.75055
G1 X-2.387 Y-16.13 E161.80898
G1 X-1.86 Y-16.001 E161.84507
G1 X-1.141 Y-15.87 E161.89368
G1 X-.316 Y-15.571 E161.95206
G1 X0.393 Y-15.365 E162.00117
G1 X2.616 Y-14.841 E162.1531
G1 X3.64 Y-14.588 E162.22326
G0 F7200 X-6.952 Y-13.315
G0 X-13.176 Y-13.41
G1 F1800 X-13.717 Y-12.869 E162.27416
G0 F7200 X-14.306 Y-11.714
G1 F1800 X-12.319 Y-13.702 E162.46113
G0 F7200 X-11.704 Y-13.751
G1 F1800 X-14.33 Y-11.125 E162.70817
G0 F7200 X-14.291 Y-10.598
G1 F1800 X-11.221 Y-13.668 E162.99697
G0 F7200 X-10.757 Y-13.566
G1 F1800 X-14.252 Y-10.072 E163.32571
G0 F7200 X-14.177 Y-9.581
G1 F1800 X-10.311 Y-13.447 E163.6894
G0 F7200 X-9.865 Y-13.327
G1 F1800 X-14.031 Y-9.161 E164.08131
G0 F7200 X-13.859 Y-8.768
G1 F1800 X-9.396 Y-13.23 E164.50112
G0 F7200 X-8.918 Y-13.142
G1 F1800 X-13.625 Y-8.435 E164.94393
G0 F7200 X-13.355 Y-8.14
G1 F1800 X-8.44 Y-13.055 E165.4063
G0 F7200 X-7.962 Y-12.967
G1 F1800 X-13.087 Y-7.842 E165.88843
G0 F7200 X-12.821 Y-7.543
G1 F1800 X-7.487 Y-12.877 E166.39022
G0 F7200 X-7.013 Y-12.785
G1 F1800 X-12.687 Y-7.111 E166.92399
G0 F7200 X-12.586 Y-6.646
G1 F1800 X-6.079 Y-13.153 E167.53613
G0 F7200 X-5.657 Y-13.575
G1 F1800 X-4.72 Y-14.512 E167.62428
G1 X-4.65 Y-14.582
G0 F7200 X-2.695 Y-15.972
G1 F1800 X-14.369 Y-4.297 E168.72254
G1 X-14.439 Y-4.227
G0 F7200 X-16.062 Y-2.039
G1 F1800 X-2.203 Y-15.898 E170.02631
G0 F7200 X-1.74 Y-15.796
G1 F1800 X-16.015 Y-1.52 E171.36926
G0 F7200 X-15.927 Y-1.042
G1 F1800 X-1.262 Y-15.708 E172.7489
G0 F7200 X-.836 Y-15.568
G1 F1800 X-15.795 Y-.609 E174.15616
G0 F7200 X-15.609 Y-.229
G1 F1800 X-.42 Y-15.418 E175.58504
G0 F7200 X0.014 Y-15.287
G1 F1800 X-15.388 Y0.115 E177.03397
G0 F7200 X-15.148 Y0.44
G1 F1800 X0.456 Y-15.164 E178.5019
G0 F7200 X0.914 Y-15.056
G1 F1800 X-14.833 Y0.691 E179.98328
G0 F7200 X-14.441 Y0.865
G1 F1800 X1.371 Y-14.948 E181.47082
G0 F7200 X1.829 Y-14.84
G1 F1800 X-14.047 Y1.036 E182.96434
G0 F7200 X-13.648 Y1.203
G1 F1800 X2.287 Y-14.732 E184.46341
G0 F7200 X2.743 Y-14.622
G1 F1800 X-13.249 Y1.37 E185.96784
G0 F7200 X-12.828 Y1.514
G1 F1800 X3.197 Y-14.511 E187.47537
G0 F7200 X3.65 Y-14.398
G1 F1800 X-12.404 Y1.656 E188.98563
G0 F7200 X-11.987 Y1.805
G1 F1800 X4.096 Y-14.278 E190.49862
G0 F7200 X4.541 Y-14.158
G1 F1800 X-11.59 Y1.974 E192.01617
G0 F7200 X-11.158 Y2.107
G1 F1800 X4.987 Y-14.038 E193.535
G0 F7200 X5.433 Y-13.918
G1 F1800 X-10.721 Y2.236 E195.05467
G0 F7200 X-10.294 Y2.374
G1 F1800 X5.879 Y-13.799 E196.57612
G0 F7200 X6.325 Y-13.679
G1 F1800 X-9.873 Y2.519 E198.09993
G0 F7200 X-9.499 Y2.711
G1 F1800 X-6.933 Y0.145 E198.34132
G0 F7200 X-7.134 Y0.912
G1 F1800 X-9.13 Y2.907 E198.52905
G0 F7200 X-8.823 Y3.166
G1 F1800 X-7.349 Y1.692 E198.66771
G0 F7200 X-7.467 Y2.376
G1 F1800 X-8.638 Y3.546 E198.77783
G0 F7200 X-8.471 Y3.946
G1 F1800 X-7.334 Y2.809 E198.88479
G0 F7200 X-7.15 Y3.191
G1 F1800 X-8.305 Y4.345 E198.9934
G0 F7200 X-8.172 Y4.778
G1 F1800 X-6.961 Y3.567 E199.10732
G0 F7200 X-6.774 Y3.946
G1 F1800 X-8.029 Y5.2 E199.22534
G0 F7200 X-7.88 Y5.617
G1 F1800 X-6.588 Y4.325 E199.34688
G0 F7200 X-6.381 Y4.684
G1 F1800 X-7.726 Y6.029 E199.47341
G0 F7200 X-7.573 Y6.441
G1 F1800 X-6.128 Y4.997 E199.6093
G0 F7200 X-5.866 Y5.3
G1 F1800 X-7.344 Y6.778 E199.74834
G0 F7200 X-7.075 Y7.075
G1 F1800 X-5.581 Y5.581 E199.88889
G0 F7200 X-5.296 Y5.861
G1 F1800 X-6.738 Y7.304 E200.02459
G0 F7200 X-6.402 Y7.533
G1 F1800 X-4.935 Y6.066 E200.16259
G0 F7200 X-4.532 Y6.229
G1 F1800 X-6.066 Y7.763 E200.3069
G0 F7200 X-5.709 Y7.972
G1 F1800 X-4.055 Y6.318 E200.4625
G0 F7200 X-3.507 Y6.336
G1 F1800 X-5.141 Y7.969 E200.61617
G0 F7200 X-4.427 Y7.821
G1 F1800 X-2.911 Y6.305 E200.75879
G0 F7200 X-2.313 Y6.273
G1 F1800 X-3.728 Y7.688 E200.8919
G0 F7200 X-3.024 Y7.549
G1 F1800 X-1.707 Y6.233 E201.01575
G0 F7200 X-1.1 Y6.191
G1 F1800 X-2.32 Y7.411 E201.13052
G0 F7200 X-1.619 Y7.276
G1 F1800 X-.492 Y6.149 E201.23654
G0 F7200 X0.117 Y6.105
G1 F1800 X-.908 Y7.131 E201.33301
G0 F7200 X-.194 Y6.982
G1 F1800 X0.73 Y6.057 E201.41999
G0 F7200 X1.343 Y6.01
G1 F1800 X0.519 Y6.834 E201.4975
G0 F7200 X1.233 Y6.685
G1 F1800 X2.014 Y5.905 E201.57093
G0 F7200 X1.923 Y6.561
G1 F1800 X2.689 Y5.795 E201.64299
G0 F7200 X2.588 Y6.462
G1 F1800 X3.371 Y5.679 E201.71665
G0 F7200 X4.052 Y5.564
G1 F1800 X3.232 Y6.384 E201.79379
G0 F7200 X3.875 Y6.306
G1 F1800 X4.798 Y5.383 E201.88062
G0 F7200 X5.565 Y5.182
G1 F1800 X4.519 Y6.228 E201.97902
G0 F7200 X5.175 Y6.138
G1 F1800 X6.401 Y4.912 E202.09435
G1 X6.471 Y4.842
G0 F7200 X6.502 Y5.942
G1 F1800 X10.45 Y1.994 E202.46576
G0 F7200 X10.607 Y1.272
G1 F1800 X8.163 Y3.715 E202.69563
G1 X8.093 Y3.785
G0 F7200 X7.486 Y4.393
G1 F1800 X5.837 Y6.041 E202.85071
G1 X5.767 Y6.111
G0 F7200 X7.18 Y5.83
G1 F1800 X10.293 Y2.717 E203.14356
G0 F7200 X10.137 Y3.439
G1 F1800 X7.858 Y5.717 E203.35791
G0 F7200 X8.561 Y5.58
G1 F1800 X9.98 Y4.162 E203.49135
G1 X10.05 Y4.092
G0 F7200 X8.553 Y2.759
G1 F1800 X15.629 Y-4.316 E204.15697
G0 F7200 X15.79 Y-3.911
G1 F1800 X12.466 Y-.586 E204.46972
G1 X12.396 Y-.516
G0 F7200 X13.316 Y-.871
G1 F1800 X15.904 Y-3.459 E204.71318
G1 X15.974 Y-3.529
G0 F7200 X15.47 Y-4.722
G1 F1800 X8.51 Y2.237 E205.36789
G0 F7200 X8.378 Y1.803
G1 F1800 X15.31 Y-5.127 E206.01992
G0 F7200 X15.132 Y-5.516
G1 F1800 X8.227 Y1.388 E206.66945
G0 F7200 X8.02 Y1.03
G1 F1800 X14.953 Y-5.902 E207.32162
G0 F7200 X14.733 Y-6.247
G1 F1800 X7.808 Y0.676 E207.97298
G0 F7200 X7.595 Y0.324
G1 F1800 X14.458 Y-6.538 E208.61857
G0 F7200 X14.183 Y-6.829
G1 F1800 X7.378 Y-0.024 E209.25874
G0 F7200 X7.161 Y-.373
G1 F1800 X13.908 Y-7.119 E209.89341
G0 F7200 X13.618 Y-7.395
G1 F1800 X6.944 Y-.721 E210.52126
G0 F7200 X6.766 Y-1.109
G1 F1800 X13.294 Y-7.637 E211.13537
G0 F7200 X12.97 Y-7.879
G1 F1800 X6.598 Y-1.506 E211.73486
G0 F7200 X6.429 Y-1.903
G1 F1800 X12.646 Y-8.121 E212.31976
G0 F7200 X12.322 Y-8.362
G1 F1800 X6.26 Y-2.3 E212.89004
G0 F7200 X6.082 Y-2.688
G1 F1800 X11.998 Y-8.604 E213.44658
G0 F7200 X11.686 Y-8.857
G1 F1800 X5.904 Y-3.075 E213.99051
G0 F7200 X5.725 Y-3.462
G1 F1800 X11.59 Y-9.328 E214.5423
G0 F7200 X11.491 Y-9.794
G1 F1800 X5.548 Y-3.851 E215.10138
G0 F7200 X5.354 Y-4.223
G1 F1800 X11.375 Y-10.243 E215.66776
G0 F7200 X11.209 Y-10.644
G1 F1800 X5.096 Y-4.53 E216.24288
G0 F7200 X4.836 Y-4.836
G1 F1800 X11.028 Y-11.028 E216.82538
G0 F7200 X10.82 Y-11.385
G1 F1800 X4.577 Y-5.143 E217.41264
G0 F7200 X4.318 Y-5.449
G1 F1800 X10.627 Y-11.759 E218.0062
G0 F7200 X10.41 Y-12.107
G1 F1800 X4.059 Y-5.756 E218.60366
G0 F7200 X3.799 Y-6.062
G1 F1800 X10.12 Y-12.383 E219.1983
G0 F7200 X9.722 Y-12.55
G1 F1800 X3.487 Y-6.315 E219.78485
G0 F7200 X3.169 Y-6.563
G1 F1800 X9.322 Y-12.716 E220.36369
G0 F7200 X8.923 Y-12.883
G1 F1800 X2.851 Y-6.81 E220.93495
G1 X2.781 Y-6.74
G0 F7200 X2.073 Y-6.033
G1 F1800 X-.576 Y-3.383 E221.1842
G1 X-.646 Y-3.313
G0 F7200 X0.241 Y-3.635
G1 F1800 X1.063 Y-4.457 E221.26153
G1 X1.133 Y-4.527
G0 F7200 X-1.43 Y-3.095
G1 F1800 X8.524 Y-13.05 E222.19799
G0 F7200 X8.098 Y-13.189
G1 F1800 X-2.288 Y-2.802 E223.17509
G1 X-2.358 Y-2.732
G0 F7200 X-3.217 Y-2.439
G1 F1800 X7.655 Y-13.312 E224.1979
G0 F7200 X7.213 Y-13.435
G1 F1800 X-4.2 Y-2.022 E225.27157
G1 X-4.27 Y-1.952
G0 F7200 X-5.13 Y-1.657
G1 F1800 X6.771 Y-13.559 E226.39119
G1 X6.841 Y-13.629
;MESH:NONMESH
G0 F600 X6.841 Y-13.629 Z1.9
G0 F7200 X8.052 Y2.582
G0 X7.645 Y3.587
G0 X6.963 Y4.131
G0 X5.581 Y4.63
G0 X4.108 Y5.018
G0 X1.831 Y5.394
G0 X-1.265 Y5.732
G0 X-1.324 Y4.84
;TIME_ELAPSED:122.185431
;LAYER:4
;TYPE:WALL-INNER
;MESH:bunny.stl
G1 F3600 X3.348 Y4.48 E226.70289
G1 X4.643 Y4.183 E226.79127
G1 X4.95 Y4.102 E226.81239
G1 X5.96 Y3.716 E226.88432
G1 X6.426 Y3.2 E226.93057
G1 X7.022 Y2.623 E226.98575
G1 X6.404 Y1.038 E227.09892
G1 X6.182 Y0.645 E227.12894
G1 X4.208 Y0.318 E227.26204
G1 X3.734 Y0.702 E227.30262
G1 X3.339 Y1.123 E227.34102
G1 X0.053 Y1.307 E227.55995
G1 X-.885 Y2.563 E227.66423
G1 X-1.324 Y4.84 E227.81848
G0 F7200 X-1.398 Y4.906
G0 X-.921 Y2.547
G0 X-0.061 Y1.4
G0 X12.69 Y-9.327
G0 X12.768 Y-9.388
G1 F3600 X13.246 Y-9.055 E227.85724
G1 X13.764 Y-8.735 E227.89774
G1 X14.542 Y-8.272 E227.95796
G1 X15.779 Y-7.35 E228.06059
G1 X16.146 Y-6.963 E228.09607
G1 X16.289 Y-6.653 E228.11878
G1 X17.379 Y-3.887 E228.31654
G1 X17.179 Y-2.044 E228.43986
G1 X17.066 Y-1.942 E228.44999
G1 X15.304 Y-.618 E228.5966
G1 X14.864 Y-.507 E228.62678
G1 X12.36 Y0.329 E228.80239
G1 X11.387 Y1.423 E228.89978
G1 X11.004 Y3.191 E229.02012
G1 X10.707 Y4.745 E229.12536
G1 X10.446 Y5.09 E229.15414
G1 X9.303 Y6.114 E229.25622
G1 X7.591 Y6.498 E229.37293
G1 X7.303 Y6.543 E229.39232
G1 X3.847 Y6.945 E229.62376
G1 X3.145 Y7.03 E229.6708
G1 X1.335 Y7.302 E229.79256
G1 X0.32 Y7.513 E229.86152
G1 X-.838 Y7.749 E229.94013
G1 X-1.934 Y7.983 E230.01468
G1 X-2.619 Y8.118 E230.06112
G1 X-3.661 Y8.309 E230.13159
G1 X-4.323 Y8.475 E230.17699
G1 X-4.7 Y8.547 E230.20252
G1 X-5.009 Y8.55 E230.22308
G1 X-5.51 Y8.498 E230.25659
G1 X-5.833 Y8.43 E230.27854
G1 X-7.106 Y7.561 E230.38107
G1 X-7.528 Y7.055 E230.4249
G1 X-8.156 Y6.343 E230.48805
G1 X-8.385 Y5.728 E230.53171
G1 X-8.538 Y5.3 E230.56194
G1 X-8.727 Y4.407 E230.62266
G1 X-8.885 Y4.001 E230.65164
G1 X-9.22 Y3.314 E230.70249
G1 X-9.953 Y2.914 E230.75803
G1 X-10.456 Y2.736 E230.79353
G1 X-11.048 Y2.572 E230.83439
G1 X-13.882 Y1.651 E231.03261
G1 X-14.684 Y1.383 E231.08886
G1 X-15.123 Y1.198 E231.12055
G1 X-15.645 Y0.502 E231.17842
G1 X-15.936 Y0.095 E231.21171
G1 X-16.32 Y-.633 E231.26646
G1 X-16.413 Y-1.221 E231.30606
G1 X-16.51 Y-1.811 E231.34583
G1 X-16.471 Y-2.463 E231.38928
G1 X-16.071 Y-2.91 E231.42918
G1 X-15.301 Y-3.845 E231.50975
G1 X-14.98 Y-4.214 E231.54229
G1 X-14.068 Y-5.206 E231.63192
G1 X-13.522 Y-5.667 E231.67946
G1 X-13.314 Y-6.056 E231.7088
G1 X-12.984 Y-6.413 E231.74114
G1 X-12.929 Y-6.807 E231.7676
G1 X-12.991 Y-7.232 E231.79618
G1 X-13.527 Y-7.814 E231.84881
G1 X-13.805 Y-8.081 E231.87445
G1 X-14.492 Y-8.756 E231.93851
G1 X-14.584 Y-8.984 E231.95487
G1 X-14.733 Y-9.935 E232.0189
G1 X-14.757 Y-10.244 E232.03952
G1 X-14.826 Y-10.757 E232.07395
G1 X-14.825 Y-11.226 E232.10515
G1 X-14.809 Y-11.79 E232.14268
G1 X-14.755 Y-12.206 E232.17059
G1 X-13.752 Y-13.681 E232.28924
G1 X-13.655 Y-13.745 E232.29697
G1 X-12.713 Y-14.247 E232.36797
G1 X-12.211 Y-14.454 E232.40409
G1 X-11.953 Y-14.515 E232.42173
G1 X-11.08 Y-14.313 E232.48134
G1 X-8.883 Y-13.601 E232.63496
G1 X-8.489 Y-13.529 E232.66161
G1 X-7.063 Y-13.252 E232.75824
G1 X-6.178 Y-13.694 E232.82404
G1 X-5.891 Y-14.04 E232.85395
G1 X-5.642 Y-14.503 E232.88892
G1 X-5.164 Y-15.007 E232.93512
G1 X-4.093 Y-16.066 E233.03531
G1 X-3.552 Y-16.492 E233.08112
G1 X-2.855 Y-16.668 E233.12894
G1 X-2.143 Y-16.618 E233.17642
G1 X-1.633 Y-16.544 E233.2107
G1 X-.727 Y-16.238 E233.27431
G1 X-.163 Y-16.034 E233.31421
G1 X0.652 Y-15.797 E233.37067
G1 X1.183 Y-15.623 E233.40784
G1 X3.375 Y-15.054 E233.55848
G1 X5.224 Y-14.588 E233.68532
G1 X5.987 Y-14.378 E233.73797
G1 X7.347 Y-13.979 E233.83225
G1 X8.035 Y-13.832 E233.87904
G1 X8.556 Y-13.742 E233.91422
G1 X9.115 Y-13.675 E233.95167
G1 X9.513 Y-13.476 E233.98127
G1 X10.521 Y-13.094 E234.05297
G1 X10.642 Y-13.025 E234.06224
G1 X11.137 Y-12.699 E234.10166
G1 X11.412 Y-12.465 E234.12568
G1 X11.732 Y-11.827 E234.17316
G1 X12.452 Y-10.195 E234.29182
G1 X12.768 Y-9.388 E234.34947
G0 F7200 X13.096 Y-9.647
;TYPE:WALL-OUTER
G1 F1800 X13.466 Y-9.389 E234.37948
G1 X13.971 Y-9.077 E234.41896
G1 X14.767 Y-8.604 E234.48056
G1 X16.043 Y-7.652 E234.58646
G1 X16.482 Y-7.189 E234.6289
G1 X16.657 Y-6.81 E234.65667
G1 X17.788 Y-3.941 E234.86181
G1 X17.561 Y-1.849 E235.00179
G1 X17.321 Y-1.633 E235.02326
G1 X15.48 Y-.25 E235.17643
G1 X14.976 Y-.123 E235.21101
G1 X12.588 Y0.675 E235.37849
G1 X11.756 Y1.61 E235.46175
G1 X11.396 Y3.271 E235.5748
G1 X11.083 Y4.911 E235.68587
G1 X10.741 Y5.363 E235.72357
G1 X9.493 Y6.481 E235.83503
G1 X7.667 Y6.891 E235.95952
G1 X7.357 Y6.939 E235.98038
G1 X3.894 Y7.342 E236.2123
G1 X3.199 Y7.426 E236.25887
G1 X1.406 Y7.696 E236.37948
G1 X0.401 Y7.905 E236.44777
G1 X-.756 Y8.141 E236.52631
G1 X-1.851 Y8.374 E236.60079
G1 X-2.547 Y8.511 E236.64797
G1 X-3.576 Y8.7 E236.71757
G1 X-4.243 Y8.867 E236.7633
G1 X-4.659 Y8.947 E236.79148
G1 X-5.029 Y8.95 E236.8161
G1 X-5.568 Y8.894 E236.85214
G1 X-5.994 Y8.804 E236.88111
G1 X-7.379 Y7.86 E236.9926
G1 X-7.832 Y7.315 E237.03975
G1 X-8.506 Y6.55 E237.10757
G1 X-8.76 Y5.868 E237.15598
G1 X-8.92 Y5.421 E237.18756
G1 X-9.041 Y4.906 E237.22275
G1 X-9.113 Y4.517 E237.24907
G1 X-9.252 Y4.162 E237.27443
G1 X-9.524 Y3.604 E237.31572
G1 X-10.117 Y3.28 E237.36067
G1 X-10.576 Y3.118 E237.39305
G1 X-11.166 Y2.954 E237.43378
G1 X-14.006 Y2.031 E237.63243
G1 X-14.832 Y1.755 E237.69036
G1 X-15.355 Y1.535 E237.7281
G1 X-15.381 Y1.52 E237.7301
G1 X-15.687 Y1.119 E237.76365
G1 X-15.967 Y0.74 E237.795
G1 X-16.278 Y0.304 E237.83062
G1 X-16.704 Y-.504 E237.89139
G1 X-16.808 Y-1.157 E237.93537
G1 X-16.912 Y-1.788 E237.97791
G1 X-16.862 Y-2.627 E238.03382
G1 X-16.374 Y-3.171 E238.08243
G1 X-15.603 Y-4.107 E238.1631
G1 X-15.275 Y-4.485 E238.19639
G1 X-14.348 Y-5.494 E238.28754
G1 X-13.839 Y-5.923 E238.33182
G1 X-13.643 Y-6.29 E238.35949
G1 X-13.363 Y-6.593 E238.38694
G1 X-13.333 Y-6.806 E238.40125
G1 X-13.369 Y-7.052 E238.41779
G1 X-13.813 Y-7.534 E238.46138
G1 X-14.082 Y-7.793 E238.48622
G1 X-14.832 Y-8.53 E238.55616
G1 X-14.972 Y-8.875 E238.58093
G1 X-15.131 Y-9.893 E238.64947
G1 X-15.155 Y-10.202 E238.67009
G1 X-15.226 Y-10.734 E238.70579
G1 X-15.225 Y-11.238 E238.73932
G1 X-15.208 Y-11.82 E238.77805
G1 X-15.176 Y-12.25 E238.80673
G1 X-15.103 Y-12.406 E238.81819
G1 X-14.039 Y-13.971 E238.94407
G1 X-13.86 Y-14.089 E238.95833
G1 X-12.88 Y-14.611 E239.0322
G1 X-12.337 Y-14.835 E239.07127
G1 X-11.963 Y-14.924 E239.09684
G1 X-11.455 Y-14.828 E239.13123
G1 X-10.957 Y-14.694 E239.16554
G1 X-8.785 Y-13.99 E239.31742
G1 X-8.413 Y-13.922 E239.34257
G1 X-7.12 Y-13.671 E239.43019
G1 X-6.432 Y-14.014 E239.48133
G1 X-6.224 Y-14.265 E239.50301
G1 X-5.969 Y-14.738 E239.53876
G1 X-5.445 Y-15.291 E239.58944
G1 X-4.358 Y-16.366 E239.69113
G1 X-3.731 Y-16.859 E239.74419
G1 X-2.892 Y-17.072 E239.80177
G1 X-2.097 Y-17.016 E239.85478
G1 X-1.54 Y-16.935 E239.89223
G1 X-.599 Y-16.617 E239.9583
G1 X-0.039 Y-16.415 E239.9979
G1 X0.764 Y-16.181 E240.05354
G1 X1.296 Y-16.007 E240.09077
G1 X3.474 Y-15.442 E240.24045
G1 X5.33 Y-14.974 E240.36777
G1 X6.1 Y-14.762 E240.4209
G1 X7.445 Y-14.367 E240.51415
G1 X8.111 Y-14.225 E240.55945
G1 X8.614 Y-14.138 E240.5934
G1 X9.233 Y-14.064 E240.63487
G1 X9.674 Y-13.843 E240.66769
G1 X10.689 Y-13.458 E240.7399
G1 X10.857 Y-13.362 E240.75277
G1 X11.379 Y-13.019 E240.79432
G1 X11.734 Y-12.717 E240.82532
G1 X12.09 Y-12.006 E240.87821
G1 X12.818 Y-10.356 E240.99818
G1 X13.096 Y-9.647 E241.04884
G0 F7200 X13.26 Y-9.533
G0 X12.974 Y-9.123
G0 X0.035 Y1.272
G0 X-.921 Y2.547
G0 X-1.322 Y4.307
G0 X-.832 Y4.401
G1 F1800 X3.288 Y4.083 E241.32372
G1 X4.547 Y3.795 E241.40963
G1 X4.827 Y3.721 E241.4289
G1 X5.727 Y3.377 E241.49299
G1 X6.14 Y2.919 E241.53401
G1 X6.553 Y2.52 E241.57221
G1 X6.042 Y1.21 E241.66575
G1 X5.928 Y1.008 E241.68118
G1 X4.32 Y0.742 E241.7896
G1 X4.007 Y0.996 E241.81641
G1 X3.521 Y1.513 E241.86361
G1 X0.262 Y1.696 E242.08074
G1 X-.51 Y2.729 E242.16653
G1 X-.832 Y4.401 E242.27979
G0 F7200 X-.633 Y4.386
G0 X-.596 Y4.884
G0 X-1.804 Y5.269
;TYPE:SKIN
G1 F1800 X3.407 Y4.866 E242.62746
G1 X4.736 Y4.562 E242.71815
G1 X5.069 Y4.474 E242.74107
G1 X6.186 Y4.047 E242.82061
G1 X6.697 Y3.481 E242.87134
G1 X7.48 Y2.723 E242.94383
G1 X6.757 Y0.87 E243.07614
G1 X6.43 Y0.29 E243.12043
G1 X4.099 Y-0.095 E243.27759
G1 X3.467 Y0.416 E243.33166
G1 X3.161 Y0.742 E243.3614
G1 X-.15 Y0.928 E243.582
G1 X-1.251 Y2.401 E243.70433
G1 X-1.804 Y5.269 E243.89862
G0 F7200 X0.24 Y7.131
G1 F1800 X-.918 Y7.367 E243.97723
G1 X-2.106 Y7.62 E244.05803
G1 X-2.689 Y7.734 E244.09755
G1 X-3.743 Y7.927 E244.16883
G1 X-4.408 Y8.094 E244.21444
G1 X-4.739 Y8.157 E244.23685
G1 X-5.449 Y8.112 E244.28417
G1 X-5.678 Y8.064 E244.29974
G1 X-6.839 Y7.271 E244.39326
G1 X-7.232 Y6.801 E244.43402
G1 X-7.816 Y6.139 E244.49274
G1 X-8.02 Y5.592 E244.53158
G1 X-8.161 Y5.198 E244.55941
G1 X-8.352 Y4.295 E244.62081
G1 X-8.528 Y3.845 E244.65295
G1 X-8.924 Y3.031 E244.71317
G1 X-9.793 Y2.557 E244.77901
G1 X-10.339 Y2.364 E244.81753
G1 X-10.936 Y2.198 E244.85875
G1 X-13.76 Y1.281 E245.05626
G1 X-14.547 Y1.017 E245.11148
G1 X-14.874 Y0.88 E245.13507
G1 X-15.33 Y0.271 E245.18567
G1 X-15.606 Y-.115 E245.21724
G1 X-15.944 Y-.756 E245.26544
G1 X-16.028 Y-1.283 E245.30094
G1 X-16.118 Y-1.828 E245.33769
G1 X-16.089 Y-2.304 E245.36941
G1 X-15.775 Y-2.656 E245.40079
G1 X-15.003 Y-3.593 E245.48155
G1 X-14.689 Y-3.954 E245.51337
G1 X-13.799 Y-4.923 E245.60089
G1 X-13.214 Y-5.417 E245.65183
G1 X-12.994 Y-5.826 E245.68272
G1 X-12.615 Y-6.238 E245.71996
G1 X-12.535 Y-6.809 E245.75831
G1 X-12.622 Y-7.408 E245.79858
G1 X-13.248 Y-8.087 E245.86001
G1 X-13.534 Y-8.362 E245.8864
G1 X-14.162 Y-8.979 E245.94497
G1 X-14.204 Y-9.083 E245.95243
G1 X-14.347 Y-9.995 E246.01383
G1 X-14.436 Y-10.779 E246.06632
G1 X-14.435 Y-11.215 E246.09532
G1 X-14.419 Y-11.773 E246.13246
G1 X-14.381 Y-12.064 E246.15198
G1 X-13.475 Y-13.396 E246.25914
G1 X-13.456 Y-13.409 E246.26067
G1 X-12.547 Y-13.893 E246.32917
G1 X-11.952 Y-14.114 E246.3714
G1 X-11.186 Y-13.937 E246.42369
G1 X-8.979 Y-13.222 E246.57802
G1 X-8.508 Y-13.136 E246.60986
G1 X-7.007 Y-12.844 E246.71158
G1 X-5.93 Y-13.382 E246.79167
G1 X-5.566 Y-13.821 E246.8296
G1 X-5.325 Y-14.27 E246.8635
G1 X-4.889 Y-14.73 E246.90566
G1 X-3.833 Y-15.774 E247.00444
G1 X-3.376 Y-16.134 E247.04314
G1 X-2.823 Y-16.274 E247.08108
G1 X-2.172 Y-16.228 E247.1245
G1 X-1.722 Y-16.163 E247.15474
G1 X-.86 Y-15.871 E247.21528
G1 X-.284 Y-15.663 E247.25602
G1 X0.537 Y-15.424 E247.3129
G1 X1.073 Y-15.249 E247.35041
G1 X3.278 Y-14.676 E247.50196
G1 X5.121 Y-14.212 E247.62838
G1 X5.884 Y-14.002 E247.68102
G1 X7.251 Y-13.601 E247.77579
G1 X7.961 Y-13.449 E247.82409
G1 X8.499 Y-13.356 E247.8604
G1 X9.004 Y-13.295 E247.89424
G1 X9.357 Y-13.119 E247.92048
G1 X10.354 Y-12.74 E247.99143
G1 X10.442 Y-12.69 E247.99816
G1 X10.902 Y-12.387 E248.0348
G1 X11.098 Y-12.22 E248.05193
G1 X11.379 Y-11.66 E248.09361
G1 X12.095 Y-10.037 E248.21161
G1 X12.448 Y-9.136 E248.27598
G1 X13.032 Y-8.729 E248.32333
G1 X13.562 Y-8.402 E248.36476
G1 X14.323 Y-7.95 E248.42364
G1 X15.517 Y-7.059 E248.52274
G1 X15.819 Y-6.741 E248.55191
G1 X15.93 Y-6.499 E248.56962
G1 X16.981 Y-3.834 E248.76019
G1 X16.807 Y-2.235 E248.86718
G1 X15.132 Y-.977 E249.00653
G1 X14.755 Y-.881 E249.03241
G1 X12.138 Y-0.008 E249.21592
G1 X11.028 Y1.24 E249.32702
G1 X10.622 Y3.113 E249.45451
G1 X10.341 Y4.583 E249.55407
G1 X10.158 Y4.825 E249.57425
G1 X9.119 Y5.756 E249.66705
G1 X7.53 Y6.112 E249.77537
G1 X7.246 Y6.157 E249.7945
G1 X3.802 Y6.557 E250.02513
G1 X3.093 Y6.644 E250.07265
G1 X1.267 Y6.918 E250.19548
G1 X0.24 Y7.131 E250.26525
G0 F7200 X-14.395 Y0.877
G1 F1800 X-15.374 Y-.101 E250.3573
G1 X-15.444 Y-.171
G0 F7200 X-15.817 Y-1.11
G1 F1800 X-13.546 Y1.161 E250.57094
G1 X-13.476 Y1.231
G0 F7200 X-12.708 Y1.433
G1 F1800 X-15.928 Y-1.786 E250.87381
G0 F7200 X-15.863 Y-2.286
G1 F1800 X-11.872 Y1.704 E251.24921
G1 X-11.802 Y1.774
G0 F7200 X-11.035 Y1.974
G1 F1800 X-15.598 Y-2.587 E251.67838
G0 F7200 X-15.342 Y-2.897
G1 F1800 X-10.235 Y2.209 E252.15877
G1 X-10.165 Y2.279
G0 F7200 X-9.208 Y2.67
G1 F1800 X-15.086 Y-3.207 E252.71169
G0 F7200 X-14.83 Y-3.516
G1 F1800 X-3.597 Y7.716 E253.76837
G0 F7200 X-4.06 Y7.819
G1 F1800 X-8.605 Y3.273 E254.19598
G1 X-8.675 Y3.203
G0 F7200 X-8.172 Y4.272
G1 F1800 X-4.514 Y7.93 E254.5401
G0 F7200 X-5.055 Y7.955
G1 F1800 X-8.02 Y4.99 E254.81903
G1 X-8.09 Y4.92
G0 F7200 X-7.735 Y5.841
G1 F1800 X-5.844 Y7.732 E254.99693
G1 X-5.774 Y7.802
G0 F7200 X-3.119 Y7.628
G1 F1800 X-14.567 Y-3.819 E256.07384
G0 F7200 X-14.296 Y-4.114
G1 F1800 X-2.641 Y7.541 E257.17027
G0 F7200 X-2.168 Y7.447
G1 F1800 X-14.026 Y-4.409 E258.2857
G0 F7200 X-13.755 Y-4.704
G1 F1800 X-1.702 Y7.348 E259.41953
G0 F7200 X-1.235 Y7.249
G1 F1800 X-13.458 Y-4.973 E260.56935
G0 F7200 X-13.151 Y-5.231
G1 F1800 X-.767 Y7.151 E261.73426
G0 F7200 X-.297 Y7.056
G1 F1800 X-1.897 Y5.456 E261.88478
G1 X-2.002 Y5.351
G1 X-12.925 Y-5.571 E262.9123
G0 F7200 X-12.684 Y-5.896
G1 F1800 X-1.911 Y4.876 E263.92571
G0 F7200 X-1.82 Y4.402
G1 F1800 X-12.436 Y-6.214 E264.9244
G0 F7200 X-12.367 Y-6.71
G1 F1800 X-1.728 Y3.928 E265.92521
G0 F7200 X-1.636 Y3.454
G1 F1800 X-12.43 Y-7.339 E266.94059
G1 X-12.5 Y-7.409
G0 F7200 X-14.097 Y-9.572
G1 F1800 X-1.545 Y2.979 E268.12136
G0 F7200 X-1.454 Y2.505
G1 F1800 X-14.192 Y-10.232 E269.31963
G0 F7200 X-14.255 Y-10.861
G1 F1800 X-1.269 Y2.124 E270.54122
G0 F7200 X-1.027 Y1.801
G1 F1800 X-14.248 Y-11.419 E271.78493
G0 F7200 X-14.214 Y-11.951
G1 F1800 X-.785 Y1.477 E273.0482
G0 F7200 X-.543 Y1.153
G1 F1800 X-14 Y-12.303 E274.3141
G0 F7200 X-13.771 Y-12.64
G1 F1800 X-.301 Y0.829 E275.58123
G0 F7200 X0.163 Y0.729
G1 F1800 X-13.542 Y-12.976 E276.87051
G0 F7200 X-13.291 Y-13.291
G1 F1800 X0.698 Y0.698 E278.18651
G0 F7200 X1.234 Y0.668
G1 F1800 X-12.921 Y-13.487 E279.51813
G0 F7200 X-12.552 Y-13.683
G1 F1800 X1.77 Y0.639 E280.86545
G0 F7200 X2.306 Y0.609
G1 F1800 X-12.15 Y-13.847 E282.22539
G0 F7200 X-11.579 Y-13.842
G1 F1800 X2.842 Y0.579 E283.58202
G0 F7200 X3.232 Y0.404
G1 F1800 X-10.789 Y-13.618 E284.90108
G1 X-10.859 Y-13.688
G0 F7200 X-9.953 Y-13.348
G1 F1800 X3.528 Y0.134 E286.16934
G0 F7200 X3.841 Y-.118
G1 F1800 X-9.117 Y-13.077 E287.38839
G0 F7200 X-8.406 Y-12.932
G1 F1800 X4.277 Y-.247 E288.58163
G0 F7200 X4.955 Y-.135
G1 F1800 X-7.704 Y-12.795 E289.77256
G0 F7200 X-7.002 Y-12.659
G1 F1800 X5.632 Y-0.024 E290.96113
G0 F7200 X6.31 Y0.087
G1 F1800 X-6.614 Y-12.836 E292.1769
G0 F7200 X-6.237 Y-13.025
G1 F1800 X10.352 Y3.564 E293.73749
G0 F7200 X10.262 Y4.039
G1 F1800 X6.796 Y0.573 E294.06355
G1 X6.726 Y0.503
G0 F7200 X7.219 Y1.562
G1 F1800 X10.168 Y4.512 E294.34102
G0 F7200 X9.903 Y4.811
G1 F1800 X7.581 Y2.49 E294.55941
G0 F7200 X7.489 Y2.964
G1 F1800 X9.603 Y5.078 E294.75828
G0 F7200 X9.305 Y5.345
G1 F1800 X7.202 Y3.242 E294.95612
G0 F7200 X6.915 Y3.521
G1 F1800 X8.992 Y5.598 E295.15151
G0 F7200 X8.53 Y5.702
G1 F1800 X6.639 Y3.811 E295.32941
G0 F7200 X6.371 Y4.108
G1 F1800 X8.068 Y5.806 E295.4891
G0 F7200 X7.607 Y5.909
G1 F1800 X6.006 Y4.309 E295.63966
G0 F7200 X5.596 Y4.465
G1 F1800 X7.121 Y5.989 E295.78308
G0 F7200 X6.614 Y6.048
G1 F1800 X5.187 Y4.621 E295.91732
G0 F7200 X4.745 Y4.745
G1 F1800 X6.107 Y6.107 E296.04545
G0 F7200 X5.6 Y6.166
G1 F1800 X4.285 Y4.85 E296.1692
G0 F7200 X3.824 Y4.956
G1 F1800 X5.093 Y6.225 E296.28858
G0 F7200 X4.587 Y6.284
G1 F1800 X3.353 Y5.05 E296.40467
G0 F7200 X2.827 Y5.09
G1 F1800 X4.08 Y6.342 E296.5225
G0 F7200 X3.574 Y6.402
G1 F1800 X2.303 Y5.131 E296.64206
G0 F7200 X1.777 Y5.171
G1 F1800 X3.07 Y6.465 E296.76375
G0 F7200 X2.578 Y6.538
G1 F1800 X1.252 Y5.212 E296.88849
G0 F7200 X0.727 Y5.253
G1 F1800 X2.086 Y6.612 E297.01634
G0 F7200 X1.594 Y6.685
G1 F1800 X0.202 Y5.294 E297.14724
G0 F7200 X-.322 Y5.334
G1 F1800 X1.108 Y6.765 E297.28181
G0 F7200 X0.64 Y6.863
G1 F1800 X-.847 Y5.375 E297.42175
G0 F7200 X-1.372 Y5.415
G1 F1800 X0.171 Y6.96 E297.567
G1 X0.241 Y7.03
G0 F7200 X10.443 Y3.089
G1 F1800 X-5.86 Y-13.214 E299.10069
G0 F7200 X-5.589 Y-13.509
G1 F1800 X10.544 Y2.624 E300.61838
G0 F7200 X10.644 Y2.159
G1 F1800 X-5.352 Y-13.838 E302.12323
G0 F7200 X-5.146 Y-14.197
G1 F1800 X10.745 Y1.694 E303.61816
G0 F7200 X10.846 Y1.229
G1 F1800 X-4.871 Y-14.487 E305.09667
G0 F7200 X-4.589 Y-14.772
G1 F1800 X11.086 Y0.903 E306.57128
G0 F7200 X11.351 Y0.603
G1 F1800 X-4.305 Y-15.053 E308.0441
G0 F7200 X-4.02 Y-15.334
G1 F1800 X11.618 Y0.304 E309.51523
G0 F7200 X11.885 Y0.005
G1 F1800 X-3.736 Y-15.615 E310.98471
G0 F7200 X-3.421 Y-15.866
G1 F1800 X12.219 Y-.225 E312.45607
G0 F7200 X12.643 Y-.366
G1 F1800 X-3.025 Y-16.035 E313.93007
G0 F7200 X-2.492 Y-16.069
G1 F1800 X13.068 Y-.508 E315.3939
G0 F7200 X13.491 Y-.65
G1 F1800 X-1.857 Y-15.999 E316.8378
G1 X-1.927 Y-16.069
G0 F7200 X-1.03 Y-15.738
G1 F1800 X13.915 Y-.791 E318.24382
G0 F7200 X14.34 Y-.933
G1 F1800 X-.167 Y-15.441 E319.6086
G1 X-.237 Y-15.511
G0 F7200 X0.639 Y-15.199
G1 F1800 X14.767 Y-1.071 E320.93768
G0 F7200 X15.171 Y-1.233
G1 F1800 X1.438 Y-14.966 E322.22959
G0 F7200 X2.202 Y-14.767
G1 F1800 X15.494 Y-1.475 E323.48002
G0 F7200 X15.817 Y-1.718
G1 F1800 X2.967 Y-14.568 E324.68887
G0 F7200 X3.726 Y-14.375
G1 F1800 X16.14 Y-1.961 E325.8567
G0 F7200 X16.463 Y-2.204
G1 F1800 X4.481 Y-14.185 E326.98385
G0 F7200 X5.243 Y-13.99
G1 F1800 X16.661 Y-2.571 E328.05803
G0 F7200 X16.717 Y-3.081
G1 F1800 X6.028 Y-13.77 E329.06359
G1 X5.958 Y-13.84
G0 F7200 X6.829 Y-13.535
G1 F1800 X16.773 Y-3.591 E329.99906
G0 F7200 X16.585 Y-4.344
G1 F1800 X7.586 Y-13.343 E330.84563
G0 F7200 X8.287 Y-13.208
G1 F1800 X12.186 Y-9.309 E331.21242
G1 X12.256 Y-9.239
G0 F7200 X12.885 Y-8.61
G1 F1800 X16.216 Y-5.279 E331.52578
G1 X16.286 Y-5.209
G0 F7200 X15.848 Y-6.213
G1 F1800 X14.374 Y-7.687 E331.66445
G1 X14.304 Y-7.757
G0 F7200 X11.797 Y-10.264
G1 F1800 X8.942 Y-13.118 E331.93298
G1 X8.872 Y-13.188
G0 F7200 X9.912 Y-12.714
G1 F1800 X11.35 Y-11.276 E332.06826
G1 X11.42 Y-11.206
;MESH:NONMESH
G0 F600 X11.42 Y-11.206 Z2.3
G0 F7200 X-9.125 Y3.175
;TIME_ELAPSED:176.635422
;LAYER:5
;TYPE:WALL-INNER
;MESH:bunny.stl
G1 F3600 X-9.516 Y2.962 E332.09788
G1 X-10.406 Y2.58 E332.16231
G1 X-11.071 Y2.418 E332.20784
G1 X-11.345 Y2.341 E332.22677
G1 X-13.841 Y1.529 E332.40137
G1 X-14.687 Y1.167 E332.46258
G1 X-14.897 Y1.04 E332.4789
G1 X-15.36 Y0.608 E332.52103
G1 X-15.825 Y-0.021 E332.57306
G1 X-16.118 Y-.509 E332.61092
G1 X-16.205 Y-.937 E332.63998
G1 X-16.285 Y-1.811 E332.69836
G1 X-16.307 Y-2.338 E332.73345
G1 X-16.134 Y-2.693 E332.75972
G1 X-15.851 Y-2.95 E332.78514
G1 X-15.144 Y-3.751 E332.85621
G1 X-14.352 Y-4.619 E332.93438
G1 X-13.752 Y-5.089 E332.98508
G1 X-13.099 Y-5.68 E333.04366
G1 X-12.679 Y-6.462 E333.10271
G1 X-12.719 Y-6.802 E333.12548
G1 X-12.691 Y-6.979 E333.1374
G1 X-12.748 Y-7.349 E333.16231
G1 X-13.132 Y-7.763 E333.19987
G1 X-13.531 Y-8.154 E333.23703
G1 X-14.026 Y-8.629 E333.28266
G1 X-14.453 Y-9.086 E333.32427
G1 X-14.493 Y-9.239 E333.33479
G1 X-14.675 Y-10.374 E333.41125
G1 X-14.751 Y-10.934 E333.44885
G1 X-14.736 Y-11.353 E333.47674
G1 X-14.693 Y-11.914 E333.51416
G1 X-14.446 Y-12.444 E333.55306
G1 X-13.7 Y-13.54 E333.64125
G1 X-13.364 Y-13.762 E333.66804
G1 X-11.918 Y-14.532 E333.77702
G1 X-11.5 Y-14.428 E333.80567
G1 X-8.986 Y-13.604 E333.98166
G1 X-8.255 Y-13.413 E334.03192
G1 X-6.976 Y-13.166 E334.11857
G1 X-6.139 Y-13.619 E334.18188
G1 X-5.904 Y-13.93 E334.20781
G1 X-5.605 Y-14.54 E334.253
G1 X-5.418 Y-14.886 E334.27916
G1 X-4.981 Y-15.326 E334.32041
G1 X-3.737 Y-16.304 E334.42567
G1 X-2.841 Y-16.567 E334.48779
G1 X-2.087 Y-16.724 E334.53902
G1 X-1.574 Y-16.58 E334.57446
G1 X0.988 Y-15.692 E334.75484
G1 X1.965 Y-15.372 E334.82322
G1 X3.102 Y-15.077 E334.90136
G1 X6.006 Y-14.347 E335.10055
G1 X6.395 Y-14.233 E335.12751
G1 X7.679 Y-13.957 E335.21487
G1 X8.649 Y-13.79 E335.28035
G1 X9.418 Y-13.7 E335.33185
G1 X9.707 Y-13.662 E335.35124
G1 X10.389 Y-13.332 E335.40164
G1 X10.884 Y-13.051 E335.4395
G1 X11.719 Y-12.572 E335.50354
G1 X11.816 Y-12.503 E335.51146
G1 X12.053 Y-11.984 E335.54941
G1 X12.981 Y-9.615 E335.71865
G1 X13.378 Y-9.331 E335.75112
G1 X13.901 Y-8.968 E335.79347
G1 X14.132 Y-8.827 E335.81148
G1 X15.733 Y-7.868 E335.93562
G1 X16.774 Y-7.339 E336.0133
G1 X16.862 Y-7.297 E336.01978
G1 X17.291 Y-6.558 E336.07662
G1 X18.257 Y-4.111 E336.25162
G1 X18.13 Y-2.93 E336.33064
G1 X17.881 Y-2.008 E336.39416
G1 X17.463 Y-1.603 E336.43288
G1 X15.95 Y-.465 E336.55882
G1 X14.43 Y-0.084 E336.66306
G1 X12.756 Y0.476 E336.78048
G1 X11.797 Y1.554 E336.87645
G1 X11.621 Y1.712 E336.89219
G1 X11.498 Y2.013 E336.91382
G1 X10.999 Y4.644 E337.09195
G1 X10.637 Y5.117 E337.13157
G1 X10.405 Y5.428 E337.15738
G1 X9.578 Y6.169 E337.23125
G1 X8.176 Y6.482 E337.32681
G1 X7.696 Y6.627 E337.36016
G1 X7.288 Y6.589 E337.38742
G1 X6.59 Y6.669 E337.43415
G1 X5.906 Y6.761 E337.48006
G1 X3.644 Y7.026 E337.63156
G1 X2.93 Y7.125 E337.67951
G1 X1.098 Y7.4 E337.80274
G1 X-.375 Y7.698 E337.90271
G1 X-1.634 Y7.965 E337.98832
G1 X-3.028 Y8.243 E338.08288
G1 X-4.442 Y8.513 E338.17864
G1 X-4.783 Y8.493 E338.20136
G1 X-5.787 Y8.28 E338.26963
G1 X-6.724 Y7.642 E338.34504
G1 X-7.352 Y6.884 E338.41052
G1 X-8.284 Y5.825 E338.50436
G1 X-8.391 Y5.497 E338.52731
G1 X-8.575 Y4.491 E338.59534
G1 X-8.94 Y3.556 E338.66211
G1 X-9.125 Y3.175 E338.69028
G0 F7200 X-9.053 Y3.106
G0 X-7.135 Y-13.096
G0 X-7.041 Y-13.586
;TYPE:WALL-OUTER
G1 F1800 X-6.406 Y-13.93 E338.73832
G1 X-6.246 Y-14.141 E338.75593
G1 X-5.957 Y-14.731 E338.79964
G1 X-5.743 Y-15.126 E338.82952
G1 X-5.252 Y-15.621 E338.8759
G1 X-3.922 Y-16.667 E338.98845
G1 X-2.932 Y-16.957 E339.05708
G1 X-2.112 Y-17.128 E339.1128
G1 X-1.882 Y-17.106 E339.12817
G1 X-1.443 Y-16.958 E339.15898
G1 X1.116 Y-16.071 E339.33915
G1 X2.078 Y-15.756 E339.40648
G1 X3.201 Y-15.465 E339.48365
G1 X6.104 Y-14.735 E339.68277
G1 X6.493 Y-14.621 E339.70974
G1 X7.755 Y-14.35 E339.7956
G1 X8.706 Y-14.186 E339.85979
G1 X9.47 Y-14.097 E339.91096
G1 X9.821 Y-14.051 E339.93451
G1 X10.582 Y-13.683 E339.99074
G1 X11.082 Y-13.399 E340.02899
G1 X11.94 Y-12.907 E340.09478
G1 X12.136 Y-12.766 E340.11084
G1 X12.417 Y-12.15 E340.15588
G1 X13.31 Y-9.871 E340.3187
G1 X13.608 Y-9.658 E340.34307
G1 X14.12 Y-9.303 E340.38451
G1 X14.339 Y-9.169 E340.40159
G1 X15.927 Y-8.218 E340.52472
G1 X16.95 Y-7.698 E340.60106
G1 X17.146 Y-7.605 E340.61549
G1 X17.652 Y-6.734 E340.68249
G1 X18.666 Y-4.165 E340.86621
G1 X18.525 Y-2.859 E340.95359
G1 X18.238 Y-1.796 E341.02684
G1 X17.725 Y-1.3 E341.0743
G1 X16.126 Y-0.097 E341.20741
G1 X14.542 Y0.3 E341.31604
G1 X12.984 Y0.821 E341.42532
G1 X12.086 Y1.832 E341.51527
G1 X11.957 Y1.948 E341.52681
G1 X11.884 Y2.127 E341.53967
G1 X11.374 Y4.812 E341.72147
G1 X10.956 Y5.358 E341.76721
G1 X10.702 Y5.699 E341.79549
G1 X9.768 Y6.536 E341.87892
G1 X8.278 Y6.869 E341.98048
G1 X7.738 Y7.033 E342.01802
G1 X7.292 Y6.991 E342.04782
G1 X6.639 Y7.066 E342.09155
G1 X5.953 Y7.158 E342.13759
G1 X3.695 Y7.423 E342.28882
G1 X2.987 Y7.521 E342.33637
G1 X1.167 Y7.794 E342.45879
G1 X-.294 Y8.09 E342.55795
G1 X-1.556 Y8.357 E342.64376
G1 X-2.953 Y8.636 E342.73852
G1 X-4.414 Y8.915 E342.83746
G1 X-4.837 Y8.89 E342.86565
G1 X-5.948 Y8.654 E342.9412
G1 X-6.995 Y7.942 E343.02543
G1 X-7.656 Y7.144 E343.09436
G1 X-8.639 Y6.027 E343.19333
G1 X-8.779 Y5.597 E343.22342
G1 X-8.962 Y4.601 E343.29078
G1 X-9.307 Y3.716 E343.35396
G1 X-9.429 Y3.465 E343.37253
G1 X-9.691 Y3.322 E343.39238
G1 X-10.533 Y2.961 E343.45332
G1 X-11.171 Y2.806 E343.497
G1 X-11.454 Y2.726 E343.51656
G1 X-13.99 Y1.901 E343.69396
G1 X-14.845 Y1.534 E343.75585
G1 X-15.04 Y1.443 E343.77017
G1 X-15.17 Y1.333 E343.7815
G1 X-15.66 Y0.876 E343.82607
G1 X-16.147 Y0.217 E343.88057
G1 X-16.397 Y-.167 E343.91105
G1 X-16.5 Y-.379 E343.92673
G1 X-16.601 Y-.875 E343.9604
G1 X-16.685 Y-1.794 E344.02179
G1 X-16.708 Y-2.347 E344.05861
G1 X-16.695 Y-2.476 E344.06723
G1 X-16.457 Y-2.939 E344.10186
G1 X-16.137 Y-3.231 E344.13068
G1 X-15.444 Y-4.016 E344.20033
G1 X-14.623 Y-4.915 E344.28132
G1 X-14.01 Y-5.395 E344.33311
G1 X-13.419 Y-5.93 E344.38614
G1 X-13.091 Y-6.541 E344.43227
G1 X-13.122 Y-6.809 E344.45022
G1 X-13.096 Y-6.979 E344.46166
G1 X-13.125 Y-7.167 E344.47431
G1 X-13.419 Y-7.484 E344.50307
G1 X-13.809 Y-7.867 E344.53943
G1 X-14.303 Y-8.34 E344.58493
G1 X-14.665 Y-8.724 E344.62003
G1 X-14.815 Y-8.89 E344.63492
G1 X-14.885 Y-9.16 E344.65347
G1 X-15.07 Y-10.311 E344.73102
G1 X-15.152 Y-10.918 E344.77176
G1 X-15.135 Y-11.384 E344.80278
G1 X-15.086 Y-12.018 E344.84508
G1 X-14.796 Y-12.641 E344.89079
G1 X-13.987 Y-13.83 E344.98646
G1 X-13.569 Y-14.106 E345.01978
G1 X-11.97 Y-14.957 E345.14027
G1 X-11.392 Y-14.813 E345.17989
G1 X-8.873 Y-13.988 E345.35621
G1 X-8.166 Y-13.803 E345.40483
G1 X-7.041 Y-13.586 E345.48104
G0 F7200 X-6.866 Y-13.681
G0 X-6.913 Y-12.757
;TYPE:SKIN
G1 F1800 X-5.879 Y-13.317 E345.55926
G1 X-5.57 Y-13.725 E345.59331
G1 X-5.255 Y-14.368 E345.64094
G1 X-5.103 Y-14.649 E345.66219
G1 X-4.716 Y-15.039 E345.69874
G1 X-3.556 Y-15.951 E345.79689
G1 X-2.756 Y-16.186 E345.85236
G1 X-2.101 Y-16.323 E345.89687
G1 X-1.69 Y-16.207 E345.92528
G1 X0.863 Y-15.322 E346.10502
G1 X1.856 Y-14.998 E346.1745
G1 X3.006 Y-14.699 E346.25355
G1 X5.911 Y-13.969 E346.45279
G1 X6.299 Y-13.855 E346.4797
G1 X7.605 Y-13.574 E346.56856
G1 X8.593 Y-13.404 E346.63525
G1 X9.47 Y-13.301 E346.69399
G1 X9.591 Y-13.284 E346.70211
G1 X10.207 Y-12.987 E346.7476
G1 X11.504 Y-12.246 E346.84697
G1 X11.698 Y-11.822 E346.87799
G1 X12.66 Y-9.365 E347.05351
G1 X13.154 Y-9.013 E347.09386
G1 X13.688 Y-8.641 E347.13715
G1 X13.931 Y-8.493 E347.15608
G1 X15.544 Y-7.527 E347.28114
G1 X16.586 Y-6.998 E347.35888
G1 X16.937 Y-6.393 E347.40541
G1 X17.859 Y-4.057 E347.57246
G1 X17.745 Y-2.999 E347.64325
G1 X17.534 Y-2.215 E347.69726
G1 X17.207 Y-1.899 E347.7275
G1 X15.778 Y-.823 E347.8465
G1 X14.321 Y-.459 E347.9464
G1 X12.534 Y0.139 E348.07175
G1 X11.524 Y1.275 E348.17286
G1 X11.294 Y1.482 E348.19344
G1 X11.122 Y1.902 E348.22364
G1 X10.633 Y4.479 E348.39812
G1 X10.325 Y4.882 E348.43186
G1 X10.116 Y5.164 E348.45521
G1 X9.392 Y5.811 E348.5198
G1 X8.077 Y6.104 E348.60942
G1 X7.656 Y6.232 E348.63869
G1 X7.284 Y6.197 E348.66354
G1 X6.542 Y6.282 E348.71322
G1 X5.861 Y6.373 E348.75892
G1 X3.595 Y6.64 E348.9107
G1 X2.874 Y6.739 E348.95911
G1 X1.03 Y7.016 E349.08315
G1 X-.455 Y7.316 E349.18393
G1 X-1.714 Y7.583 E349.26954
G1 X-3.103 Y7.86 E349.36376
G1 X-4.465 Y8.121 E349.45601
G1 X-4.732 Y8.105 E349.4738
G1 X-5.632 Y7.914 E349.535
G1 X-6.459 Y7.35 E349.60159
G1 X-7.056 Y6.631 E349.66376
G1 X-7.938 Y5.627 E349.75265
G1 X-8.012 Y5.402 E349.76841
G1 X-8.198 Y4.384 E349.83725
G1 X-8.583 Y3.4 E349.90754
G1 X-8.829 Y2.892 E349.94508
G1 X-9.346 Y2.611 E349.98422
G1 X-10.282 Y2.209 E350.05199
G1 X-10.953 Y2.046 E350.09792
G1 X-11.232 Y1.967 E350.11721
G1 X-13.7 Y1.165 E350.28983
G1 X-14.513 Y0.817 E350.34866
G1 X-14.66 Y0.728 E350.36009
G1 X-15.066 Y0.349 E350.39703
G1 X-15.506 Y-.246 E350.44626
G1 X-15.75 Y-.652 E350.47777
G1 X-15.819 Y-.996 E350.50111
G1 X-15.895 Y-1.827 E350.55662
G1 X-15.913 Y-2.255 E350.58511
G1 X-15.815 Y-2.456 E350.59999
G1 X-15.573 Y-2.675 E350.6217
G1 X-14.856 Y-3.488 E350.69381
G1 X-14.085 Y-4.333 E350.7699
G1 X-13.501 Y-4.791 E350.81927
G1 X-12.787 Y-5.436 E350.88327
G1 X-12.277 Y-6.386 E350.955
G1 X-12.325 Y-6.798 E350.98259
G1 X-12.297 Y-6.979 E350.99477
G1 X-12.381 Y-7.526 E351.03159
G1 X-12.853 Y-8.035 E351.07776
G1 X-13.26 Y-8.434 E351.11568
G1 X-13.748 Y-8.903 E351.1607
G1 X-14.101 Y-9.282 E351.19515
G1 X-14.112 Y-9.321 E351.19785
G1 X-14.291 Y-10.436 E351.27297
G1 X-14.36 Y-10.949 E351.3074
G1 X-14.311 Y-11.814 E351.36503
G1 X-14.108 Y-12.247 E351.39684
G1 X-13.422 Y-13.256 E351.47801
G1 X-13.165 Y-13.426 E351.4985
G1 X-11.865 Y-14.117 E351.59644
G1 X-11.614 Y-14.055 E351.61364
G1 X-9.096 Y-13.23 E351.7899
G1 X-8.341 Y-13.033 E351.8418
G1 X-6.913 Y-12.757 E351.93855
G0 F7200 X-12.387 Y-13.633
G1 F1800 X-14.026 Y-11.995 E352.09269
G0 F7200 X-14.159 Y-11.296
G1 F1800 X-11.596 Y-13.859 E352.3338
G0 F7200 X-11.17 Y-13.719
G1 F1800 X-14.149 Y-10.74 E352.61405
G0 F7200 X-14.077 Y-10.246
G1 F1800 X-10.744 Y-13.579 E352.92759
G0 F7200 X-10.318 Y-13.44
G1 F1800 X-13.999 Y-9.759 E353.27388
G0 F7200 X-13.881 Y-9.311
G1 F1800 X-9.891 Y-13.301 E353.64924
G0 F7200 X-9.466 Y-13.161
G1 F1800 X-13.608 Y-9.019 E354.03889
G0 F7200 X-13.319 Y-8.741
G1 F1800 X-9.033 Y-13.027 E354.44209
G0 F7200 X-8.585 Y-12.91
G1 F1800 X-13.032 Y-8.463 E354.86044
G0 F7200 X-12.747 Y-8.182
G1 F1800 X-8.122 Y-12.807 E355.29553
G0 F7200 X-7.648 Y-12.715
G1 F1800 X-12.474 Y-7.89 E355.74948
G0 F7200 X-12.208 Y-7.59
G1 F1800 X-7.175 Y-12.623 E356.22295
G0 F7200 X-6.406 Y-12.826
G1 F1800 X-12.132 Y-7.1 E356.76162
G0 F7200 X-12.114 Y-6.553
G1 F1800 X-2.643 Y-16.024 E357.6526
G0 F7200 X-1.995 Y-16.106
G1 F1800 X-12.483 Y-5.617 E358.63929
G1 X-12.553 Y-5.547
G0 F7200 X-13.68 Y-4.421
G1 F1800 X-14.577 Y-3.524 E358.72367
G1 X-14.647 Y-3.454
G0 F7200 X-15.713 Y-1.822
G1 F1800 X-1.564 Y-15.972 E360.05477
G0 F7200 X-1.144 Y-15.826
G1 F1800 X-15.665 Y-1.304 E361.42087
G0 F7200 X-15.597 Y-.807
G1 F1800 X-.723 Y-15.681 E362.82012
G0 F7200 X-.303 Y-15.535
G1 F1800 X-15.407 Y-.431 E364.24101
G0 F7200 X-15.173 Y-.1
G1 F1800 X0.116 Y-15.39 E365.67935
G0 F7200 X0.536 Y-15.244
G1 F1800 X-14.931 Y0.224 E367.13444
G0 F7200 X-14.642 Y0.499
G1 F1800 X0.958 Y-15.1 E368.60195
G0 F7200 X1.385 Y-14.962
G1 F1800 X-14.292 Y0.715 E370.07674
G0 F7200 X-13.896 Y0.885
G1 F1800 X1.812 Y-14.823 E371.55446
G0 F7200 X2.261 Y-14.706
G1 F1800 X-13.489 Y1.044 E373.03612
G0 F7200 X-13.062 Y1.182
G1 F1800 X2.709 Y-14.589 E374.51976
G0 F7200 X3.16 Y-14.473
G1 F1800 X-12.635 Y1.321 E376.00561
G0 F7200 X-12.208 Y1.46
G1 F1800 X3.611 Y-14.359 E377.49376
G0 F7200 X4.064 Y-14.246
G1 F1800 X-11.781 Y1.599 E378.98436
G0 F7200 X-11.354 Y1.738
G1 F1800 X4.516 Y-14.132 E380.47731
G0 F7200 X4.968 Y-14.019
G1 F1800 X-10.919 Y1.868 E381.97187
G0 F7200 X-10.465 Y1.979
G1 F1800 X5.42 Y-13.905 E383.46618
G0 F7200 X5.872 Y-13.792
G1 F1800 X-10.038 Y2.118 E384.9629
G0 F7200 X-9.642 Y2.288
G1 F1800 X6.313 Y-13.667 E386.46385
G0 F7200 X6.779 Y-13.567
G1 F1800 X-9.248 Y2.46 E387.97157
G0 F7200 X-8.881 Y2.659
G1 F1800 X7.244 Y-13.466 E389.48851
G0 F7200 X7.715 Y-13.372
G1 F1800 X-8.602 Y2.945 E391.02351
G0 F7200 X-8.418 Y3.326
G1 F1800 X8.198 Y-13.289 E392.5866
G0 F7200 X8.686 Y-13.211
G1 F1800 X-8.258 Y3.732 E394.18054
G0 F7200 X-8.099 Y4.139
G1 F1800 X9.192 Y-13.152 E395.80717
G0 F7200 X9.656 Y-13.051
G1 F1800 X-7.977 Y4.583 E397.46602
G0 F7200 X-7.889 Y5.06
G1 F1800 X10.039 Y-12.867 E399.15253
G0 F7200 X10.403 Y-12.666
G1 F1800 X-7.783 Y5.52 E400.86336
G0 F7200 X-7.522 Y5.825
G1 F1800 X10.763 Y-12.46 E402.5835
G0 F7200 X11.123 Y-12.254
G1 F1800 X-7.258 Y6.127 E404.31267
G0 F7200 X-6.993 Y6.427
G1 F1800 X11.422 Y-11.988 E406.04504
G0 F7200 X11.593 Y-11.593
G1 F1800 X-6.734 Y6.734 E407.76913
G0 F7200 X-6.477 Y7.043
G1 F1800 X11.752 Y-11.187 E409.48405
G0 F7200 X11.911 Y-10.78
G1 F1800 X-6.186 Y7.317 E411.18651
G0 F7200 X-5.849 Y7.546
G1 F1800 X12.071 Y-10.373 E412.87226
G0 F7200 X12.23 Y-9.967
G1 F1800 X-5.495 Y7.758 E414.53972
G0 F7200 X-5.028 Y7.857
G1 F1800 X12.389 Y-9.56 E416.17821
G0 F7200 X12.589 Y-9.195
G1 F1800 X-4.541 Y7.935 E417.78969
G0 F7200 X-3.862 Y7.822
G1 F1800 X12.919 Y-8.959 E419.36835
G0 F7200 X13.251 Y-8.725
G1 F1800 X-3.162 Y7.688 E420.91238
G0 F7200 X-2.456 Y7.547
G1 F1800 X13.584 Y-8.493 E422.42132
G0 F7200 X13.937 Y-8.28
G1 F1800 X-1.749 Y7.406 E423.89697
G0 F7200 X-1.03 Y7.253
G1 F1800 X14.29 Y-8.068 E425.33823
G0 F7200 X14.644 Y-7.855
G1 F1800 X-.315 Y7.103 E426.74543
G0 F7200 X0.393 Y6.96
G1 F1800 X14.998 Y-7.644 E428.11933
G0 F7200 X15.351 Y-7.432
G1 F1800 X1.095 Y6.824 E429.46045
G0 F7200 X1.761 Y6.723
G1 F1800 X15.721 Y-7.235 E430.77363
G0 F7200 X16.095 Y-7.044
G1 F1800 X2.426 Y6.624 E432.05947
G0 F7200 X3.088 Y6.528
G1 F1800 X16.464 Y-6.847 E433.31776
G0 F7200 X16.672 Y-6.489
G1 F1800 X3.74 Y6.441 E434.53423
G0 F7200 X4.381 Y6.366
G1 F1800 X16.856 Y-6.107 E435.70771
G0 F7200 X17.015 Y-5.702
G1 F1800 X5.023 Y6.289 E436.83579
G0 F7200 X5.665 Y6.214
G1 F1800 X17.175 Y-5.296 E437.91858
G0 F7200 X17.335 Y-4.89
G1 F1800 X12.477 Y-0.032 E438.37559
G0 F7200 X12.181 Y0.263
G1 F1800 X6.314 Y6.13 E438.92753
G0 F7200 X6.957 Y6.053
G1 F1800 X10.897 Y2.112 E439.29822
G0 F7200 X10.765 Y2.81
G1 F1800 X7.536 Y6.04 E439.60204
G0 F7200 X8.263 Y5.878
G1 F1800 X10.633 Y3.508 E439.82499
G0 F7200 X10.501 Y4.206
G1 F1800 X8.992 Y5.715 E439.96695
G1 X8.922 Y5.785
G0 F7200 X11.589 Y1.689
G0 X13.326 Y-.316
G1 F1800 X17.495 Y-4.484 E440.35909
G0 F7200 X17.655 Y-4.078
G1 F1800 X14.176 Y-.6 E440.68633
G0 F7200 X14.941 Y-.799
G1 F1800 X17.614 Y-3.471 E440.93774
G0 F7200 X17.503 Y-2.795
G1 F1800 X15.696 Y-.988 E441.10773
G1 X15.626 Y-.918
G0 F7200 X-3.435 Y-15.797
G1 F1800 X-5.235 Y-13.997 E441.27707
G1 X-5.305 Y-13.927
;MESH:NONMESH
G0 F600 X-5.305 Y-13.927 Z2.7
G0 F7200 X-6.85 Y-13.088
;TIME_ELAPSED:232.095970
;LAYER:6
;TYPE:WALL-INNER
;MESH:bunny.stl
G1 F3600 X-6.244 Y-13.418 E441.32297
G1 X-5.761 Y-14.056 E441.3762
G1 X-5.317 Y-14.844 E441.43636
G1 X-5.275 Y-14.904 E441.44124
G1 X-4.361 Y-15.771 E441.52504
G1 X-3.929 Y-16.111 E441.56161
G1 X-2.494 Y-16.532 E441.66109
G1 X-1.916 Y-16.653 E441.70037
G1 X2.423 Y-15.233 E442.00406
G1 X3.049 Y-15.046 E442.04752
G1 X5.485 Y-14.424 E442.21477
G1 X6.198 Y-14.303 E442.26287
G1 X7.251 Y-14.075 E442.33454
G1 X8.298 Y-13.903 E442.40512
G1 X8.668 Y-13.83 E442.43021
G1 X9.228 Y-13.773 E442.46765
G1 X10.02 Y-13.674 E442.52075
G1 X10.295 Y-13.54 E442.5411
G1 X11.376 Y-12.925 E442.62383
G1 X12.182 Y-12.382 E442.68848
G1 X12.211 Y-12.351 E442.6913
G1 X13.196 Y-9.841 E442.87066
G1 X13.767 Y-9.428 E442.91754
G1 X13.915 Y-9.327 E442.92946
G1 X14.807 Y-8.783 E442.99896
G1 X15.407 Y-8.423 E443.0455
G1 X16.679 Y-7.971 E443.1353
G1 X17.291 Y-7.679 E443.18041
G1 X18.924 Y-4.868 E443.39666
G1 X19.136 Y-4.333 E443.43494
G1 X19.116 Y-4.15 E443.44719
G1 X18.534 Y-1.993 E443.5958
G1 X17.515 Y-1.007 E443.69012
G1 X16.592 Y-.313 E443.76694
G1 X13.995 Y0.34 E443.94507
G1 X13.153 Y0.621 E444.00412
G1 X12.686 Y1.145 E444.05081
G1 X12.233 Y1.525 E444.09014
G1 X12.017 Y1.745 E444.11065
G1 X11.871 Y2.085 E444.13526
G1 X11.648 Y2.652 E444.17579
G1 X11.289 Y4.546 E444.30402
G1 X10.72 Y5.291 E444.36638
G1 X10.361 Y5.77 E444.4062
G1 X9.857 Y6.222 E444.45124
G1 X8.951 Y6.424 E444.51298
G1 X7.845 Y6.759 E444.58986
G1 X7.663 Y6.727 E444.60215
G1 X6.909 Y6.673 E444.65243
G1 X5.511 Y6.835 E444.74605
G1 X4.213 Y7.009 E444.83317
G1 X4.008 Y7.039 E444.84695
G1 X1.971 Y7.321 E444.98374
G1 X0.927 Y7.477 E445.05396
G1 X0.086 Y7.647 E445.11104
G1 X-.625 Y7.798 E445.15939
G1 X-1.399 Y7.952 E445.21188
G1 X-2.505 Y8.143 E445.28654
G1 X-4.148 Y8.471 E445.39799
G1 X-5.74 Y8.129 E445.50631
G1 X-6.34 Y7.721 E445.55457
G1 X-7.175 Y6.713 E445.64164
G1 X-8.09 Y5.676 E445.73364
G1 X-8.169 Y5.477 E445.74788
G1 X-8.238 Y5.095 E445.7737
G1 X-8.349 Y4.348 E445.82394
G1 X-8.69 Y3.636 E445.87645
G1 X-8.93 Y3.104 E445.91528
G1 X-9.412 Y2.836 E445.95196
G1 X-9.643 Y2.748 E445.96841
G1 X-10.568 Y2.342 E446.0356
G1 X-11.648 Y2.108 E446.10911
G1 X-13.897 Y1.144 E446.27188
G1 X-14.402 Y0.91 E446.3089
G1 X-14.741 Y0.624 E446.33841
G1 X-15.919 Y-.476 E446.44562
G1 X-16.051 Y-1.502 E446.51443
G1 X-16.059 Y-2.221 E446.56226
G1 X-16.051 Y-2.319 E446.56881
G1 X-15.88 Y-2.713 E446.59738
G1 X-15.543 Y-3.015 E446.62748
G1 X-15.073 Y-3.545 E446.6746
G1 X-14.569 Y-4.098 E446.72437
G1 X-13.855 Y-4.649 E446.78436
G1 X-13.512 Y-4.889 E446.81221
G1 X-12.725 Y-5.515 E446.8791
G1 X-12.292 Y-6.469 E446.9488
G1 X-12.457 Y-6.98 E446.98452
G1 X-12.493 Y-7.458 E447.0164
G1 X-13.058 Y-8.028 E447.06979
G1 X-13.545 Y-8.56 E447.11777
G1 X-13.935 Y-8.974 E447.1556
G1 X-14.307 Y-9.383 E447.19238
G1 X-14.47 Y-10.014 E447.23573
G1 X-14.59 Y-10.758 E447.28586
G1 X-14.637 Y-11.1 E447.30883
G1 X-14.602 Y-11.686 E447.34788
G1 X-14.137 Y-12.687 E447.4213
G1 X-13.653 Y-13.396 E447.4784
G1 X-13.069 Y-13.782 E447.52497
G1 X-12.036 Y-14.332 E447.60282
G1 X-11.171 Y-14.166 E447.66141
G1 X-10.604 Y-14.031 E447.70018
G1 X-9.246 Y-13.644 E447.79411
G1 X-9.108 Y-13.623 E447.80339
G1 X-7.68 Y-13.248 E447.90161
G1 X-6.85 Y-13.088 E447.95783
G0 F7200 X-6.835 Y-12.99
G0 X-8.997 Y2.953
G0 X-9.24 Y3.389
;TYPE:WALL-OUTER
G1 F1800 X-9.581 Y3.2 E447.98377
G1 X-9.791 Y3.12 E447.99872
G1 X-10.692 Y2.725 E448.06416
G1 X-11.725 Y2.502 E448.13446
G1 X-11.792 Y2.482 E448.13911
G1 X-14.055 Y1.512 E448.30289
G1 X-14.62 Y1.25 E448.34432
G1 X-14.999 Y0.93 E448.37731
G1 X-16.298 Y-.283 E448.49554
G1 X-16.451 Y-1.472 E448.57528
G1 X-16.459 Y-2.236 E448.62611
G1 X-16.445 Y-2.417 E448.63818
G1 X-16.213 Y-2.95 E448.67685
G1 X-15.827 Y-3.297 E448.71138
G1 X-15.369 Y-3.814 E448.75732
G1 X-14.841 Y-4.394 E448.8095
