;FLAVOR:Marlin
;TIME:3311
;Filament used: 9.70713m
;Layer height: 0.6
;MINX:-24.204
;MINY:-18.593
;MINZ:0.3
;MAXX:24.17
;MAXY:18.59
;MAXZ:47.7
;Generated with Cura_SteamEngine 4.13.1
M104 S200
M105
M109 S200
M82 ;absolute extrusion mode

G92 E0
G92 E0
;LAYER_COUNT:80
;LAYER:0
M107
;MESH:bunny.stl
G0 F3600 X-10.477 Y1.308 Z0.3
;TYPE:WALL-INNER
G1 F1722 X-10.003 Y2.356 E0.05738
G1 X-9.437 Y3.321 E0.1132
G1 X-9.342 Y3.673 E0.13139
G1 X-9.968 Y2.606 E0.1681
G1 X-11.505 Y2.104 E0.24877
G1 X-11.951 Y1.977 E0.27191
G1 X-12.792 Y1.429 E0.32199
G1 X-13.246 Y0.994 E0.35335
G1 X-13.29 Y-.289 E0.4174
G1 X-13.954 Y-1.437 E0.48357
G1 X-14.218 Y-2.15 E0.5215
G1 X-13.583 Y-4.506 E0.64323
G1 X-13.284 Y-5.455 E0.69287
G1 X-13.049 Y-5.842 E0.71546
G1 X-11.332 Y-6.466 E0.8066
G1 X-11.112 Y-5.601 E0.85113
G1 X-11.368 Y-5.257 E0.87253
G1 X-11.67 Y-4.776 E0.90086
G1 X-11.652 Y-4.127 E0.93325
G1 X-11.652 Y-3.484 E0.96533
G1 X-11.217 Y-2.57 E1.01583
G1 X-10.87 Y-2.041 E1.0474
G1 X-10.252 Y-2.029 E1.07823
G1 X-9 Y-2.087 E1.14076
G1 X-8.628 Y-2.051 E1.15941
G1 X-7.702 Y-2.068 E1.20562
G1 X-6.779 Y-1.999 E1.25179
G1 X-7.19 Y-1.376 E1.28903
G1 X-7.936 Y-.776 E1.33679
G1 X-9.366 Y0.29 E1.42578
G1 X-10.477 Y1.308 E1.50095
G0 F3600 X-9.993 Y1.407
;TYPE:WALL-OUTER
G1 F1722 X-9.647 Y2.172 E1.54284
G1 X-9.065 Y3.166 E1.60031
G1 X-8.632 Y4.763 E1.68286
G1 X-8.58 Y5.34 E1.71176
G1 X-9.057 Y5.115 E1.73807
G1 X-9.416 Y4.337 E1.78082
G1 X-10.236 Y2.939 E1.86168
G1 X-11.622 Y2.487 E1.93441
G1 X-12.117 Y2.346 E1.96009
G1 X-13.044 Y1.742 E2.01529
G1 X-13.64 Y1.17 E2.0565
G1 X-13.686 Y-.175 E2.12364
G1 X-14.318 Y-1.268 E2.18663
G1 X-14.637 Y-2.131 E2.23254
G1 X-13.965 Y-4.626 E2.36145
G1 X-13.652 Y-5.621 E2.41349
G1 X-13.379 Y-6.069 E2.43966
G1 X-13.33 Y-6.266 E2.44979
G1 X-13.151 Y-6.23 E2.4589
G1 X-11.053 Y-6.993 E2.57028
G1 X-10.677 Y-5.515 E2.64636
G1 X-11.038 Y-5.031 E2.67649
G1 X-11.267 Y-4.666 E2.69798
G1 X-11.252 Y-4.127 E2.72488
G1 X-11.252 Y-3.574 E2.75247
G1 X-10.868 Y-2.767 E2.79706
G1 X-10.651 Y-2.437 E2.81676
G1 X-10.257 Y-2.429 E2.83643
G1 X-8.994 Y-2.488 E2.89951
G1 X-8.612 Y-2.451 E2.91865
G1 X-7.69 Y-2.468 E2.96466
G1 X-6.62 Y-2.388 E3.01819
G1 X-6.11 Y-3.146 E3.06377
G1 X-5.884 Y-3.404 E3.08088
G1 X-5.709 Y-3.868 E3.10562
G1 X-5.565 Y-4.08 E3.11841
G1 X-5.245 Y-4.064 E3.13439
G1 X-4.887 Y-4.558 E3.16483
G1 X-4.9 Y-4.186 E3.17062
G1 X-5.069 Y-3.608 E3.20066
G1 X-6.607 Y-1.562 E3.32836
G1 X-6.886 Y-1.107 E3.35499
G1 X-7.686 Y-.463 E3.40622
G1 X-9.111 Y0.599 E3.49489
G1 X-9.993 Y1.407 E3.55457
G0 F3600 X-9.911 Y1.589
G0 X-10.597 Y1.99
;TYPE:SKIN
G1 F1722 X-11.391 Y1.731 E3.59623
G1 X-11.786 Y1.619 E3.61672
G1 X-12.554 Y1.118 E3.66246
G1 X-12.862 Y0.824 E3.68371
G1 X-12.904 Y-.4 E3.74481
G1 X-13.598 Y-1.599 E3.81392
G1 X-13.809 Y-2.17 E3.8443
G1 X-13.211 Y-4.389 E3.95895
G1 X-12.926 Y-5.293 E4.00624
G1 X-12.787 Y-5.522 E4.0196
G1 X-11.603 Y-5.952 E4.08245
G1 X-11.535 Y-5.684 E4.09624
G1 X-11.69 Y-5.478 E4.10911
G1 X-12.064 Y-4.883 E4.14417
G1 X-12.042 Y-4.127 E4.1819
G1 X-12.042 Y-3.396 E4.21837
G1 X-11.558 Y-2.379 E4.27456
G1 X-11.083 Y-1.655 E4.31776
G1 X-10.246 Y-1.639 E4.35953
G1 X-9.005 Y-1.695 E4.4215
G1 X-8.643 Y-1.661 E4.43964
G1 X-7.703 Y-1.678 E4.48655
G1 X-7.482 Y-1.642 E4.49772
G1 X-8.17 Y-1.088 E4.54179
G1 X-9.615 Y-0.011 E4.6317
G1 X-10.949 Y1.211 E4.72196
G1 X-10.597 Y1.99 E4.76461
G0 F3600 X-12.699 Y0.311
G1 F1722 X-11.496 Y1.513 E4.84945
G0 F3600 X-11.073 Y1.371
G1 F1722 X-12.72 Y-.275 E4.96562
G1 X-12.79 Y-.345
G0 F3600 X-13.267 Y-1.388
G1 F1722 X-10.929 Y0.949 E5.13054
G0 F3600 X-10.634 Y0.678
G1 F1722 X-13.592 Y-2.279 E5.33921
G0 F3600 X-13.472 Y-2.724
G1 F1722 X-10.339 Y0.408 E5.56022
G0 F3600 X-10.043 Y0.138
G1 F1722 X-13.352 Y-3.169 E5.79362
G0 F3600 X-13.232 Y-3.615
G1 F1722 X-11.344 Y-1.728 E5.92679
G0 F3600 X-11.091 Y-1.475
G1 F1722 X-9.748 Y-.132 E6.02155
G0 F3600 X-9.426 Y-.375
G1 F1722 X-10.515 Y-1.464 E6.09838
G0 F3600 X-9.956 Y-1.471
G1 F1722 X-9.101 Y-.616 E6.15871
G0 F3600 X-8.778 Y-.858
G1 F1722 X-9.415 Y-1.495 E6.20365
G0 F3600 X-8.852 Y-1.499
G1 F1722 X-8.454 Y-1.1 E6.23177
G0 F3600 X-8.134 Y-1.346
G1 F1722 X-8.275 Y-1.487 E6.24172
G0 F3600 X-10.78 Y-2.204
G0 X-12.052 Y-3.001
G1 F1722 X-13.112 Y-4.061 E6.31651
G0 F3600 X-12.986 Y-4.5
G1 F1722 X-12.221 Y-3.736 E6.37045
G0 F3600 X-12.226 Y-4.306
G1 F1722 X-12.85 Y-4.931 E6.41451
G0 F3600 X-12.689 Y-5.335
G1 F1722 X-12.243 Y-4.889 E6.44598
G0 F3600 X-12.042 Y-5.254
G1 F1722 X-12.295 Y-5.507 E6.46383
G0 F3600 X-11.881 Y-5.658
G1 F1722 X-11.822 Y-5.6 E6.46795
;MESH:NONMESH
G0 F600 X-11.822 Y-5.6 Z0.9
G0 F3600 X-11.126 Y-6.468
G0 X-10.095 Y-6.73
G0 X-6.199 Y-7.72
;TIME_ELAPSED:5.907707
;LAYER:1
M106 S255
;TYPE:WALL-INNER
;MESH:bunny.stl
G1 F2700 X-7.363 Y-6.846 E6.61319
G1 X-7.633 Y-6.678 E6.64492
G1 X-7.768 Y-6.39 E6.67666
G1 X-7.975 Y-5.806 E6.73849
G1 X-8.562 Y-5.472 E6.80587
G1 X-9.177 Y-5.014 E6.88239
G1 X-9.731 Y-3.748 E7.02027
G1 X-9.924 Y-3.419 E7.05833
G1 X-9.522 Y-2.8 E7.13198
G1 X-7.369 Y-3.026 E7.34799
G1 X-7.088 Y-3.117 E7.37746
G1 X-6.06 Y-3.62 E7.49165
G1 X-5.682 Y-4.054 E7.54908
G1 X-5.435 Y-4.564 E7.60562
G1 X-5.503 Y-5.438 E7.69309
G1 X-5.653 Y-6.089 E7.75975
G1 X-6.199 Y-7.72 E7.93137
G0 F5400 X-3.371 Y-12.196
G1 F2700 X-1.796 Y-6.834 E8.489
G1 X-2.254 Y-4.522 E8.72417
G1 X-5.225 Y-3.273 E9.04575
G1 X-6.212 Y-1.961 E9.20957
G1 X-7.052 Y-.422 E9.38452
G1 X-7.34 Y0.147 E9.44815
G1 X-7.796 Y1.066 E9.55052
G1 X-7.941 Y1.579 E9.60371
G1 X-7.793 Y2.276 E9.67481
G1 X-7.611 Y3.366 E9.78507
G1 X-7.176 Y4.237 E9.88222
G1 X-6.897 Y4.849 E9.94933
G1 X-6.67 Y5.171 E9.98864
G1 X-6.315 Y5.501 E10.037
G1 X-5.619 Y5.81 E10.11299
G1 X-4.917 Y6.26 E10.19619
G1 X-3.501 Y6.315 E10.33759
G1 X-2.524 Y6.433 E10.43578
G1 X-1.861 Y6.401 E10.50201
G1 X-1.363 Y6.359 E10.55188
G1 X-.453 Y6.209 E10.6439
G1 X1.861 Y5.804 E10.8783
G1 X2.556 Y5.685 E10.94866
G1 X4.753 Y5.385 E11.16991
G1 X6.341 Y5.147 E11.33013
G1 X7.109 Y4.769 E11.41554
G1 X7.722 Y4.35 E11.48963
G1 X7.943 Y4.216 E11.51542
G1 X8.583 Y3.632 E11.60187
G1 X8.885 Y3.389 E11.64055
G1 X9.056 Y2.966 E11.68607
G1 X8.964 Y2.377 E11.74556
G1 X8.543 Y1.51 E11.84173
G1 X8.085 Y0.677 E11.93658
G1 X7.839 Y0.288 E11.9825
G1 X7.501 Y-.474 E12.06568
G1 X7.06 Y-1.134 E12.14488
G1 X6.563 Y-1.841 E12.23112
G1 X6.467 Y-1.973 E12.2474
G1 X5.989 Y-3.049 E12.36488
G1 X5.927 Y-3.409 E12.40133
G1 X5.923 Y-3.891 E12.44943
G1 X6.048 Y-4.293 E12.49143
G1 X6.071 Y-5.071 E12.5691
G1 X5.812 Y-5.839 E12.64997
G1 X5.461 Y-6.618 E12.73522
G1 X6.141 Y-7.393 E12.8381
G1 X6.406 Y-7.691 E12.87789
G1 X8.141 Y-8.878 E13.08765
G1 X8.392 Y-7.085 E13.2683
G1 X9.301 Y-6.968 E13.35975
G1 X10.528 Y-9.915 E13.67827
G1 X10.748 Y-9.417 E13.73259
G1 X10.929 Y-8.61 E13.81512
G1 X11.173 Y-8.43 E13.84537
G1 X12.682 Y-6.832 E14.06468
G1 X12.924 Y-5.828 E14.16772
G1 X13.824 Y-5.378 E14.26813
G1 X13.936 Y-5.256 E14.28465
G1 X14.836 Y-3.468 E14.48439
G1 X11.457 Y-.136 E14.95789
G1 X11.265 Y-0.071 E14.97812
G1 X11.017 Y0.212 E15.01567
G1 X10.931 Y0.621 E15.05737
G1 X10.582 Y1.374 E15.14018
G1 X9.726 Y3.2 E15.34141
G1 X8.765 Y4.081 E15.47149
G1 X8.027 Y5.153 E15.60135
G1 X7.504 Y5.604 E15.67026
G1 X7.521 Y5.692 E15.67921
G1 X6.438 Y5.955 E15.79041
G1 X5.801 Y6.178 E15.85775
G1 X3.912 Y6.515 E16.04921
G1 X2.107 Y6.872 E16.2328
G1 X0.764 Y7.174 E16.37016
G1 X-.263 Y7.433 E16.47584
G1 X-2.193 Y7.85 E16.67286
G1 X-4.18 Y8.223 E16.87459
G1 X-4.803 Y8.319 E16.93748
G1 X-5.367 Y8.294 E16.99381
G1 X-6.204 Y8.197 E17.07789
G1 X-6.624 Y7.714 E17.14176
G1 X-7.129 Y7.402 E17.20099
G1 X-7.745 Y7.366 E17.26256
G1 X-7.808 Y7.333 E17.26965
G1 X-8.007 Y7.01 E17.30751
G1 X-8.325 Y6.306 E17.38459
G1 X-8.518 Y5.783 E17.44021
G1 X-9.473 Y4.189 E17.62562
G1 X-9.712 Y3.633 E17.68601
G1 X-10.496 Y3.311 E17.77058
G1 X-11.744 Y2.722 E17.90827
G1 X-13.023 Y2.054 E18.05225
G1 X-13.48 Y1.748 E18.10713
G1 X-14.84 Y0.938 E18.26508
G1 X-15.381 Y0.838 E18.31997
G1 X-15.661 Y0.843 E18.34791
G1 X-16.004 Y0.342 E18.4085
G1 X-16.144 Y-.25 E18.4692
G1 X-16.314 Y-.786 E18.5253
G1 X-16.597 Y-1.422 E18.59476
G1 X-16.672 Y-1.763 E18.6296
G1 X-16.646 Y-1.986 E18.652
G1 X-16.537 Y-2.489 E18.70336
G1 X-16.522 Y-2.528 E18.70753
G1 X-15.887 Y-3.458 E18.81989
G1 X-15.384 Y-4.185 E18.9081
G1 X-14.861 Y-5.059 E19.00973
G1 X-14.144 Y-6.224 E19.14623
G1 X-13.885 Y-6.573 E19.18959
G1 X-13.765 Y-6.924 E19.22661
G1 X-13.839 Y-7.227 E19.25773
G1 X-13.961 Y-7.414 E19.28001
G1 X-14.246 Y-8.384 E19.38088
G1 X-14.421 Y-9.187 E19.46289
G1 X-14.521 Y-10.065 E19.55106
G1 X-14.592 Y-10.619 E19.60679
G1 X-14.378 Y-11.492 E19.69648
G1 X-14.222 Y-12.026 E19.75199
G1 X-14.106 Y-12.363 E19.78755
G1 X-13.848 Y-12.689 E19.82903
G1 X-13.116 Y-12.907 E19.90524
G1 X-12.516 Y-13.078 E19.9675
G1 X-12.264 Y-13.298 E20.00088
G1 X-11.074 Y-13.523 E20.12172
G1 X-10.557 Y-13.633 E20.17446
G1 X-8.769 Y-13.43 E20.35401
G1 X-7.649 Y-13.275 E20.46683
G1 X-6.355 Y-13.17 E20.59637
G1 X-5.118 Y-13.432 E20.72254
G1 X-4.549 Y-13.83 E20.79182
G1 X-4.117 Y-14.541 E20.87484
G1 X-4.092 Y-14.949 E20.91562
G1 X-4.001 Y-15.009 E20.9265
G1 X-2.965 Y-15.483 E21.04018
G1 X-2.603 Y-15.604 E21.07826
G1 X-1.699 Y-15.629 E21.1685
G1 X-1.375 Y-15.607 E21.2009
G1 X-.176 Y-15.257 E21.32553
G1 X2.105 Y-14.475 E21.56613
G1 X3.769 Y-14.11 E21.73612
G1 X3.895 Y-14.077 E21.74911
G1 X6.654 Y-13.173 E22.03881
G1 X8.481 Y-12.563 E22.231
G1 X9.052 Y-12.369 E22.29117
G1 X9.456 Y-12.145 E22.33727
G1 X9.913 Y-11.202 E22.44183
G1 X10.047 Y-11.004 E22.46568
G1 X10.504 Y-9.97 E22.57848
G1 X9.869 Y-10.474 E22.61229
G1 X9.12 Y-11.07 E22.7078
G1 X7.22 Y-12.187 E22.92771
G1 X0.8 Y-14.296 E23.60198
G1 X-3.371 Y-12.196 E24.06794
G0 F5400 X0.814 Y-14.119
G0 X7.152 Y-12.04
G0 X9.03 Y-10.935
G0 X10.335 Y-9.89
G0 X11.476 Y-7.158
G1 F2700 X10.599 Y-6.469 E24.17922
G1 X9.281 Y-5.055 E24.3721
G1 X8.853 Y-4.534 E24.43938
G1 X8.798 Y-4.438 E24.45042
G1 X8.221 Y-4.006 E24.52234
G1 X7.113 Y-2.538 E24.70586
G1 X7.078 Y-2.124 E24.74731
G1 X7.165 Y-1.479 E24.81225
G1 X8.125 Y-1.234 E24.91111
G1 X9.282 Y-.918 E25.03079
G1 X9.487 Y-.858 E25.0521
G1 X10.665 Y-.686 E25.17089
G1 X11.39 Y-1.45 E25.27598
G1 X11.923 Y-2.095 E25.35947
G1 X13.083 Y-4.242 E25.60297
G1 X12.836 Y-5.431 E25.72414
G1 X12.78 Y-5.603 E25.74219
G1 X11.476 Y-7.158 E25.94468
G0 F5400 X11.418 Y-6.604
;TYPE:WALL-OUTER
G1 F1800 X10.87 Y-6.174 E26.01418
G1 X9.582 Y-4.792 E26.20268
G1 X9.184 Y-4.307 E26.26529
G1 X9.105 Y-4.168 E26.28124
G1 X8.506 Y-3.72 E26.35588
G1 X7.502 Y-2.389 E26.52223
G1 X7.48 Y-2.134 E26.54777
G1 X7.525 Y-1.8 E26.5814
G1 X8.224 Y-1.622 E26.65337
G1 X9.388 Y-1.303 E26.7738
G1 X9.572 Y-1.25 E26.7929
G1 X10.518 Y-1.112 E26.88829
G1 X11.09 Y-1.715 E26.97122
G1 X11.59 Y-2.32 E27.04954
G1 X12.662 Y-4.304 E27.27455
G1 X12.449 Y-5.328 E27.37892
G1 X12.424 Y-5.405 E27.38699
G1 X11.418 Y-6.604 E27.54316
G0 F5400 X11.261 Y-6.481
G0 X11.078 Y-6.716
G0 X8.334 Y-3.89
G0 X7.271 Y-2.478
G0 X7.316 Y-1.613
G0 X8.809 Y2.427
G0 X7.646 Y5.811
G0 X7.94 Y5.756
G1 F1800 X7.985 Y5.991 E27.56704
G1 X6.552 Y6.339 E27.71418
G1 X5.904 Y6.566 E27.78269
G1 X3.986 Y6.908 E27.97709
G1 X2.19 Y7.263 E28.15976
G1 X0.857 Y7.563 E28.29609
G1 X-.17 Y7.822 E28.40178
G1 X-2.106 Y8.241 E28.59942
G1 X-4.106 Y8.616 E28.80246
G1 X-4.785 Y8.721 E28.87102
G1 X-5.388 Y8.694 E28.93125
G1 X-6.44 Y8.572 E29.03692
G1 X-6.47 Y8.501 E29.04461
G1 X-6.886 Y8.022 E29.10791
G1 X-7.253 Y7.795 E29.15097
G1 X-7.852 Y7.76 E29.21084
G1 X-8.091 Y7.638 E29.23762
G1 X-8.362 Y7.198 E29.28918
G1 X-8.69 Y6.471 E29.36876
G1 X-8.88 Y5.957 E29.42344
G1 X-9.828 Y4.375 E29.60746
G1 X-10.015 Y3.941 E29.65462
G1 X-10.664 Y3.675 E29.7246
G1 X-11.921 Y3.081 E29.86333
G1 X-13.22 Y2.403 E30.00953
G1 X-13.694 Y2.086 E30.06643
G1 X-14.983 Y1.318 E30.21615
G1 X-15.4 Y1.241 E30.25846
G1 X-15.759 Y1.273 E30.29442
G1 X-15.956 Y1.12 E30.31931
G1 X-16.376 Y0.507 E30.39345
G1 X-16.53 Y-.143 E30.46011
G1 X-16.689 Y-.644 E30.51255
G1 X-16.98 Y-1.298 E30.58398
G1 X-17.077 Y-1.742 E30.62933
G1 X-17.04 Y-2.056 E30.66087
G1 X-16.922 Y-2.6 E30.71642
G1 X-16.881 Y-2.711 E30.72822
G1 X-16.216 Y-3.686 E30.84598
G1 X-15.72 Y-4.402 E30.93289
G1 X-15.202 Y-5.269 E31.03367
G1 X-14.478 Y-6.446 E31.17155
G1 X-14.243 Y-6.762 E31.21084
G1 X-14.181 Y-6.943 E31.22993
G1 X-14.211 Y-7.065 E31.24247
G1 X-14.329 Y-7.246 E31.26403
G1 X-14.634 Y-8.283 E31.37188
G1 X-14.815 Y-9.116 E31.45694
G1 X-14.918 Y-10.017 E31.54743
G1 X-14.998 Y-10.642 E31.6103
G1 X-14.767 Y-11.587 E31.70737
G1 X-14.606 Y-12.138 E31.76465
G1 X-14.461 Y-12.559 E31.80908
G1 X-14.084 Y-13.036 E31.86974
G1 X-13.225 Y-13.292 E31.95918
G1 X-12.712 Y-13.438 E32.0124
G1 X-12.445 Y-13.671 E32.04776
G1 X-11.153 Y-13.915 E32.17895
G1 X-10.577 Y-14.037 E32.2377
G1 X-8.714 Y-13.826 E32.42478
G1 X-7.605 Y-13.673 E32.53649
G1 X-6.381 Y-13.573 E32.65902
G1 X-5.281 Y-13.806 E32.77122
G1 X-4.847 Y-14.11 E32.82409
G1 X-4.51 Y-14.664 E32.88879
G1 X-4.479 Y-15.173 E32.93967
G1 X-4.195 Y-15.36 E32.9736
G1 X-3.115 Y-15.854 E33.0921
G1 X-2.672 Y-16.002 E33.13871
G1 X-1.694 Y-16.029 E33.23633
G1 X-1.304 Y-16.003 E33.27533
G1 X-0.064 Y-15.641 E33.40422
G1 X2.213 Y-14.861 E33.64438
G1 X3.855 Y-14.5 E33.81214
G1 X4.015 Y-14.459 E33.82862
G1 X6.779 Y-13.552 E34.11888
G1 X8.609 Y-12.942 E34.31136
G1 X9.214 Y-12.737 E34.37509
G1 X9.761 Y-12.432 E34.43758
G1 X10.261 Y-11.402 E34.55183
G1 X10.399 Y-11.197 E34.57649
G1 X11.129 Y-9.545 E34.7567
G1 X11.248 Y-9.056 E34.80692
G1 X11.291 Y-8.84 E34.82889
G1 X11.442 Y-8.729 E34.84759
G1 X13.046 Y-7.03 E35.08073
G1 X13.269 Y-6.103 E35.17587
G1 X14.003 Y-5.736 E35.25775
G1 X14.178 Y-5.635 E35.27791
G1 X14.288 Y-5.447 E35.29965
G1 X15.318 Y-3.4 E35.5283
G1 X15.238 Y-3.302 E35.54092
G1 X11.673 Y0.213 E36.04046
G1 X11.495 Y0.273 E36.05921
G1 X11.387 Y0.397 E36.07561
G1 X11.312 Y0.749 E36.11152
G1 X10.944 Y1.544 E36.19894
G1 X10.055 Y3.441 E36.40797
G1 X9.069 Y4.345 E36.54145
G1 X8.327 Y5.423 E36.67203
G1 X7.94 Y5.756 E36.72297
G0 F5400 X7.977 Y5.952
G0 X7.67 Y5.789
G0 X-2.521 Y6.272
G0 X-4.866 Y6.1
G0 X-6.227 Y5.364
G0 X-7.456 Y3.317
G0 X-7.774 Y1.585
G0 X-6.077 Y-1.874
G0 X-5.122 Y-3.14
G0 X-3.011 Y-4.024
G0 X-6.289 Y-7.432
G0 X-6.402 Y-7.067
G1 F1800 X-7.135 Y-6.517 E36.81441
G1 X-7.321 Y-6.401 E36.83628
G1 X-7.397 Y-6.238 E36.85423
G1 X-7.648 Y-5.531 E36.92909
G1 X-8.343 Y-5.136 E37.00885
G1 X-8.853 Y-4.756 E37.07231
G1 X-9.374 Y-3.567 E37.20184
G1 X-9.454 Y-3.43 E37.21767
G1 X-9.32 Y-3.223 E37.24228
G1 X-7.453 Y-3.419 E37.42959
G1 X-7.239 Y-3.489 E37.45206
G1 X-6.308 Y-3.944 E37.55545
G1 X-6.019 Y-4.276 E37.59937
G1 X-5.842 Y-4.641 E37.63985
G1 X-5.899 Y-5.377 E37.71351
G1 X-6.038 Y-5.98 E37.77525
G1 X-6.402 Y-7.067 E37.88963
G0 F5400 X-6.562 Y-6.947
G0 X-6.742 Y-7.187
G0 X-3.18 Y-11.905
G0 X-2.893 Y-11.989
G1 F1800 X-1.385 Y-6.854 E38.42364
G1 X-1.903 Y-4.235 E38.69003
G1 X-4.97 Y-2.946 E39.02199
G1 X-5.875 Y-1.744 E39.17212
G1 X-6.698 Y-.236 E39.34353
G1 X-6.982 Y0.326 E39.40636
G1 X-7.421 Y1.211 E39.50494
G1 X-7.529 Y1.593 E39.54455
G1 X-7.399 Y2.21 E39.60746
G1 X-7.226 Y3.241 E39.71178
G1 X-6.812 Y4.071 E39.80432
G1 X-6.548 Y4.649 E39.86773
G1 X-6.367 Y4.907 E39.89918
G1 X-6.092 Y5.163 E39.93666
G1 X-5.429 Y5.457 E40.00903
G1 X-4.793 Y5.864 E40.08437
G1 X-3.474 Y5.915 E40.21608
G1 X-2.509 Y6.032 E40.31308
G1 X-1.887 Y6.002 E40.37521
G1 X-1.412 Y5.962 E40.42277
G1 X-.52 Y5.815 E40.51298
G1 X1.792 Y5.41 E40.74718
G1 X2.496 Y5.29 E40.81844
G1 X4.696 Y4.989 E41.04
G1 X6.22 Y4.761 E41.19376
G1 X6.907 Y4.423 E41.27016
G1 X7.507 Y4.012 E41.34273
G1 X7.703 Y3.894 E41.36555
G1 X8.332 Y3.32 E41.45052
G1 X8.553 Y3.142 E41.47883
G1 X8.644 Y2.918 E41.50296
G1 X8.578 Y2.498 E41.54538
G1 X8.188 Y1.694 E41.63455
G1 X7.74 Y0.88 E41.72725
G1 X7.483 Y0.472 E41.77537
G1 X7.149 Y-.28 E41.85747
G1 X6.73 Y-.908 E41.9328
G1 X6.237 Y-1.609 E42.01831
G1 X6.117 Y-1.775 E42.03875
G1 X5.616 Y-2.903 E42.16191
G1 X5.539 Y-3.138 E42.18658
G1 X5.527 Y-3.39 E42.21175
G1 X5.523 Y-3.95 E42.26763
G1 X5.65 Y-4.359 E42.31036
G1 X5.669 Y-5.011 E42.37545
G1 X5.439 Y-5.693 E42.44726
G1 X4.99 Y-6.689 E42.55628
G1 X5.842 Y-7.659 E42.6851
G1 X6.139 Y-7.993 E42.7297
G1 X8.447 Y-9.572 E43.00873
G1 X8.746 Y-7.443 E43.22324
G1 X9.049 Y-7.404 E43.25373
G1 X10.054 Y-9.817 E43.51454
G1 X8.893 Y-10.739 E43.66248
G1 X7.054 Y-11.82 E43.87533
G1 X0.832 Y-13.864 E44.5288
G1 X-2.893 Y-11.989 E44.94491
G0 F5400 X-2.837 Y-11.798
G0 X-3.124 Y-11.714
G0 X-3.837 Y-12.398
;TYPE:SKIN
G1 F1800 X-2.197 Y-6.815 E45.52552
G1 X-2.595 Y-4.801 E45.73037
G1 X-5.473 Y-3.591 E46.04189
G1 X-6.541 Y-2.173 E46.21902
G1 X-7.397 Y-.603 E46.39744
G1 X-7.689 Y-0.028 E46.46179
G1 X-8.161 Y0.925 E46.5679
G1 X-8.343 Y1.565 E46.6343
G1 X-8.175 Y2.357 E46.71508
G1 X-7.986 Y3.488 E46.8295
G1 X-7.531 Y4.399 E46.9311
G1 X-7.236 Y5.044 E47.00187
G1 X-6.965 Y5.429 E47.04885
G1 X-6.533 Y5.831 E47.10773
G1 X-5.803 Y6.156 E47.18747
G1 X-5.038 Y6.646 E47.27811
G1 X-3.538 Y6.705 E47.4279
G1 X-2.538 Y6.825 E47.5284
G1 X-1.835 Y6.791 E47.59862
G1 X-1.314 Y6.747 E47.65079
G1 X-.387 Y6.593 E47.74456
G1 X1.928 Y6.188 E47.97906
G1 X2.623 Y6.069 E48.04942
G1 X4.808 Y5.771 E48.26945
G1 X6.458 Y5.524 E48.43593
G1 X7.306 Y5.107 E48.53022
G1 X7.834 Y4.746 E48.59404
G1 X7.733 Y4.892 E48.61175
G1 X7.171 Y5.376 E48.68576
G1 X6.327 Y5.581 E48.77242
G1 X5.702 Y5.8 E48.8385
G1 X3.84 Y6.131 E49.0272
G1 X2.027 Y6.49 E49.21162
G1 X0.674 Y6.794 E49.34999
G1 X-.352 Y7.053 E49.45557
G1 X-2.24 Y7.462 E49.64833
G1 X-4.25 Y7.839 E49.85239
G1 X-4.824 Y7.927 E49.91033
G1 X-5.333 Y7.904 E49.96117
G1 X-6.01 Y7.826 E50.02917
G1 X-6.369 Y7.414 E50.08369
G1 X-7.008 Y7.018 E50.1587
G1 X-7.564 Y6.985 E50.21428
G1 X-7.665 Y6.821 E50.2335
G1 X-7.961 Y6.166 E50.30522
G1 X-8.165 Y5.614 E50.36394
G1 X-9.125 Y4.011 E50.55037
G1 X-9.416 Y3.333 E50.62399
G1 X-10.34 Y2.954 E50.72364
G1 X-11.578 Y2.369 E50.86027
G1 X-12.821 Y1.72 E51.00019
G1 X-13.271 Y1.418 E51.05426
G1 X-14.7 Y0.567 E51.22022
G1 X-15.348 Y0.448 E51.28595
G1 X-15.458 Y0.45 E51.29693
G1 X-15.64 Y0.183 E51.32917
G1 X-15.768 Y-.354 E51.38426
G1 X-15.949 Y-.925 E51.44403
G1 X-16.225 Y-1.546 E51.51183
G1 X-16.276 Y-1.781 E51.53583
G1 X-16.167 Y-2.356 E51.59422
G1 X-15.567 Y-3.236 E51.7005
G1 X-15.056 Y-3.974 E51.79007
G1 X-14.495 Y-4.909 E51.89886
G1 X-13.824 Y-6 E52.02667
G1 X-13.536 Y-6.39 E52.07504
G1 X-13.359 Y-6.906 E52.12947
G1 X-13.476 Y-7.385 E52.17867
G1 X-13.604 Y-7.581 E52.20203
G1 X-13.868 Y-8.48 E52.29552
G1 X-14.034 Y-9.244 E52.37353
G1 X-14.133 Y-10.112 E52.4607
G1 X-14.196 Y-10.594 E52.50921
G1 X-14.002 Y-11.391 E52.59105
G1 X-13.853 Y-11.899 E52.64388
G1 X-13.758 Y-12.173 E52.67281
G1 X-13.619 Y-12.35 E52.69527
G1 X-12.928 Y-12.555 E52.76719
G1 X-12.325 Y-12.727 E52.82976
G1 X-12.088 Y-12.934 E52.86115
G1 X-10.998 Y-13.141 E52.97186
G1 X-10.538 Y-13.238 E53.01877
G1 X-8.813 Y-13.042 E53.192
G1 X-7.692 Y-12.887 E53.30491
G1 X-6.33 Y-12.776 E53.44126
G1 X-4.96 Y-13.067 E53.58101
G1 X-4.258 Y-13.557 E53.66644
G1 X-3.733 Y-14.42 E53.76723
G1 X-3.715 Y-14.711 E53.79632
G1 X-2.819 Y-15.121 E53.89464
G1 X-2.535 Y-15.216 E53.92452
G1 X-1.715 Y-15.239 E54.00637
G1 X-1.438 Y-15.219 E54.03408
G1 X-.294 Y-14.885 E54.153
G1 X0.537 Y-14.6 E54.24066
G1 X-3.837 Y-12.398 E54.72928
G0 F5400 X-6 Y-8.356
G1 F1800 X-7.58 Y-7.171 E54.92635
G1 X-7.937 Y-6.948 E54.96835
G1 X-8.295 Y-6.073 E55.06268
G1 X-8.776 Y-5.799 E55.11791
G1 X-9.493 Y-5.265 E55.20712
G1 X-10.076 Y-3.932 E55.35229
G1 X-10.382 Y-3.409 E55.41275
G1 X-9.719 Y-2.387 E55.53431
G1 X-7.287 Y-2.642 E55.7783
G1 X-6.942 Y-2.754 E55.8145
G1 X-5.818 Y-3.304 E55.93936
G1 X-5.354 Y-3.837 E56.00987
G1 X-5.038 Y-4.489 E56.08216
G1 X-5.117 Y-5.497 E56.18305
G1 X-5.277 Y-6.195 E56.2545
G1 X-6 Y-8.356 E56.48188
G0 F5400 X-3.168 Y-12.108
G0 X0.814 Y-14.119
G0 X7.482 Y-12.485
G1 F1800 X8.892 Y-12.012 E56.63027
G1 X9.159 Y-11.864 E56.66073
G1 X9.417 Y-11.332 E56.71973
G1 X9.341 Y-11.392 E56.72939
G1 X7.482 Y-12.485 E56.94457
G0 F5400 X10.335 Y-9.89
G0 X7.271 Y-2.478
G0 X7.65 Y-.953
G1 F1800 X8.025 Y-.857 E56.98319
G1 X9.179 Y-.542 E57.10255
G1 X9.403 Y-.476 E57.12585
G1 X10.809 Y-.271 E57.26763
G1 X11.682 Y-1.191 E57.39418
G1 X12.248 Y-1.876 E57.48284
G1 X13.494 Y-4.182 E57.74437
G1 X13.28 Y-5.214 E57.84954
G1 X13.61 Y-5.036 E57.88695
G1 X14.36 Y-3.545 E58.05348
G1 X11.249 Y-.476 E58.48953
G1 X11.041 Y-.407 E58.51139
G1 X10.656 Y0.032 E58.56965
G1 X10.557 Y0.501 E58.61748
G1 X10.229 Y1.21 E58.69543
G1 X9.439 Y2.894 E58.88103
G1 X9.34 Y2.26 E58.94506
G1 X8.89 Y1.331 E59.04806
G1 X8.421 Y0.478 E59.14519
G1 X8.183 Y0.102 E59.18959
G1 X7.844 Y-.663 E59.27308
G1 X7.65 Y-.953 E59.30789
G0 F5400 X9.381 Y1.932
G1 F1800 X9.961 Y1.351 E59.38981
G0 F5400 X9.196 Y1.551
G1 F1800 X10.405 Y0.342 E59.56041
G0 F5400 X10.34 Y-.157
G1 F1800 X9.008 Y1.173 E59.74823
G0 F5400 X8.807 Y0.808
G1 F1800 X9.846 Y-.229 E59.8947
G0 F5400 X9.353 Y-.302
G1 F1800 X8.606 Y0.444 E60.00004
G0 F5400 X8.39 Y0.094
G1 F1800 X8.913 Y-.427 E60.0737
G0 F5400 X8.469 Y-.549
G1 F1800 X8.207 Y-.287 E60.11067
G0 F5400 X10.605 Y-.862
G0 X12.915 Y-2.732
G1 F1800 X14.012 Y-3.83 E60.26554
G0 F5400 X13.823 Y-4.207
G1 F1800 X13.579 Y-3.963 E60.29997
G0 F5400 X10.335 Y-9.89
G0 X9.03 Y-10.935
G0 X7.152 Y-12.04
G0 X0.814 Y-14.119
G0 X-3.168 Y-12.108
G0 X-2.415 Y-6.635
G1 F1800 X-5.08 Y-3.97 E60.67603
G0 F5400 X-4.876 Y-4.74
G1 F1800 X-2.479 Y-7.136 E61.01421
G0 F5400 X-2.607 Y-7.574
G1 F1800 X-4.917 Y-5.264 E61.34017
G0 F5400 X-4.99 Y-5.757
G1 F1800 X-2.736 Y-8.011 E61.65824
G0 F5400 X-2.865 Y-8.448
G1 F1800 X-5.096 Y-6.217 E61.97305
G0 F5400 X-5.236 Y-6.643
G1 F1800 X-2.993 Y-8.886 E62.28957
G0 F5400 X-3.121 Y-9.323
G1 F1800 X-5.378 Y-7.066 E62.60805
G0 F5400 X-5.519 Y-7.491
G1 F1800 X-3.25 Y-9.76 E62.92823
G0 F5400 X-3.378 Y-10.197
G1 F1800 X-5.661 Y-7.914 E63.25039
G0 F5400 X-5.803 Y-8.338
G1 F1800 X-3.507 Y-10.634 E63.57438
G0 F5400 X-3.635 Y-11.072
G1 F1800 X-6.513 Y-8.194 E63.9805
G1 X-6.583 Y-8.124
G0 F5400 X-8.387 Y-6.32
G1 F1800 X-8.604 Y-6.103 E64.01112
G0 F5400 X-9.879 Y-4.828
G1 F1800 X-15.031 Y0.323 E64.73805
G0 F5400 X-15.435 Y0.161
G1 F1800 X-3.763 Y-11.509 E66.38495
G0 F5400 X-3.892 Y-11.946
G1 F1800 X-15.562 Y-.276 E68.03172
G0 F5400 X-15.691 Y-.713
G1 F1800 X-4.02 Y-12.384 E69.67862
G0 F5400 X-3.775 Y-12.628
G1 F1800 X-1.387 Y-15.017 E70.01566
G0 F5400 X-.95 Y-14.888
G1 F1800 X-2.636 Y-13.203 E70.25351
G1 X-2.706 Y-13.133
G0 F5400 X-1.496 Y-13.777
G1 F1800 X-.512 Y-14.76 E70.39229
G0 F5400 X-.357 Y-14.35
G1 F1800 X-0.084 Y-14.622 E70.43074
G0 F5400 X-1.917 Y-15.052
G1 F1800 X-15.841 Y-1.129 E72.3955
G0 F5400 X-16.015 Y-1.52
G1 F1800 X-2.499 Y-15.036 E74.30275
G1 X-2.429 Y-15.106
G0 F5400 X-3.485 Y-14.616
G1 F1800 X-3.542 Y-14.559 E74.31079
G0 F5400 X-5.288 Y-12.813
G1 F1800 X-16.037 Y-2.064 E75.82759
G1 X-16.107 Y-1.994
G0 F5400 X-15.158 Y-3.509
G1 F1800 X-6.007 Y-12.66 E77.1189
G0 F5400 X-6.614 Y-12.618
G1 F1800 X-14.217 Y-5.016 E78.19169
G1 X-14.287 Y-4.946
G0 F5400 X-13.311 Y-6.486
G1 F1800 X-7.138 Y-12.66 E79.06284
G0 F5400 X-7.66 Y-12.703
G1 F1800 X-13.228 Y-7.136 E79.84848
G0 F5400 X-13.372 Y-7.557
G1 F1800 X-8.16 Y-12.769 E80.58395
G0 F5400 X-8.657 Y-12.838
G1 F1800 X-13.528 Y-7.967 E81.2713
G0 F5400 X-13.657 Y-8.404
G1 F1800 X-9.161 Y-12.899 E81.90566
G0 F5400 X-9.669 Y-12.957
G1 F1800 X-13.765 Y-8.861 E82.48365
G0 F5400 X-13.861 Y-9.331
G1 F1800 X-10.178 Y-13.015 E83.00343
G0 F5400 X-10.75 Y-13.008
G1 F1800 X-13.919 Y-9.839 E83.45061
G0 F5400 X-13.98 Y-10.344
G1 F1800 X-11.453 Y-12.871 E83.8072
G1 X-11.383 Y-12.941
G0 F5400 X-12.36 Y-12.529
G1 F1800 X-13.917 Y-10.972 E84.02691
G1 X-13.987 Y-10.902
G0 F5400 X-13.708 Y-11.747
G1 F1800 X-13.157 Y-12.298 E84.10466
G0 F5400 X-10.388 Y-3.754
G1 F1800 X-14.574 Y0.432 E84.69535
G0 F5400 X-14.219 Y0.643
G1 F1800 X-10.427 Y-3.148 E85.23037
G0 F5400 X-10.204 Y-2.805
G1 F1800 X-13.865 Y0.854 E85.74684
G0 F5400 X-13.511 Y1.066
G1 F1800 X-9.982 Y-2.462 E86.24475
G0 F5400 X-9.668 Y-2.211
G1 F1800 X-13.157 Y1.278 E86.73708
G0 F5400 X-12.819 Y1.505
G1 F1800 X-9.036 Y-2.277 E87.27083
G0 F5400 X-8.403 Y-2.344
G1 F1800 X-12.456 Y1.708 E87.84269
G0 F5400 X-12.084 Y1.902
G1 F1800 X-7.771 Y-2.41 E88.45123
G0 F5400 X-7.105 Y-2.511
G1 F1800 X-11.713 Y2.096 E89.10139
G0 F5400 X-11.335 Y2.284
G1 F1800 X-6.426 Y-2.624 E89.79404
G1 X-6.356 Y-2.694
G0 F5400 X-7.262 Y-1.222
G1 F1800 X-10.951 Y2.466 E90.31452
G0 F5400 X-10.567 Y2.647
G1 F1800 X-7.887 Y-0.032 E90.69263
G1 X-7.817 Y-.102
G0 F5400 X-8.374 Y1.02
G1 F1800 X-10.179 Y2.825 E90.94734
G0 F5400 X-9.777 Y2.989
G1 F1800 X-8.495 Y1.707 E91.12824
G0 F5400 X-8.397 Y2.175
G1 F1800 X-9.376 Y3.154 E91.26639
G0 F5400 X-9.149 Y3.492
G1 F1800 X-8.307 Y2.65 E91.3852
G0 F5400 X-8.226 Y3.135
G1 F1800 X-8.98 Y3.889 E91.4916
G0 F5400 X-8.772 Y4.246
G1 F1800 X-8.128 Y3.603 E91.5824
G0 F5400 X-7.94 Y3.981
G1 F1800 X-8.56 Y4.601 E91.66989
G0 F5400 X-8.348 Y4.954
G1 F1800 X-7.752 Y4.358 E91.754
G0 F5400 X-7.57 Y4.742
G1 F1800 X-8.137 Y5.308 E91.83393
G0 F5400 X-7.946 Y5.683
G1 F1800 X-7.393 Y5.13 E91.91197
G0 F5400 X-7.16 Y5.463
G1 F1800 X-7.793 Y6.096 E92.00129
G0 F5400 X-7.617 Y6.486
G1 F1800 X-6.881 Y5.75 E92.10515
G0 F5400 X-6.573 Y6.008
G1 F1800 X-7.38 Y6.815 E92.21903
G0 F5400 X-6.883 Y6.883
G1 F1800 X-6.182 Y6.182 E92.31794
G0 F5400 X-5.802 Y6.368
G1 F1800 X-6.534 Y7.1 E92.42124
G0 F5400 X-6.2 Y7.331
G1 F1800 X-5.458 Y6.589 E92.52594
G0 F5400 X-5.113 Y6.81
G1 F1800 X-5.937 Y7.634 E92.64222
G0 F5400 X-5.446 Y7.708
G1 F1800 X-4.58 Y6.843 E92.76435
G0 F5400 X-4.036 Y6.865
G1 F1800 X-4.913 Y7.742 E92.8881
G0 F5400 X-4.263 Y7.657
G1 F1800 X-3.496 Y6.89 E92.99633
G0 F5400 X-2.991 Y6.951
G1 F1800 X-3.566 Y7.526 E93.07747
G0 F5400 X-2.87 Y7.395
G1 F1800 X-2.476 Y7.001 E93.13307
G0 F5400 X-2.172 Y7.264
G1 F1800 X-1.882 Y6.973 E93.17406
G0 F5400 X-1.45 Y7.107
G1 F1800 X-1.263 Y6.92 E93.20045
G0 F5400 X-.726 Y6.949
G1 F1800 X-.584 Y6.807 E93.22049
G0 F5400 X0.013 Y6.774
G1 F1800 X0.098 Y6.689 E93.23248
G0 F5400 X-4.866 Y6.1
G0 X-6.227 Y5.364
G0 X-7.456 Y3.317
G0 X-7.774 Y1.585
G0 X-6.077 Y-1.874
G0 X-4.14 Y-4.345
G1 F1800 X-2.554 Y-5.931 E93.45629
G0 F5400 X-2.693 Y-5.226
G1 F1800 X-3.164 Y-4.755 E93.52275
G0 F5400 X-3.168 Y-12.108
G0 X0.881 Y-14.457
;TYPE:SKIN
G1 F1800 X1.064 Y-14.641 E93.5357
G0 F5400 X0.854 Y-14.713
G1 F1800 X0.733 Y-14.592 E93.54423
G0 F5400 X1.093 Y-14.387
G1 F1800 X1.275 Y-14.569 E93.55707
G0 F5400 X1.486 Y-14.497
G1 F1800 X1.306 Y-14.317 E93.56977
G0 F5400 X1.519 Y-14.247
G1 F1800 X1.697 Y-14.424 E93.5823
G0 F5400 X1.907 Y-14.352
G1 F1800 X1.732 Y-14.177 E93.59464
G0 F5400 X1.945 Y-14.107
G1 F1800 X2.124 Y-14.286 E93.60727
G0 F5400 X2.356 Y-14.236
G1 F1800 X2.158 Y-14.037 E93.62128
G0 F5400 X2.37 Y-13.967
G1 F1800 X2.588 Y-14.185 E93.63666
G0 F5400 X2.82 Y-14.134
G1 F1800 X2.583 Y-13.897 E93.65338
G0 F5400 X2.797 Y-13.828
G1 F1800 X3.052 Y-14.083 E93.67137
G0 F5400 X3.284 Y-14.032
G1 F1800 X3.01 Y-13.758 E93.69071
G0 F5400 X3.222 Y-13.688
G1 F1800 X3.517 Y-13.982 E93.71148
G0 F5400 X3.748 Y-13.93
G1 F1800 X3.435 Y-13.618 E93.73353
G0 F5400 X3.648 Y-13.548
G1 F1800 X3.964 Y-13.864 E93.75583
G0 F5400 X4.177 Y-13.794
G1 F1800 X3.861 Y-13.478 E93.77812
G0 F5400 X4.074 Y-13.408
G1 F1800 X4.39 Y-13.724 E93.80042
G0 F5400 X4.603 Y-13.654
G1 F1800 X4.287 Y-13.338 E93.82272
G0 F5400 X4.5 Y-13.268
G1 F1800 X4.816 Y-13.584 E93.84501
G0 F5400 X5.029 Y-13.514
G1 F1800 X4.712 Y-13.198 E93.86734
G0 F5400 X4.925 Y-13.128
G1 F1800 X5.243 Y-13.445 E93.88974
G0 F5400 X5.456 Y-13.375
G1 F1800 X5.138 Y-13.058 E93.91214
G0 F5400 X5.351 Y-12.988
G1 F1800 X5.668 Y-13.305 E93.93451
G0 F5400 X5.882 Y-13.236
G1 F1800 X5.564 Y-12.918 E93.95695
G0 F5400 X5.777 Y-12.848
G1 F1800 X6.095 Y-13.166 E93.97938
G0 F5400 X6.308 Y-13.096
G1 F1800 X5.989 Y-12.778 E94.00186
G0 F5400 X6.202 Y-12.708
G1 F1800 X6.521 Y-13.027 E94.02436
G0 F5400 X6.733 Y-12.956
G1 F1800 X6.416 Y-12.638 E94.04676
G0 F5400 X6.629 Y-12.568
G1 F1800 X6.945 Y-12.885 E94.06909
G0 F5400 X7.158 Y-12.814
G1 F1800 X6.841 Y-12.498 E94.09143
G0 F5400 X7.054 Y-12.428
G1 F1800 X7.37 Y-12.744 E94.11372
G0 F5400 X10.335 Y-9.89
G0 X9.194 Y-7.152
G0 X7.842 Y-8.201
;TYPE:SKIN
G1 F1800 X8.047 Y-6.736 E94.26132
G1 X9.547 Y-6.543 E94.41223
G1 X10.487 Y-8.8 E94.65618
G1 X10.58 Y-8.382 E94.69891
G1 X10.919 Y-8.132 E94.74094
G1 X11.415 Y-7.606 E94.81308
G1 X10.334 Y-6.757 E94.95023
G1 X8.987 Y-5.312 E95.14734
G1 X8.531 Y-4.756 E95.21909
G1 X8.499 Y-4.701 E95.22544
G1 X7.943 Y-4.285 E95.29473
G1 X6.734 Y-2.683 E95.49499
G1 X6.709 Y-2.39 E95.52433
G1 X6.365 Y-3.166 E95.60903
G1 X6.317 Y-3.441 E95.63688
G1 X6.313 Y-3.835 E95.6762
G1 X6.436 Y-4.228 E95.71729
G1 X6.463 Y-5.129 E95.80723
G1 X6.175 Y-5.982 E95.89706
G1 X5.919 Y-6.549 E95.95914
G1 X6.432 Y-7.134 E96.03677
G1 X6.664 Y-7.395 E96.07162
G1 X7.842 Y-8.201 E96.21404
G0 F5400 X7.795 Y-7.229
G1 F1800 X6.41 Y-5.844 E96.40948
G0 F5400 X6.25 Y-6.25
G1 F1800 X7.725 Y-7.725 E96.61762
G1 X7.795 Y-7.795
G0 F5400 X7.864 Y-6.733
G1 F1800 X6.553 Y-5.422 E96.80261
G0 F5400 X6.636 Y-4.939
G1 F1800 X8.228 Y-6.531 E97.02726
G0 F5400 X8.729 Y-6.467
G1 F1800 X6.619 Y-4.356 E97.32508
G0 F5400 X6.494 Y-3.665
G1 F1800 X9.231 Y-6.402 E97.7113
G0 F5400 X9.208 Y-5.814
G1 F1800 X6.561 Y-3.167 E98.08482
G1 X6.491 Y-3.097
G0 F5400 X10.006 Y-7.177
G1 F1800 X10.81 Y-7.982 E98.19834
G0 F5400 X11.085 Y-7.691
G1 F1800 X10.548 Y-7.154 E98.27412
G0 F5400 X10.409 Y-8.146
G1 F1800 X10.487 Y-8.225 E98.28519
G0 F5400 X11.569 Y-7.327
;TYPE:SKIN
G1 F1800 X11.774 Y-7.531 E98.29962
G0 F5400 X11.911 Y-7.385
G1 F1800 X11.698 Y-7.172 E98.31465
G0 F5400 X11.827 Y-7.019
G1 F1800 X12.048 Y-7.24 E98.33024
G0 F5400 X12.186 Y-7.095
G1 F1800 X11.956 Y-6.865 E98.34647
G0 F5400 X12.085 Y-6.711
G1 F1800 X12.323 Y-6.949 E98.36326
G0 F5400 X12.46 Y-6.803
G1 F1800 X12.214 Y-6.557 E98.38062
G0 F5400 X12.343 Y-6.403
G1 F1800 X12.549 Y-6.609 E98.39515
G0 F5400 X12.604 Y-6.381
G1 F1800 X12.472 Y-6.25 E98.40443
G0 F5400 X12.601 Y-6.095
G1 F1800 X12.658 Y-6.153 E98.40849
G0 F5400 X12.64 Y-6.15
;MESH:NONMESH
G0 F600 X12.64 Y-6.15 Z1.5
G0 F5400 X11.452 Y-6.92
G0 X10.658 Y-6.283
G0 X5.226 Y-6.653
G0 X4.425 Y-7.355
G0 X2.43 Y-8.197
;TIME_ELAPSED:40.590515
;LAYER:2
;TYPE:WALL-INNER
;MESH:bunny.stl
G1 F3600 X1.629 Y-7.205 E98.53571
G1 X0.916 Y-3.588 E98.90356
G1 X-.166 Y-3.134 E99.02064
G1 X-3.274 Y-2.171 E99.34531
G1 X-5.442 Y-1.404 E99.57477
G1 X-6.143 Y-.578 E99.68287
G1 X-6.471 Y0.128 E99.76054
G1 X-6.566 Y0.492 E99.79808
G1 X-6.895 Y1.546 E99.90825
G1 X-7.068 Y2.164 E99.97229
G1 X-6.794 Y3.057 E100.06549
G1 X-6.269 Y4.025 E100.17537
G1 X-6.052 Y4.466 E100.22441
G1 X-5.864 Y4.696 E100.25405
G1 X-5.042 Y5.51 E100.36948
G1 X-4.433 Y5.754 E100.43494
G1 X-3.755 Y5.879 E100.50374
G1 X-1.749 Y5.772 E100.70418
G1 X-1.248 Y5.738 E100.75429
G1 X0.847 Y5.576 E100.96395
G1 X2.262 Y5.352 E101.1069
G1 X4.569 Y4.96 E101.34039
G1 X5.762 Y4.646 E101.46348
G1 X6.783 Y4.336 E101.56995
G1 X6.925 Y4.284 E101.58504
G1 X7.435 Y3.855 E101.65154
G1 X7.822 Y3.572 E101.69937
G1 X7.916 Y3.308 E101.72734
G1 X8.23 Y2.851 E101.78266
G1 X8.055 Y2.124 E101.85727
G1 X7.897 Y1.689 E101.90345
G1 X7.482 Y1.001 E101.98362
G1 X6.363 Y-.777 E102.19325
G1 X5.71 Y-2.288 E102.35749
G1 X5.309 Y-3.156 E102.4529
G1 X5.174 Y-3.754 E102.51407
G1 X4.963 Y-4.278 E102.57043
G1 X3.994 Y-6.421 E102.8051
G1 X3.539 Y-7.399 E102.91273
G1 X2.43 Y-8.197 E103.04906
G0 F7200 X2.417 Y-8.296
G0 X-5.464 Y-1.436
G0 X-9.275 Y3.419
G0 X-9.348 Y3.486
G1 F3600 X-10.103 Y3.102 E103.13358
G1 X-10.651 Y2.916 E103.19132
G1 X-11.529 Y2.656 E103.28269
G1 X-12.363 Y2.3 E103.37317
G1 X-13.084 Y2.06 E103.44899
G1 X-14.099 Y1.633 E103.55887
G1 X-14.986 Y1.247 E103.65539
G1 X-15.475 Y1.021 E103.70914
G1 X-15.887 Y0.451 E103.77932
G1 X-16.229 Y-0.094 E103.84352
G1 X-16.488 Y-.79 E103.91762
G1 X-16.578 Y-1.28 E103.96733
G1 X-16.65 Y-1.807 E104.0204
G1 X-16.685 Y-2.009 E104.04086
G1 X-16.366 Y-2.833 E104.12902
G1 X-16.164 Y-3.067 E104.15987
G1 X-15.178 Y-4.325 E104.31935
G1 X-14.894 Y-4.637 E104.36145
G1 X-14.188 Y-5.381 E104.46379
G1 X-13.453 Y-6.176 E104.57182
G1 X-13.262 Y-6.719 E104.62926
G1 X-13.373 Y-7.222 E104.68065
G1 X-14.103 Y-8.038 E104.7899
G1 X-14.157 Y-8.091 E104.79745
G1 X-14.492 Y-8.761 E104.8722
G1 X-14.684 Y-9.305 E104.92976
G1 X-14.827 Y-9.855 E104.98646
G1 X-14.867 Y-10.362 E105.03721
G1 X-14.888 Y-10.674 E105.06841
G1 X-14.95 Y-11.435 E105.14459
G1 X-14.84 Y-11.974 E105.19948
G1 X-14.743 Y-12.292 E105.23266
G1 X-14.497 Y-12.706 E105.28071
G1 X-14.164 Y-13.23 E105.34266
G1 X-13.908 Y-13.613 E105.38863
G1 X-13.765 Y-13.735 E105.40738
G1 X-13.25 Y-13.985 E105.4645
G1 X-12.924 Y-14.118 E105.49963
G1 X-12.277 Y-14.244 E105.5654
G1 X-11.966 Y-14.317 E105.59728
G1 X-10.814 Y-14.14 E105.71358
G1 X-10.173 Y-13.985 E105.77938
G1 X-9.091 Y-13.784 E105.88919
G1 X-7.705 Y-13.532 E106.02975
G1 X-6.931 Y-13.379 E106.10848
G1 X-6.354 Y-13.666 E106.17278
G1 X-6.045 Y-14.039 E106.22111
G1 X-5.453 Y-14.631 E106.30464
G1 X-4.971 Y-15.012 E106.36595
G1 X-3.755 Y-16.217 E106.53677
G1 X-3.38 Y-16.52 E106.58487
G1 X-3.021 Y-16.537 E106.62073
G1 X-2.363 Y-16.487 E106.68658
G1 X-1.369 Y-16.244 E106.78868
G1 X-.826 Y-16.145 E106.84375
G1 X-.203 Y-15.919 E106.90988
G1 X0.319 Y-15.767 E106.96413
G1 X1.974 Y-15.378 E107.13377
G1 X3.894 Y-14.9 E107.33119
G1 X7.52 Y-13.923 E107.7059
G1 X8.038 Y-13.741 E107.76068
G1 X8.653 Y-13.554 E107.82482
G1 X10.279 Y-12.879 E108.00049
G1 X10.47 Y-12.68 E108.02801
G1 X10.857 Y-12.293 E108.08262
G1 X11.07 Y-11.858 E108.13095
G1 X11.55 Y-11.032 E108.22628
G1 X11.608 Y-10.898 E108.24084
G1 X11.84 Y-10 E108.33339
G1 X12.024 Y-9.081 E108.42691
G1 X13.685 Y-7.841 E108.63373
G1 X15.128 Y-6.315 E108.84329
G1 X15.716 Y-5.046 E108.98285
G1 X16.282 Y-3.607 E109.13714
G1 X16.192 Y-2.775 E109.22064
G1 X14.95 Y-1.656 E109.38745
G1 X13.768 Y-.49 E109.55312
G1 X11.863 Y0.145 E109.75348
G1 X11.219 Y0.87 E109.85024
G1 X10.409 Y4.614 E110.23246
G1 X10.244 Y4.894 E110.26489
G1 X8.955 Y6.046 E110.43738
G1 X8.501 Y6.148 E110.48381
G1 X6.304 Y6.513 E110.70604
G1 X4.259 Y6.819 E110.91236
G1 X2.572 Y7.021 E111.08189
G1 X1.78 Y7.14 E111.1618
G1 X-1.402 Y7.804 E111.48614
G1 X-2.485 Y8.007 E111.59609
G1 X-3.828 Y8.273 E111.7327
G1 X-4.348 Y8.368 E111.78544
G1 X-4.893 Y8.504 E111.84149
G1 X-5.615 Y8.562 E111.91376
G1 X-5.839 Y8.539 E111.93623
G1 X-6.309 Y8.279 E111.98983
G1 X-6.616 Y8.125 E112.0241
G1 X-7.594 Y7.457 E112.14227
G1 X-7.992 Y6.995 E112.20312
G1 X-8.456 Y5.745 E112.33616
G1 X-8.748 Y4.925 E112.42301
G1 X-9.068 Y4.178 E112.5041
G1 X-9.348 Y3.486 E112.57858
G0 F7200 X-9.275 Y3.419
G0 X-6.176 Y-.599
G0 X-5.6 Y-1.276
G0 X2.115 Y-7.965
G0 X2.503 Y-7.651
;TYPE:WALL-OUTER
G1 F1800 X2.002 Y-7.031 E112.65812
G1 X1.267 Y-3.301 E113.03746
G1 X-0.025 Y-2.759 E113.17726
G1 X-3.148 Y-1.791 E113.5035
G1 X-5.207 Y-1.063 E113.72141
G1 X-5.803 Y-.36 E113.81337
G1 X-6.093 Y0.264 E113.88203
G1 X-6.184 Y0.611 E113.91783
G1 X-6.511 Y1.66 E114.02746
G1 X-6.651 Y2.159 E114.07918
G1 X-6.423 Y2.901 E114.15663
G1 X-5.917 Y3.834 E114.26253
G1 X-5.713 Y4.248 E114.30859
G1 X-5.567 Y4.427 E114.33164
G1 X-4.818 Y5.169 E114.43683
G1 X-4.321 Y5.368 E114.49025
G1 X-3.729 Y5.477 E114.55032
G1 X-1.773 Y5.373 E114.74576
G1 X-1.277 Y5.339 E114.79537
G1 X0.8 Y5.178 E115.00323
G1 X2.197 Y4.957 E115.14436
G1 X4.484 Y4.569 E115.37582
G1 X5.653 Y4.261 E115.49644
G1 X6.656 Y3.957 E115.60102
G1 X6.721 Y3.933 E115.60793
G1 X7.193 Y3.536 E115.66947
G1 X7.486 Y3.322 E115.70568
G1 X7.556 Y3.125 E115.72654
G1 X7.799 Y2.771 E115.76938
G1 X7.671 Y2.239 E115.82398
G1 X7.534 Y1.862 E115.864
G1 X7.141 Y1.211 E115.93988
G1 X6.009 Y-.588 E116.15196
G1 X5.345 Y-2.125 E116.31903
G1 X4.933 Y-3.017 E116.41707
G1 X4.813 Y-3.447 E116.46161
G1 X4.785 Y-3.65 E116.48206
G1 X4.595 Y-4.121 E116.53273
G1 X3.63 Y-6.254 E116.76633
G1 X3.22 Y-7.135 E116.86329
G1 X2.503 Y-7.651 E116.95144
G0 F7200 X2.378 Y-7.496
G0 X1.99 Y-7.81
G0 X12.087 Y-8.91
G0 X12.386 Y-9.31
G1 F1800 X13.953 Y-8.14 E117.14657
G1 X15.463 Y-6.544 E117.3658
G1 X16.084 Y-5.203 E117.51325
G1 X16.691 Y-3.661 E117.67861
G1 X16.573 Y-2.58 E117.78711
G1 X15.224 Y-1.365 E117.96826
G1 X13.984 Y-.141 E118.14211
G1 X12.091 Y0.491 E118.34125
G1 X11.588 Y1.057 E118.4168
G1 X10.789 Y4.749 E118.79372
G1 X10.629 Y5.065 E118.82906
G1 X10.524 Y5.18 E118.8446
G1 X9.145 Y6.413 E119.02918
G1 X8.567 Y6.543 E119.08829
G1 X6.372 Y6.908 E119.31032
G1 X5.486 Y7.039 E119.39968
G1 X4.319 Y7.215 E119.51744
G1 X2.626 Y7.417 E119.68757
G1 X1.851 Y7.534 E119.76577
G1 X-1.32 Y8.196 E120.089
G1 X-2.409 Y8.4 E120.19955
G1 X-3.756 Y8.666 E120.33655
G1 X-4.263 Y8.759 E120.38798
G1 X-4.83 Y8.901 E120.44631
G1 X-5.618 Y8.964 E120.52518
G1 X-5.962 Y8.929 E120.55969
G1 X-6.496 Y8.633 E120.62061
G1 X-6.82 Y8.47 E120.6568
G1 X-7.863 Y7.758 E120.7828
G1 X-8.342 Y7.201 E120.85611
G1 X-8.831 Y5.884 E120.99628
G1 X-9.121 Y5.071 E121.08241
G1 X-9.436 Y4.335 E121.16229
G1 X-9.663 Y3.775 E121.22259
G1 X-10.259 Y3.471 E121.28934
G1 X-10.772 Y3.297 E121.3434
G1 X-11.663 Y3.034 E121.43609
G1 X-12.505 Y2.674 E121.52746
G1 X-13.224 Y2.435 E121.60307
G1 X-14.254 Y2.002 E121.71455
G1 X-15.146 Y1.613 E121.81165
G1 X-15.741 Y1.339 E121.87701
G1 X-16.03 Y0.927 E121.92723
G1 X-16.216 Y0.68 E121.95808
G1 X-16.59 Y0.084 E122.02829
G1 X-16.874 Y-.679 E122.10952
G1 X-16.973 Y-1.22 E122.1644
G1 X-17.045 Y-1.746 E122.21738
G1 X-17.097 Y-2.046 E122.24776
G1 X-16.909 Y-2.563 E122.30265
G1 X-16.711 Y-3.045 E122.35464
G1 X-16.473 Y-3.321 E122.39101
G1 X-15.487 Y-4.58 E122.55057
G1 X-15.184 Y-4.913 E122.59549
G1 X-14.48 Y-5.654 E122.69748
G1 X-13.803 Y-6.387 E122.79704
G1 X-13.677 Y-6.744 E122.83482
G1 X-13.741 Y-7.033 E122.86435
G1 X-14.393 Y-7.762 E122.96194
G1 X-14.486 Y-7.854 E122.97499
G1 X-14.86 Y-8.601 E123.05835
G1 X-15.067 Y-9.19 E123.12064
G1 X-15.223 Y-9.79 E123.1825
G1 X-15.266 Y-10.33 E123.23655
G1 X-15.287 Y-10.645 E123.26805
G1 X-15.352 Y-11.446 E123.34824
G1 X-15.351 Y-11.469 E123.35054
G1 X-15.227 Y-12.077 E123.41245
G1 X-15.113 Y-12.45 E123.45137
G1 X-14.835 Y-12.921 E123.50594
G1 X-14.502 Y-13.445 E123.56789
G1 X-14.209 Y-13.882 E123.62039
G1 X-13.985 Y-14.073 E123.64976
G1 X-13.419 Y-14.348 E123.71255
G1 X-13.038 Y-14.504 E123.75363
G1 X-12.361 Y-14.635 E123.82244
G1 X-11.982 Y-14.724 E123.86128
G1 X-10.731 Y-14.532 E123.98757
G1 X-10.089 Y-14.376 E124.05349
G1 X-9.019 Y-14.177 E124.16209
G1 X-7.633 Y-13.925 E124.30265
G1 X-6.987 Y-13.798 E124.36834
G1 X-6.608 Y-13.986 E124.41056
G1 X-6.344 Y-14.306 E124.45195
G1 X-5.72 Y-14.93 E124.54
G1 X-5.237 Y-15.312 E124.60145
G1 X-4.022 Y-16.516 E124.77212
G1 X-3.53 Y-16.914 E124.83527
G1 X-3.017 Y-16.938 E124.88651
G1 X-2.298 Y-16.883 E124.95846
G1 X-1.285 Y-16.635 E125.06252
G1 X-.717 Y-16.531 E125.12014
G1 X-0.079 Y-16.299 E125.18788
G1 X0.421 Y-16.154 E125.23982
G1 X2.071 Y-15.766 E125.40895
G1 X3.991 Y-15.288 E125.60638
G1 X7.639 Y-14.305 E125.98336
G1 X8.163 Y-14.121 E126.03878
G1 X8.781 Y-13.933 E126.10323
G1 X10.509 Y-13.216 E126.2899
G1 X10.755 Y-12.96 E126.32533
G1 X11.186 Y-12.53 E126.38608
G1 X11.423 Y-12.047 E126.43976
G1 X11.907 Y-11.214 E126.53589
G1 X11.987 Y-11.03 E126.55591
G1 X12.23 Y-10.09 E126.65279
G1 X12.386 Y-9.31 E126.73216
G0 F7200 X12.546 Y-9.191
G0 X11.671 Y-8.858
;TYPE:SKIN
G1 F1800 X13.426 Y-7.548 E126.95068
G1 X14.803 Y-6.092 E127.15064
G1 X15.353 Y-4.903 E127.28136
G1 X15.884 Y-3.554 E127.42601
G1 X15.82 Y-2.965 E127.48513
G1 X14.683 Y-1.94 E127.63787
G1 X13.561 Y-.832 E127.79521
G1 X11.641 Y-.192 E127.99716
G1 X10.86 Y0.687 E128.11448
G1 X10.042 Y4.468 E128.50048
G1 X9.938 Y4.644 E128.52088
G1 X8.77 Y5.688 E128.67719
G1 X8.421 Y5.766 E128.71287
G1 X6.246 Y6.127 E128.93287
G1 X4.212 Y6.431 E129.13807
G1 X2.52 Y6.635 E129.30812
G1 X1.711 Y6.756 E129.38974
G1 X-1.474 Y7.42 E129.71438
G1 X-2.559 Y7.624 E129.82454
G1 X-3.898 Y7.889 E129.96073
G1 X-4.43 Y7.986 E130.01469
G1 X-4.958 Y8.118 E130.069
G1 X-5.607 Y8.17 E130.13396
G1 X-5.72 Y8.159 E130.14529
G1 X-6.42 Y7.787 E130.22439
G1 X-7.329 Y7.165 E130.33429
G1 X-7.652 Y6.79 E130.38367
G1 X-8.091 Y5.609 E130.50939
G1 X-8.385 Y4.783 E130.59688
G1 X-8.724 Y3.99 E130.68293
G1 X-9.041 Y3.205 E130.7674
G1 X-9.951 Y2.742 E130.86928
G1 X-10.532 Y2.544 E130.93053
G1 X-11.395 Y2.288 E131.02034
G1 X-12.225 Y1.935 E131.11034
G1 X-12.947 Y1.694 E131.18629
G1 X-13.947 Y1.274 E131.29451
G1 X-14.765 Y0.919 E131.38349
G1 X-15.22 Y0.708 E131.43353
G1 X-15.566 Y0.231 E131.49233
G1 X-15.878 Y-.267 E131.55097
G1 X-16.11 Y-.889 E131.61721
G1 X-16.194 Y-1.35 E131.66397
G1 X-16.264 Y-1.867 E131.71602
G1 X-16.282 Y-1.968 E131.72626
G1 X-16.026 Y-2.631 E131.79717
G1 X-15.863 Y-2.819 E131.822
G1 X-14.889 Y-4.062 E131.97957
G1 X-14.611 Y-4.368 E132.02082
G1 X-13.903 Y-5.114 E132.12344
G1 X-13.112 Y-5.971 E132.23981
G1 X-12.857 Y-6.694 E132.31631
G1 X-13.014 Y-7.406 E132.38906
G1 X-13.82 Y-8.307 E132.50968
G1 X-13.837 Y-8.323 E132.51201
G1 X-14.131 Y-8.912 E132.5777
G1 X-14.31 Y-9.417 E132.63116
G1 X-14.443 Y-9.927 E132.68375
G1 X-14.5 Y-10.703 E132.76139
G1 X-14.558 Y-11.409 E132.83207
G1 X-14.384 Y-12.134 E132.90647
G1 X-14.168 Y-12.497 E132.94861
G1 X-13.84 Y-13.013 E133.00962
G1 X-13.549 Y-13.406 E133.05841
G1 X-13.094 Y-13.628 E133.10893
G1 X-12.812 Y-13.742 E133.13928
G1 X-12.195 Y-13.862 E133.202
G1 X-11.951 Y-13.919 E133.227
G1 X-10.884 Y-13.756 E133.3347
G1 X-10.255 Y-13.603 E133.39929
G1 X-9.163 Y-13.4 E133.51012
G1 X-7.623 Y-13.119 E133.66632
G1 X-6.876 Y-12.971 E133.7423
G1 X-6.106 Y-13.354 E133.82811
G1 X-5.75 Y-13.784 E133.88382
G1 X-5.201 Y-14.333 E133.96129
G1 X-4.712 Y-14.72 E134.02351
G1 X-3.495 Y-15.925 E134.1944
G1 X-3.234 Y-16.136 E134.22789
G1 X-3.017 Y-16.147 E134.24957
G1 X-2.43 Y-16.102 E134.30831
G1 X-1.451 Y-15.862 E134.40889
G1 X-.928 Y-15.767 E134.46193
G1 X-.324 Y-15.548 E134.52603
G1 X0.22 Y-15.39 E134.58256
G1 X1.884 Y-14.998 E134.75314
G1 X3.796 Y-14.523 E134.94972
G1 X7.397 Y-13.553 E135.32183
G1 X7.917 Y-13.37 E135.37684
G1 X8.519 Y-13.187 E135.43962
G1 X10.055 Y-12.549 E135.60558
G1 X10.534 Y-12.065 E135.67352
G1 X10.726 Y-11.674 E135.71699
G1 X11.198 Y-10.862 E135.8107
G1 X11.237 Y-10.772 E135.82049
G1 X11.462 Y-9.902 E135.91015
G1 X11.671 Y-8.858 E136.01639
G0 F7200 X4.349 Y-6.583
G1 F1800 X3.849 Y-7.656 E136.13451
G1 X2.358 Y-8.729 E136.3178
G1 X1.265 Y-7.375 E136.49143
G1 X0.574 Y-3.867 E136.84819
G1 X-.3 Y-3.5 E136.94277
G1 X-3.397 Y-2.541 E137.26627
G1 X-5.672 Y-1.737 E137.50703
G1 X-6.475 Y-.79 E137.63091
G1 X-6.839 Y-0.005 E137.71725
G1 X-6.944 Y0.393 E137.75832
G1 X-7.269 Y1.435 E137.86724
G1 X-7.474 Y2.17 E137.94337
G1 X-7.155 Y3.209 E138.05182
G1 X-6.612 Y4.211 E138.16554
G1 X-6.382 Y4.678 E138.21748
G1 X-6.153 Y4.959 E138.25365
G1 X-5.26 Y5.843 E138.37903
G1 X-4.542 Y6.13 E138.45618
G1 X-3.78 Y6.271 E138.53351
G1 X-1.725 Y6.162 E138.73884
G1 X-1.22 Y6.126 E138.78936
G1 X0.892 Y5.964 E139.00072
G1 X2.325 Y5.736 E139.1455
G1 X4.651 Y5.342 E139.3809
G1 X5.869 Y5.021 E139.50658
G1 X6.906 Y4.706 E139.61472
G1 X7.124 Y4.627 E139.63785
G1 X7.68 Y4.158 E139.71043
G1 X8.149 Y3.816 E139.76835
G1 X8.265 Y3.49 E139.80288
G1 X8.649 Y2.929 E139.87071
G1 X8.429 Y2.011 E139.9649
G1 X8.25 Y1.52 E140.01705
G1 X7.814 Y0.796 E140.10138
G1 X6.708 Y-.961 E140.30854
G1 X6.066 Y-2.448 E140.47015
G1 X5.68 Y-3.284 E140.56203
G1 X5.548 Y-3.871 E140.62206
G1 X5.322 Y-4.432 E140.68241
G1 X4.349 Y-6.583 E140.91797
G0 F7200 X9.462 Y-12.599
G1 F1800 X10.698 Y-11.363 E141.09239
G1 X10.768 Y-11.293
G0 F7200 X11.164 Y-10.331
G1 F1800 X8.495 Y-13 E141.46901
G1 X8.425 Y-13.07
G0 F7200 X7.662 Y-13.268
G1 F1800 X11.341 Y-9.589 E141.98816
G0 F7200 X11.482 Y-8.881
G1 F1800 X6.852 Y-13.512 E142.64157
G1 X6.782 Y-13.582
G0 F7200 X6.078 Y-13.72
G1 F1800 X15.329 Y-4.469 E143.94699
G1 X15.399 Y-4.399
G0 F7200 X15.697 Y-3.536
G1 F1800 X5.304 Y-13.929 E145.41355
G1 X5.234 Y-13.999
G0 F7200 X4.529 Y-14.137
G1 F1800 X15.629 Y-3.037 E146.97988
G0 F7200 X15.332 Y-2.769
G1 F1800 X3.755 Y-14.346 E148.61352
G0 F7200 X3.003 Y-14.533
G1 F1800 X15.035 Y-2.501 E150.31137
G0 F7200 X14.737 Y-2.233
G1 F1800 X2.25 Y-14.719 E152.07335
G0 F7200 X1.504 Y-14.9
G1 F1800 X14.445 Y-1.959 E153.89946
G0 F7200 X14.16 Y-1.678
G1 F1800 X0.762 Y-15.076 E155.79006
G0 F7200 X0.009 Y-15.263
G1 F1800 X13.876 Y-1.397 E157.74678
G0 F7200 X13.592 Y-1.115
G1 F1800 X-.832 Y-15.54 E159.78223
G0 F7200 X-1.559 Y-15.701
G1 F1800 X13.23 Y-.911 E161.86919
G0 F7200 X12.805 Y-.77
G1 F1800 X-2.309 Y-15.885 E164.00201
G0 F7200 X-2.95 Y-15.961
G1 F1800 X12.381 Y-.629 E166.16545
G0 F7200 X11.957 Y-.487
G1 F1800 X-3.357 Y-15.802 E168.32649
G0 F7200 X-3.643 Y-15.522
G1 F1800 X11.535 Y-.344 E170.46827
G0 F7200 X11.268 Y-0.045
G1 F1800 X4.386 Y-6.926 E171.43932
G1 X4.316 Y-6.996
G0 F7200 X4.86 Y-5.887
G1 F1800 X11.002 Y0.254 E172.30595
G0 F7200 X10.736 Y0.554
G1 F1800 X5.327 Y-4.854 E173.06915
G1 X5.257 Y-4.924
G0 F7200 X5.727 Y-3.889
G1 F1800 X10.61 Y0.993 E173.75813
G0 F7200 X10.509 Y1.458
G1 F1800 X5.973 Y-3.077 E174.39813
G1 X5.903 Y-3.147
G0 F7200 X6.432 Y-2.052
G1 F1800 X10.408 Y1.923 E174.95912
G0 F7200 X10.308 Y2.388
G1 F1800 X6.86 Y-1.059 E175.4456
G1 X6.79 Y-1.129
G0 F7200 X7.814 Y0.46
G1 F1800 X10.207 Y2.853 E175.78328
G0 F7200 X10.106 Y3.318
G1 F1800 X8.515 Y1.727 E176.00778
G1 X8.445 Y1.657
G0 F7200 X8.733 Y2.51
G1 F1800 X10.005 Y3.783 E176.18735
G0 F7200 X9.905 Y4.248
G1 F1800 X8.751 Y3.095 E176.35012
G0 F7200 X8.522 Y3.43
G1 F1800 X9.702 Y4.611 E176.5167
G0 F7200 X9.404 Y4.879
G1 F1800 X8.339 Y3.814 E176.66698
G0 F7200 X8.062 Y4.102
G1 F1800 X9.105 Y5.145 E176.81416
G0 F7200 X8.806 Y5.412
G1 F1800 X7.737 Y4.343 E176.96501
G0 F7200 X7.431 Y4.603
G1 F1800 X8.411 Y5.583 E177.1033
G0 F7200 X7.928 Y5.665
G1 F1800 X7.092 Y4.83 E177.2212
G0 F7200 X6.665 Y4.968
G1 F1800 X7.443 Y5.745 E177.33091
G0 F7200 X6.957 Y5.826
G1 F1800 X6.231 Y5.1 E177.43336
G0 F7200 X5.793 Y5.227
G1 F1800 X6.472 Y5.907 E177.52924
G0 F7200 X5.984 Y5.984
G1 F1800 X5.345 Y5.345 E177.61941
G0 F7200 X4.897 Y5.463
G1 F1800 X5.491 Y6.057 E177.70323
G0 F7200 X4.999 Y6.13
G1 F1800 X4.43 Y5.562 E177.78345
G0 F7200 X3.946 Y5.643
G1 F1800 X4.507 Y6.204 E177.86262
G0 F7200 X4.01 Y6.272
G1 F1800 X3.462 Y5.725 E177.93987
G0 F7200 X2.978 Y5.806
G1 F1800 X3.505 Y6.333 E178.01424
G0 F7200 X3 Y6.394
G1 F1800 X2.494 Y5.888 E178.08564
G0 F7200 X2.008 Y5.967
G1 F1800 X2.496 Y6.455 E178.1545
G0 F7200 X2.003 Y6.529
G1 F1800 X1.52 Y6.045 E178.22273
G0 F7200 X1.032 Y6.123
G1 F1800 X1.519 Y6.61 E178.29145
G0 F7200 X1.051 Y6.708
G1 F1800 X0.516 Y6.173 E178.36695
G0 F7200 X-0.009 Y6.213
G1 F1800 X0.583 Y6.805 E178.45048
G0 F7200 X0.115 Y6.903
G1 F1800 X-.534 Y6.253 E178.54213
G0 F7200 X-1.059 Y6.293
G1 F1800 X-.352 Y7.001 E178.64197
G0 F7200 X-.82 Y7.098
G1 F1800 X-1.586 Y6.332 E178.75006
G0 F7200 X-2.122 Y6.363
G1 F1800 X-1.289 Y7.196 E178.86761
G0 F7200 X-1.761 Y7.289
G1 F1800 X-2.658 Y6.392 E178.99418
G0 F7200 X-3.196 Y6.42
G1 F1800 X-2.237 Y7.379 E179.12951
G0 F7200 X-2.712 Y7.469
G1 F1800 X-3.733 Y6.448 E179.27358
G0 F7200 X-4.411 Y6.336
G1 F1800 X-3.184 Y7.563 E179.44673
G0 F7200 X-3.657 Y7.656
G1 F1800 X-5.288 Y6.025 E179.67688
G1 X-5.358 Y5.955
G0 F7200 X-6.513 Y4.799
G1 F1800 X-14.975 Y-3.661 E180.87082
G0 F7200 X-14.724 Y-3.976
G1 F1800 X-7.143 Y3.604 E181.94051
G1 X-7.073 Y3.674
G0 F7200 X-7.504 Y2.677
G1 F1800 X-14.453 Y-4.271 E182.92101
G0 F7200 X-14.178 Y-4.561
G1 F1800 X-7.613 Y2.003 E183.84734
G0 F7200 X-7.49 Y1.56
G1 F1800 X-13.902 Y-4.851 E184.75207
G0 F7200 X-13.629 Y-5.144
G1 F1800 X-7.36 Y1.125 E185.63669
G0 F7200 X-7.225 Y0.693
G1 F1800 X-13.357 Y-5.438 E186.50191
G0 F7200 X-13.087 Y-5.733
G1 F1800 X-7.093 Y0.26 E187.34766
G0 F7200 X-6.959 Y-.171
G1 F1800 X-12.878 Y-6.09 E188.1829
G0 F7200 X-12.73 Y-6.508
G1 F1800 X-6.779 Y-.557 E189.02265
G0 F7200 X-6.588 Y-.931
G1 F1800 X-12.763 Y-7.106 E189.89401
G1 X-12.833 Y-7.176
G0 F7200 X-13.855 Y-8.764
G1 F1800 X-6.329 Y-1.238 E190.956
G0 F7200 X-6.069 Y-1.544
G1 F1800 X-14.187 Y-9.661 E192.10147
G0 F7200 X-14.292 Y-10.332
G1 F1800 X-5.81 Y-1.85 E193.29837
G0 F7200 X-5.413 Y-2.019
G1 F1800 X-14.339 Y-10.945 E194.55793
G0 F7200 X-14.346 Y-11.518
G1 F1800 X-4.995 Y-2.167 E195.87746
G0 F7200 X-4.577 Y-2.315
G1 F1800 X-14.236 Y-11.974 E197.24045
G0 F7200 X-14.045 Y-12.348
G1 F1800 X-4.159 Y-2.462 E198.63547
G0 F7200 X-3.742 Y-2.61
G1 F1800 X-13.827 Y-12.696 E200.05864
G0 F7200 X-13.599 Y-13.034
G1 F1800 X-3.319 Y-2.754 E201.50926
G0 F7200 X-2.887 Y-2.887
G1 F1800 X-13.316 Y-13.316 E202.9809
G0 F7200 X-12.932 Y-13.497
G1 F1800 X-2.455 Y-3.021 E204.45925
G0 F7200 X-2.023 Y-3.155
G1 F1800 X-12.489 Y-13.62 E205.93605
G0 F7200 X-12.019 Y-13.716
G1 F1800 X-1.59 Y-3.288 E207.40762
G0 F7200 X-1.158 Y-3.421
G1 F1800 X-11.387 Y-13.649 E208.85097
G0 F7200 X-10.695 Y-13.524
G1 F1800 X-.726 Y-3.555 E210.2577
G0 F7200 X-.299 Y-3.693
G1 F1800 X-9.972 Y-13.366 E211.62267
G0 F7200 X-9.277 Y-13.237
G1 F1800 X0.098 Y-3.861 E212.94565
G0 F7200 X0.434 Y-4.09
G1 F1800 X-8.584 Y-13.11 E214.21833
G0 F7200 X-7.892 Y-12.983
G1 F1800 X0.528 Y-4.562 E215.40656
G0 F7200 X0.62 Y-5.036
G1 F1800 X-7.193 Y-12.85 E216.50913
G0 F7200 X-6.655 Y-12.878
G1 F1800 X0.714 Y-5.508 E217.54904
G0 F7200 X0.807 Y-5.98
G1 F1800 X-6.278 Y-13.066 E218.54888
G0 F7200 X-5.93 Y-13.284
G1 F1800 X0.9 Y-6.453 E219.51274
G0 F7200 X0.993 Y-6.926
G1 F1800 X-5.673 Y-13.593 E220.45345
G0 F7200 X-5.397 Y-13.882
G1 F1800 X1.086 Y-7.398 E221.36835
G0 F7200 X1.321 Y-7.729
G1 F1800 X-5.114 Y-14.165 E222.27646
G0 F7200 X-4.801 Y-14.418
G1 F1800 X1.574 Y-8.042 E223.17612
G0 F7200 X1.827 Y-8.355
G1 F1800 X-4.496 Y-14.678 E224.06836
G0 F7200 X-4.212 Y-14.96
G1 F1800 X2.079 Y-8.668 E224.95616
G0 F7200 X2.38 Y-8.933
G1 F1800 X-3.927 Y-15.241 E225.84622
G1 X-3.997 Y-15.311
G0 F7200 X-15.223 Y-3.343
G1 F1800 X-4.132 Y7.747 E227.4112
G0 F7200 X-4.602 Y7.842
G1 F1800 X-8.58 Y3.865 E227.97247
G1 X-8.65 Y3.795
G0 F7200 X-8.175 Y4.835
G1 F1800 X-5.065 Y7.945 E228.41133
G0 F7200 X-5.589 Y7.986
G1 F1800 X-7.858 Y5.717 E228.73151
G1 X-7.928 Y5.647
G0 F7200 X-7.522 Y6.619
G1 F1800 X-6.91 Y7.231 E228.81787
G1 X-6.84 Y7.301
G0 F7200 X-9.858 Y2.586
G1 F1800 X-15.472 Y-3.027 E229.60999
G0 F7200 X-15.72 Y-2.709
G1 F1800 X-10.707 Y2.303 E230.31731
G1 X-10.637 Y2.373
G0 F7200 X-11.549 Y2.026
G1 F1800 X-15.936 Y-2.36 E230.93629
G0 F7200 X-16.094 Y-1.952
G1 F1800 X-12.483 Y1.658 E231.44577
G1 X-12.413 Y1.728
G0 F7200 X-13.398 Y1.309
G1 F1800 X-15.999 Y-1.291 E231.81273
G1 X-16.069 Y-1.361
G0 F7200 X-15.772 Y-.499
G1 F1800 X-14.387 Y0.886 E232.00817
G1 X-14.317 Y0.956
G0 F7200 X2.425 Y-8.236
G0 X11.91 Y-8.454
G1 F1800 X14.888 Y-5.475 E232.42847
G1 X14.958 Y-5.405
;MESH:NONMESH
G0 F600 X14.958 Y-5.405 Z2.1
G0 F7200 X7.854 Y3.595
G0 X6.945 Y4.318
G0 X5.028 Y4.868
G0 X2.967 Y5.333
G0 X2.743 Y4.008
;TIME_ELAPSED:87.078926
;LAYER:3
;TYPE:WALL-INNER
;MESH:bunny.stl
G1 F3600 X4.053 Y3.908 E232.55956
G1 X4.529 Y3.79 E232.6085
G1 X5.036 Y3.479 E232.66784
G1 X5.802 Y2.168 E232.81935
G1 X5.446 Y1.608 E232.88556
G1 X4.901 Y1.519 E232.94066
G1 X3.771 Y2.446 E233.0865
G1 X3.282 Y2.495 E233.13554
G1 X2.958 Y2.936 E233.19014
G1 X2.743 Y4.008 E233.29923
G0 F7200 X2.669 Y4.074
G0 X-9.124 Y3.21
G0 X-9.196 Y3.279
G1 F3600 X-9.835 Y2.93 E233.37188
G1 X-10.293 Y2.733 E233.42163
G1 X-10.618 Y2.653 E233.45503
G1 X-11.129 Y2.512 E233.50792
G1 X-12.014 Y2.227 E233.60069
G1 X-14.718 Y1.343 E233.88455
G1 X-15.083 Y1.193 E233.92392
G1 X-15.685 Y0.379 E234.02494
G1 X-16.12 Y-.289 E234.10448
G1 X-16.271 Y-.601 E234.13907
G1 X-16.374 Y-1.108 E234.19069
G1 X-16.427 Y-1.404 E234.2207
G1 X-16.461 Y-1.903 E234.2706
G1 X-16.426 Y-2.461 E234.32639
G1 X-16.238 Y-2.711 E234.3576
G1 X-16.023 Y-2.913 E234.38704
G1 X-15.306 Y-3.786 E234.49976
G1 X-15.125 Y-3.989 E234.5269
G1 X-14.146 Y-5.053 E234.67117
G1 X-13.417 Y-5.669 E234.7664
G1 X-13.141 Y-6.188 E234.82505
G1 X-12.931 Y-6.411 E234.85562
G1 X-12.87 Y-6.85 E234.89984
G1 X-12.93 Y-7.26 E234.94119
G1 X-13.425 Y-7.798 E235.01413
G1 X-13.561 Y-7.932 E235.03318
G1 X-14.407 Y-8.74 E235.14991
G1 X-14.54 Y-8.89 E235.16992
G1 X-14.722 Y-10.045 E235.28658
G1 X-14.735 Y-10.218 E235.30389
G1 X-14.814 Y-10.806 E235.36309
G1 X-14.812 Y-11.373 E235.41967
G1 X-14.814 Y-11.394 E235.42177
G1 X-14.76 Y-12.091 E235.49153
G1 X-14.68 Y-12.264 E235.51055
G1 X-13.741 Y-13.644 E235.6771
G1 X-13.572 Y-13.756 E235.69733
G1 X-12.383 Y-14.388 E235.83168
G1 X-11.939 Y-14.541 E235.87854
G1 X-11.423 Y-14.423 E235.93136
G1 X-8.706 Y-13.541 E236.21639
G1 X-7.071 Y-13.225 E236.38255
G1 X-6.813 Y-13.364 E236.41179
G1 X-6.142 Y-13.7 E236.48667
G1 X-5.938 Y-13.946 E236.51856
G1 X-5.585 Y-14.599 E236.59262
G1 X-5.201 Y-15.005 E236.64838
G1 X-4.316 Y-15.88 E236.77256
G1 X-3.594 Y-16.448 E236.86423
G1 X-3.094 Y-16.595 E236.91623
G1 X-2.669 Y-16.683 E236.95953
G1 X-2.112 Y-16.644 E237.01525
G1 X-1.722 Y-16.587 E237.05458
G1 X-.153 Y-16.057 E237.21982
G1 X0.017 Y-16.006 E237.23753
G1 X1.378 Y-15.56 E237.38044
G1 X3.308 Y-15.06 E237.57937
G1 X5.664 Y-14.466 E237.82181
G1 X7.108 Y-14.043 E237.97195
G1 X7.946 Y-13.863 E238.05747
G1 X8.579 Y-13.754 E238.12156
G1 X9.286 Y-13.67 E238.1926
G1 X9.789 Y-13.417 E238.24878
G1 X10.498 Y-13.149 E238.32441
G1 X11.313 Y-12.647 E238.41992
G1 X11.512 Y-12.479 E238.44591
G1 X11.765 Y-11.974 E238.50227
G1 X12.353 Y-10.641 E238.64764
G1 X12.82 Y-9.447 E238.77557
G1 X13.487 Y-8.979 E238.85687
G1 X14.3 Y-8.478 E238.95216
G1 X15.554 Y-7.732 E239.09775
G1 X16.194 Y-7.255 E239.17739
G1 X16.348 Y-7.091 E239.19984
G1 X16.408 Y-6.963 E239.21395
G1 X17.599 Y-3.942 E239.53796
G1 X17.392 Y-2.027 E239.73016
G1 X15.466 Y-.579 E239.97059
G1 X14.755 Y-.402 E240.0437
G1 X12.459 Y0.366 E240.28527
G1 X11.42 Y1.533 E240.44118
G1 X11.147 Y2.798 E240.5703
G1 X10.78 Y4.721 E240.76564
G1 X10.438 Y5.174 E240.82228
G1 X9.372 Y6.128 E240.96502
G1 X7.631 Y6.518 E241.14304
G1 X3.26 Y7.031 E241.58218
G1 X1.247 Y7.335 E241.78531
G1 X-.721 Y7.737 E241.98574
G1 X-2.276 Y8.067 E242.14435
G1 X-3.524 Y8.297 E242.27097
G1 X-4.009 Y8.418 E242.32085
G1 X-4.627 Y8.537 E242.38365
G1 X-5.333 Y8.496 E242.45421
G1 X-5.823 Y8.392 E242.50419
G1 X-7.008 Y7.584 E242.6473
G1 X-7.484 Y7.012 E242.72155
G1 X-8.192 Y6.209 E242.82837
G1 X-8.366 Y5.74 E242.87829
G1 X-8.587 Y4.983 E242.95697
G1 X-8.688 Y4.428 E243.01326
G1 X-8.899 Y3.889 E243.07102
G1 X-9.196 Y3.279 E243.13872
G0 F7200 X-9.124 Y3.21
G0 X2.749 Y3.471
G0 X3.239 Y3.569
;TYPE:WALL-OUTER
G1 F1800 X3.989 Y3.512 E243.21377
G1 X4.373 Y3.417 E243.25324
G1 X4.741 Y3.191 E243.29633
G1 X5.334 Y2.177 E243.41354
G1 X5.205 Y1.974 E243.43754
G1 X5.015 Y1.943 E243.45674
G1 X3.931 Y2.832 E243.59663
G1 X3.499 Y2.875 E243.63995
G1 X3.333 Y3.101 E243.66793
G1 X3.239 Y3.569 E243.71556
G0 F7200 X3.438 Y3.554
G0 X3.475 Y4.052
G0 X-7.229 Y-13.155
G0 X-7.135 Y-13.645
G1 F1800 X-6.992 Y-13.722 E243.73176
G1 X-6.396 Y-14.02 E243.79825
G1 X-6.271 Y-14.171 E243.81781
G1 X-5.912 Y-14.835 E243.89313
G1 X-5.482 Y-15.289 E243.95552
G1 X-4.581 Y-16.18 E244.08196
G1 X-3.779 Y-16.811 E244.18378
G1 X-3.188 Y-16.984 E244.24523
G1 X-2.697 Y-17.086 E244.29527
G1 X-2.066 Y-17.042 E244.35838
G1 X-1.629 Y-16.978 E244.40245
G1 X-0.031 Y-16.438 E244.57076
G1 X0.142 Y-16.386 E244.58878
G1 X1.491 Y-15.944 E244.73043
G1 X3.407 Y-15.448 E244.92791
G1 X5.772 Y-14.852 E245.17127
G1 X7.206 Y-14.431 E245.32039
G1 X8.022 Y-14.256 E245.40366
G1 X8.637 Y-14.15 E245.46593
G1 X9.403 Y-14.059 E245.5429
G1 X9.95 Y-13.784 E245.60399
G1 X10.669 Y-13.512 E245.68069
G1 X11.124 Y-13.251 E245.73303
G1 X11.555 Y-12.967 E245.78454
G1 X11.833 Y-12.731 E245.82092
G1 X12.123 Y-12.153 E245.88545
G1 X12.719 Y-10.803 E246.03269
G1 X13.149 Y-9.705 E246.15035
G1 X13.707 Y-9.313 E246.2184
G1 X14.507 Y-8.82 E246.31216
G1 X15.779 Y-8.064 E246.45981
G1 X16.462 Y-7.554 E246.54486
G1 X16.684 Y-7.319 E246.57712
G1 X16.771 Y-7.132 E246.5977
G1 X18.007 Y-3.996 E246.93404
G1 X17.786 Y-1.945 E247.13987
G1 X17.748 Y-1.806 E247.15425
G1 X17.693 Y-1.753 E247.16187
G1 X15.642 Y-.211 E247.41791
G1 X14.867 Y-0.018 E247.4976
G1 X12.687 Y0.712 E247.72699
G1 X11.789 Y1.72 E247.86169
G1 X11.539 Y2.878 E247.9799
G1 X11.156 Y4.887 E248.18397
G1 X10.732 Y5.447 E248.25406
G1 X9.562 Y6.495 E248.41078
G1 X7.696 Y6.913 E248.60159
G1 X3.313 Y7.428 E249.04194
G1 X1.317 Y7.729 E249.24335
G1 X-.64 Y8.129 E249.44266
G1 X-2.199 Y8.459 E249.60166
G1 X-3.439 Y8.688 E249.72748
G1 X-3.929 Y8.81 E249.77787
G1 X-4.598 Y8.939 E249.84585
G1 X-5.387 Y8.893 E249.92471
G1 X-5.982 Y8.767 E249.98539
G1 X-7.283 Y7.88 E250.14251
G1 X-7.788 Y7.272 E250.22137
G1 X-8.541 Y6.419 E250.3349
G1 X-8.746 Y5.865 E250.39385
G1 X-8.976 Y5.079 E250.47556
G1 X-9.075 Y4.538 E250.53044
G1 X-9.266 Y4.05 E250.58273
G1 X-9.5 Y3.569 E250.6361
G1 X-10.01 Y3.29 E250.69411
G1 X-10.42 Y3.114 E250.73863
G1 X-10.723 Y3.04 E250.76975
G1 X-11.24 Y2.897 E250.82327
G1 X-12.137 Y2.607 E250.91734
G1 X-14.855 Y1.719 E251.20265
G1 X-15.312 Y1.553 E251.25116
G1 X-15.405 Y1.431 E251.26647
G1 X-16.012 Y0.61 E251.36835
G1 X-16.468 Y-0.089 E251.45162
G1 X-16.653 Y-.473 E251.49415
G1 X-16.766 Y-1.028 E251.55067
G1 X-16.824 Y-1.353 E251.58361
G1 X-16.862 Y-1.9 E251.63832
G1 X-16.818 Y-2.606 E251.7089
G1 X-16.537 Y-2.979 E251.7555
G1 X-16.316 Y-3.187 E251.78578
G1 X-15.605 Y-4.052 E251.89751
G1 X-15.424 Y-4.255 E251.92464
G1 X-14.421 Y-5.345 E252.07244
G1 X-13.734 Y-5.925 E252.16216
G1 X-13.469 Y-6.422 E252.21835
G1 X-13.31 Y-6.592 E252.24158
G1 X-13.274 Y-6.849 E252.26747
G1 X-13.308 Y-7.08 E252.29077
G1 X-13.713 Y-7.52 E252.35044
G1 X-13.84 Y-7.645 E252.36822
G1 X-14.701 Y-8.468 E252.48707
G1 X-14.917 Y-8.712 E252.51958
G1 X-15.12 Y-10.002 E252.64988
G1 X-15.133 Y-10.177 E252.66739
G1 X-15.214 Y-10.783 E252.7284
G1 X-15.212 Y-11.357 E252.78567
G1 X-15.215 Y-11.392 E252.78918
G1 X-15.154 Y-12.192 E252.86923
G1 X-15.026 Y-12.466 E252.89941
G1 X-14.027 Y-13.935 E253.07667
G1 X-13.782 Y-14.097 E253.10598
G1 X-12.543 Y-14.756 E253.24601
G1 X-11.961 Y-14.957 E253.30744
G1 X-11.326 Y-14.811 E253.37246
G1 X-8.606 Y-13.929 E253.65777
G1 X-7.135 Y-13.645 E253.80726
G0 F7200 X-6.992 Y-13.722
G0 X-6.958 Y-13.739
G0 X-6.638 Y-13.015
;TYPE:SKIN
G1 F1800 X-5.894 Y-13.388 E253.8903
G1 X-5.613 Y-13.727 E253.93424
G1 X-5.267 Y-14.368 E254.00692
G1 X-4.926 Y-14.728 E254.0564
G1 X-4.052 Y-15.592 E254.17903
G1 X-3.412 Y-16.095 E254.26025
G1 X-2.645 Y-16.289 E254.33919
G1 X-2.142 Y-16.254 E254.3895
G1 X-1.811 Y-16.206 E254.42287
G1 X-.272 Y-15.685 E254.585
G1 X-0.099 Y-15.633 E254.60302
G1 X1.269 Y-15.186 E254.74662
G1 X3.211 Y-14.682 E254.94681
G1 X5.569 Y-14.088 E255.18945
G1 X7.012 Y-13.665 E255.33949
G1 X7.872 Y-13.48 E255.42726
G1 X8.523 Y-13.368 E255.49317
G1 X9.173 Y-13.29 E255.5585
G1 X9.632 Y-13.06 E255.60972
G1 X10.325 Y-12.797 E255.68368
G1 X11.083 Y-12.331 E255.77247
G1 X11.199 Y-12.233 E255.78762
G1 X11.412 Y-11.807 E255.83514
G1 X11.996 Y-10.483 E255.97953
G1 X12.5 Y-9.195 E256.11754
G1 X13.272 Y-8.653 E256.21166
G1 X14.098 Y-8.144 E256.30847
G1 X15.335 Y-7.41 E256.45199
G1 X15.931 Y-6.965 E256.52621
G1 X16.05 Y-6.808 E256.54587
G1 X17.201 Y-3.888 E256.85904
G1 X17.022 Y-2.237 E257.02475
G1 X15.294 Y-.938 E257.24045
G1 X14.646 Y-.777 E257.30707
G1 X12.237 Y0.029 E257.56054
G1 X11.061 Y1.35 E257.73702
G1 X10.765 Y2.72 E257.87687
G1 X10.414 Y4.557 E258.06348
G1 X10.148 Y4.91 E258.10758
G1 X9.187 Y5.77 E258.23626
G1 X7.574 Y6.132 E258.40121
G1 X3.208 Y6.645 E258.83985
G1 X1.179 Y6.951 E259.04459
G1 X-.801 Y7.355 E259.24623
G1 X-2.352 Y7.684 E259.40443
G1 X-3.606 Y7.915 E259.53166
G1 X-4.092 Y8.037 E259.58166
G1 X-4.65 Y8.145 E259.63837
G1 X-5.282 Y8.108 E259.70154
G1 X-5.668 Y8.026 E259.74092
G1 X-6.741 Y7.294 E259.87052
G1 X-7.188 Y6.758 E259.94016
G1 X-7.851 Y6.005 E260.04027
G1 X-8 Y5.604 E260.08295
G1 X-8.205 Y4.899 E260.15621
G1 X-8.311 Y4.321 E260.21485
G1 X-8.542 Y3.733 E260.27788
G1 X-8.9 Y2.996 E260.35964
G1 X-9.664 Y2.579 E260.44649
G1 X-10.168 Y2.362 E260.50124
G1 X-10.514 Y2.277 E260.53679
G1 X-11.02 Y2.138 E260.58915
G1 X-11.895 Y1.856 E260.68088
G1 X-14.571 Y0.982 E260.96177
G1 X-14.834 Y0.873 E260.99018
G1 X-15.371 Y0.147 E261.08028
G1 X-15.781 Y-.483 E261.15528
G1 X-15.899 Y-.727 E261.18233
G1 X-16.037 Y-1.443 E261.25509
G1 X-16.069 Y-1.905 E261.30129
G1 X-16.043 Y-2.321 E261.34288
G1 X-15.738 Y-2.646 E261.38736
G1 X-15.004 Y-3.538 E261.50262
G1 X-14.838 Y-3.725 E261.52757
G1 X-13.878 Y-4.769 E261.66909
G1 X-13.107 Y-5.419 E261.76971
G1 X-12.819 Y-5.961 E261.83095
G1 X-12.562 Y-6.234 E261.86836
G1 X-12.476 Y-6.852 E261.93062
G1 X-12.561 Y-7.435 E261.98941
G1 X-13.144 Y-8.069 E262.07535
G1 X-13.29 Y-8.212 E262.09574
G1 X-14.121 Y-9.006 E262.21042
G1 X-14.172 Y-9.063 E262.21805
G1 X-14.336 Y-10.106 E262.3234
G1 X-14.347 Y-10.259 E262.33871
G1 X-14.424 Y-10.828 E262.396
G1 X-14.423 Y-11.405 E262.45358
G1 X-14.378 Y-11.985 E262.51162
G1 X-14.336 Y-12.076 E262.52162
G1 X-13.462 Y-13.361 E262.67669
G1 X-13.377 Y-13.417 E262.68684
G1 X-12.225 Y-14.029 E262.81701
G1 X-11.916 Y-14.136 E262.84963
G1 X-11.531 Y-14.048 E262.88904
G1 X-8.804 Y-13.163 E263.17511
G1 X-7.009 Y-12.816 E263.35753
G1 X-6.638 Y-13.015 E263.39954
G0 F7200 X3.071 Y2.124
G1 F1800 X2.593 Y2.774 E263.48005
G1 X2.259 Y4.437 E263.6493
G1 X4.115 Y4.294 E263.83504
G1 X4.681 Y4.154 E263.89321
G1 X5.323 Y3.76 E263.96838
G1 X6.258 Y2.16 E264.15328
G1 X5.682 Y1.251 E264.26066
G1 X4.79 Y1.106 E264.35083
G1 X3.614 Y2.07 E264.50256
G1 X3.071 Y2.124 E264.55701
G0 F7200 X4.891 Y1.481
G0 X10.249 Y4.458
G1 F1800 X9.127 Y5.58 E264.71534
G0 F7200 X8.374 Y5.767
G1 F1800 X10.383 Y3.758 E264.99883
G0 F7200 X10.516 Y3.06
G1 F1800 X7.644 Y5.931 E265.40403
G0 F7200 X6.991 Y6.019
G1 F1800 X10.66 Y2.35 E265.92176
G0 F7200 X10.815 Y1.629
G1 F1800 X6.35 Y6.094 E266.55182
G0 F7200 X5.709 Y6.17
G1 F1800 X16.656 Y-4.777 E268.09656
G0 F7200 X16.496 Y-5.182
G1 F1800 X5.068 Y6.245 E269.70911
G0 F7200 X4.427 Y6.32
G1 F1800 X16.336 Y-5.588 E271.38952
G0 F7200 X16.176 Y-5.994
G1 F1800 X3.786 Y6.395 E273.13782
G0 F7200 X3.143 Y6.472
G1 F1800 X16.016 Y-6.4 E274.95427
G0 F7200 X15.838 Y-6.787
G1 F1800 X5.867 Y3.183 E276.36121
G1 X5.797 Y3.253
G0 F7200 X6.414 Y2.07
G1 F1800 X15.527 Y-7.042 E277.64708
G0 F7200 X15.201 Y-7.281
G1 F1800 X6.194 Y1.724 E278.91793
G0 F7200 X5.975 Y1.378
G1 F1800 X14.845 Y-7.491 E280.16951
G0 F7200 X14.49 Y-7.702
G1 F1800 X5.714 Y1.074 E281.4079
G0 F7200 X5.227 Y0.994
G1 F1800 X14.135 Y-7.912 E282.66477
G0 F7200 X13.782 Y-8.126
G1 F1800 X4.741 Y0.915 E283.94055
G1 X4.671 Y0.985
G0 F7200 X3.156 Y1.934
G1 F1800 X13.432 Y-8.341 E285.39054
G0 F7200 X13.087 Y-8.562
G1 F1800 X-3.114 Y7.64 E287.67674
G0 F7200 X-2.421 Y7.513
G1 F1800 X2.515 Y2.575 E288.37341
G1 X2.585 Y2.505
G0 F7200 X2.291 Y3.365
G1 F1800 X-1.704 Y7.361 E288.93722
G0 F7200 X-.987 Y7.209
G1 F1800 X2.148 Y4.073 E289.37967
G0 F7200 X2.163 Y4.624
G1 F1800 X-.275 Y7.063 E289.72377
G0 F7200 X0.434 Y6.919
G1 F1800 X2.776 Y4.577 E290.05425
G0 F7200 X3.389 Y4.529
G1 F1800 X1.145 Y6.774 E290.37097
G0 F7200 X1.811 Y6.673
G1 F1800 X4.002 Y4.482 E290.68015
G0 F7200 X4.72 Y4.33
G1 F1800 X2.477 Y6.573 E290.99666
G1 X2.407 Y6.643
G0 F7200 X-3.823 Y7.783
G1 F1800 X12.755 Y-8.795 E293.33599
G0 F7200 X12.423 Y-9.029
G1 F1800 X-4.548 Y7.942 E295.73078
G0 F7200 X-5.108 Y7.937
G1 F1800 X12.226 Y-9.398 E298.17687
G0 F7200 X12.066 Y-9.804
G1 F1800 X-5.594 Y7.857 E300.66896
G0 F7200 X-5.931 Y7.628
G1 F1800 X11.907 Y-10.21 E303.18609
G0 F7200 X11.741 Y-10.61
G1 F1800 X-6.267 Y7.399 E305.72729
G0 F7200 X-6.603 Y7.169
G1 F1800 X11.568 Y-11.002 E308.29141
G0 F7200 X11.395 Y-11.395
G1 F1800 X-6.863 Y6.863 E310.86781
G0 F7200 X-7.123 Y6.557
G1 F1800 X11.22 Y-11.786 E313.45621
G0 F7200 X11.018 Y-12.15
G1 F1800 X-7.387 Y6.256 E316.05342
G0 F7200 X-7.653 Y5.955
G1 F1800 X10.674 Y-12.371 E318.63949
G0 F7200 X10.323 Y-12.586
G1 F1800 X-7.823 Y5.56 E321.20009
G0 F7200 X-7.951 Y5.122
G1 F1800 X9.927 Y-12.755 E323.72279
G0 F7200 X9.521 Y-12.915
G1 F1800 X-8.063 Y4.669 E326.20409
G0 F7200 X-8.162 Y4.203
G1 F1800 X9.142 Y-13.102 E328.64594
G0 F7200 X8.646 Y-13.171
G1 F1800 X-8.323 Y3.797 E331.04038
G0 F7200 X-8.499 Y3.408
G1 F1800 X8.157 Y-13.248 E333.39072
G0 F7200 X7.679 Y-13.336
G1 F1800 X-8.683 Y3.026 E335.69957
G0 F7200 X-8.973 Y2.751
G1 F1800 X7.213 Y-13.436 E337.98366
G0 F7200 X6.761 Y-13.549
G1 F1800 X-9.339 Y2.551 E340.25555
G0 F7200 X-9.714 Y2.361
G1 F1800 X6.324 Y-13.678 E342.51875
G0 F7200 X5.886 Y-13.806
G1 F1800 X-10.11 Y2.19 E344.77596
G0 F7200 X-10.562 Y2.076
G1 F1800 X5.446 Y-13.932 E347.03486
G0 F7200 X4.995 Y-14.045
G1 F1800 X-11.004 Y1.953 E349.29242
G0 F7200 X-11.433 Y1.816
G1 F1800 X4.543 Y-14.159 E351.54674
G0 F7200 X4.091 Y-14.273
G1 F1800 X-11.861 Y1.678 E353.79767
G0 F7200 X-12.287 Y1.539
G1 F1800 X3.639 Y-14.387 E356.045
G0 F7200 X3.187 Y-14.501
G1 F1800 X-12.713 Y1.4 E358.28873
G0 F7200 X-13.14 Y1.26
G1 F1800 X2.738 Y-14.618 E360.52929
G0 F7200 X2.289 Y-14.734
G1 F1800 X-13.566 Y1.121 E362.7666
G0 F7200 X-13.992 Y0.982
G1 F1800 X1.839 Y-14.85 E365.0006
G0 F7200 X1.39 Y-14.967
G1 F1800 X-14.419 Y0.842 E367.23142
G0 F7200 X-14.781 Y0.639
G1 F1800 X0.956 Y-15.098 E369.45208
G0 F7200 X0.53 Y-15.238
G1 F1800 X-15.021 Y0.313 E371.64649
G0 F7200 X-15.258 Y-0.014
G1 F1800 X0.103 Y-15.377 E373.81424
G0 F7200 X-.326 Y-15.512
G1 F1800 X-15.482 Y-.357 E375.95284
G0 F7200 X-15.691 Y-.713
G1 F1800 X-.748 Y-15.656 E378.06146
G0 F7200 X-1.17 Y-15.799
G1 F1800 X-15.8 Y-1.17 E380.12584
G0 F7200 X-15.87 Y-1.665
G1 F1800 X-1.593 Y-15.942 E382.14048
G0 F7200 X-2.044 Y-16.057
G1 F1800 X-15.866 Y-2.235 E384.09091
G1 X-15.936 Y-2.165
G0 F7200 X-12.37 Y-6.296
G1 F1800 X-2.565 Y-16.102 E385.47457
G0 F7200 X-3.295 Y-15.937
G1 F1800 X-5.291 Y-13.941 E385.75623
G1 X-5.361 Y-13.871
G0 F7200 X-6.202 Y-13.031
G1 F1800 X-12.303 Y-6.929 E386.61722
G0 F7200 X-12.375 Y-7.423
G1 F1800 X-7.14 Y-12.658 E387.35593
G0 F7200 X-7.614 Y-12.749
G1 F1800 X-12.609 Y-7.754 E388.06078
G0 F7200 X-12.88 Y-8.049
G1 F1800 X-8.088 Y-12.841 E388.73699
G0 F7200 X-8.563 Y-12.932
G1 F1800 X-13.159 Y-8.336 E389.38553
G0 F7200 X-13.449 Y-8.612
G1 F1800 X-9.018 Y-13.043 E390.01079
G0 F7200 X-9.445 Y-13.181
G1 F1800 X-13.738 Y-8.889 E390.61651
G0 F7200 X-14.007 Y-9.185
G1 F1800 X-9.872 Y-13.32 E391.2
G0 F7200 X-10.299 Y-13.459
G1 F1800 X-14.084 Y-9.674 E391.73411
G0 F7200 X-14.158 Y-10.166
G1 F1800 X-10.726 Y-13.597 E392.21833
G0 F7200 X-11.153 Y-13.736
G1 F1800 X-14.219 Y-10.67 E392.65098
G0 F7200 X-14.242 Y-11.213
G1 F1800 X-11.581 Y-13.874 E393.02647
G0 F7200 X-12.167 Y-13.853
G1 F1800 X-14.21 Y-11.81 E393.31476
G1 X-14.28 Y-11.74
G0 F7200 X12.791 Y-.346
G1 F1800 X16.816 Y-4.371 E393.88273
G0 F7200 X16.976 Y-3.965
G1 F1800 X13.641 Y-.63 E394.35334
G1 X13.571 Y-.56
G0 F7200 X14.49 Y-.914
G1 F1800 X16.964 Y-3.387 E394.70237
G0 F7200 X16.895 Y-2.753
G1 F1800 X15.344 Y-1.202 E394.92124
G1 X15.274 Y-1.132
;MESH:NONMESH
G0 F600 X15.274 Y-1.132 Z2.7
G0 F7200 X-9.023 Y3.093
;TIME_ELAPSED:143.007244
;LAYER:4
;TYPE:WALL-INNER
;MESH:bunny.stl
G1 F3600 X-9.401 Y2.899 E394.96363
G1 X-10.529 Y2.406 E395.08646
G1 X-11.2 Y2.26 E395.15498
G1 X-11.574 Y2.165 E395.19349
G1 X-12.195 Y1.964 E395.25861
G1 X-14.089 Y1.151 E395.46427
G1 X-14.51 Y0.957 E395.51053
G1 X-14.779 Y0.73 E395.54565
G1 X-15.865 Y-.286 E395.69404
G1 X-15.973 Y-.45 E395.71363
G1 X-16.123 Y-1.474 E395.8169
G1 X-16.145 Y-2.311 E395.90044
G1 X-15.951 Y-2.705 E395.94426
G1 X-15.62 Y-2.998 E395.98837
G1 X-15.092 Y-3.596 E396.06797
G1 X-14.521 Y-4.222 E396.15251
G1 X-13.673 Y-4.875 E396.25931
G1 X-13.651 Y-4.897 E396.26241
G1 X-12.825 Y-5.555 E396.36778
G1 X-12.543 Y-6.1 E396.42901
G1 X-12.398 Y-6.481 E396.46969
G1 X-12.51 Y-6.827 E396.50598
G1 X-12.552 Y-7.421 E396.56539
G1 X-12.835 Y-7.726 E396.60691
G1 X-13.284 Y-8.166 E396.66964
G1 X-13.516 Y-8.418 E396.70381
G1 X-14.043 Y-8.98 E396.78069
G1 X-14.344 Y-9.31 E396.82526
G1 X-14.476 Y-9.818 E396.87763
G1 X-14.61 Y-10.661 E396.9628
G1 X-14.666 Y-11.06 E397.003
G1 X-14.624 Y-11.743 E397.07128
G1 X-14.216 Y-12.623 E397.16807
G1 X-13.663 Y-13.434 E397.26601
G1 X-13.147 Y-13.775 E397.32772
G1 X-12.004 Y-14.384 E397.45695
G1 X-11.354 Y-14.259 E397.523
G1 X-10.904 Y-14.152 E397.56915
G1 X-9.695 Y-13.808 E397.69457
G1 X-9.263 Y-13.667 E397.73992
G1 X-7.824 Y-13.29 E397.88835
G1 X-6.881 Y-13.107 E397.98419
G1 X-6.218 Y-13.469 E398.05957
G1 X-5.796 Y-14.025 E398.12921
G1 X-5.44 Y-14.753 E398.21007
G1 X-5.301 Y-14.97 E398.23579
G1 X-4.852 Y-15.395 E398.29748
G1 X-3.881 Y-16.159 E398.42076
G1 X-2.579 Y-16.541 E398.55615
G1 X-1.929 Y-16.677 E398.62241
G1 X0.875 Y-15.76 E398.91678
G1 X2.251 Y-15.283 E399.06209
G1 X2.552 Y-15.184 E399.09371
G1 X4.123 Y-14.787 E399.25539
G1 X5.717 Y-14.38 E399.41954
G1 X6.184 Y-14.301 E399.4668
G1 X7.362 Y-14.046 E399.58707
G1 X8.536 Y-13.854 E399.70576
G1 X8.917 Y-13.8 E399.74416
G1 X9.942 Y-13.671 E399.84724
G1 X10.318 Y-13.489 E399.88892
G1 X11.693 Y-12.707 E400.04676
G1 X12.107 Y-12.427 E400.09663
G1 X13.141 Y-9.785 E400.37972
G1 X13.669 Y-9.403 E400.44474
G1 X13.912 Y-9.237 E400.47411
G1 X14.638 Y-8.794 E400.55897
G1 X15.498 Y-8.278 E400.65904
G1 X16.448 Y-7.941 E400.75962
G1 X16.681 Y-7.824 E400.78564
G1 X17.183 Y-7.585 E400.84111
G1 X18.516 Y-5.289 E401.10602
G1 X18.916 Y-4.278 E401.21451
G1 X18.869 Y-3.846 E401.25787
G1 X18.37 Y-1.996 E401.44906
G1 X17.504 Y-1.158 E401.5693
G1 X16.431 Y-.351 E401.70327
G1 X14.104 Y0.234 E401.94268
G1 X13.053 Y0.585 E402.05324
G1 X12.458 Y1.253 E402.1425
G1 X11.921 Y1.729 E402.2141
G1 X11.611 Y2.491 E402.29619
G1 X11.217 Y4.571 E402.50742
G1 X10.699 Y5.248 E402.59248
G1 X10.376 Y5.681 E402.64638
G1 X9.786 Y6.21 E402.72545
G1 X8.758 Y6.439 E402.83054
G1 X7.812 Y6.725 E402.92915
G1 X7.669 Y6.7 E402.94363
G1 X7.002 Y6.652 E403.01036
G1 X5.781 Y6.793 E403.133
G1 X4.523 Y6.963 E403.25967
G1 X4.047 Y7.018 E403.30748
G1 X2.211 Y7.271 E403.49241
G1 X0.969 Y7.458 E403.61773
G1 X-0.029 Y7.659 E403.71931
G1 X-.884 Y7.842 E403.80655
G1 X-1.803 Y8.024 E403.90003
G1 X-2.652 Y8.171 E403.98601
G1 X-3.999 Y8.44 E404.12307
G1 X-4.279 Y8.481 E404.1513
G1 X-5.752 Y8.167 E404.30158
G1 X-6.436 Y7.701 E404.38416
G1 X-7.219 Y6.756 E404.50662
G1 X-8.181 Y5.665 E404.65175
G1 X-8.257 Y5.377 E404.68148
G1 X-8.405 Y4.382 E404.78185
G1 X-9.023 Y3.093 E404.92448
G0 F7200 X-9.325 Y3.388
;TYPE:WALL-OUTER
G1 F1800 X-9.573 Y3.261 E404.95229
G1 X-10.653 Y2.788 E405.06993
G1 X-11.3 Y2.648 E405.13598
G1 X-11.684 Y2.55 E405.17553
G1 X-12.337 Y2.339 E405.244
G1 X-14.247 Y1.519 E405.4514
G1 X-14.727 Y1.297 E405.50417
G1 X-15.037 Y1.036 E405.54461
G1 X-16.171 Y-0.025 E405.69956
G1 X-16.346 Y-.284 E405.73075
G1 X-16.368 Y-.388 E405.74136
G1 X-16.522 Y-1.438 E405.84725
G1 X-16.537 Y-1.813 E405.88469
G1 X-16.546 Y-2.383 E405.94158
G1 X-16.532 Y-2.431 E405.94657
G1 X-16.276 Y-2.951 E406.0044
G1 X-15.904 Y-3.281 E406.05402
G1 X-15.388 Y-3.865 E406.13178
G1 X-14.793 Y-4.518 E406.21992
G1 X-13.938 Y-5.176 E406.32758
G1 X-13.92 Y-5.194 E406.33012
G1 X-13.141 Y-5.815 E406.42952
G1 X-12.909 Y-6.264 E406.47995
G1 X-12.822 Y-6.492 E406.5043
G1 X-12.905 Y-6.749 E406.53125
G1 X-12.941 Y-7.252 E406.58156
G1 X-13.122 Y-7.447 E406.60811
G1 X-13.575 Y-7.892 E406.67147
G1 X-13.809 Y-8.146 E406.70593
G1 X-14.335 Y-8.706 E406.78259
G1 X-14.706 Y-9.113 E406.83754
G1 X-14.868 Y-9.739 E406.90206
G1 X-15.005 Y-10.598 E406.98886
G1 X-15.067 Y-11.044 E407.03379
G1 X-15.018 Y-11.844 E407.11376
G1 X-14.564 Y-12.822 E407.22135
G1 X-13.95 Y-13.724 E407.33023
G1 X-13.352 Y-14.119 E407.40174
G1 X-12.067 Y-14.803 E407.54699
G1 X-11.279 Y-14.652 E407.62704
G1 X-10.795 Y-14.537 E407.67668
G1 X-9.586 Y-14.193 E407.80211
G1 X-9.15 Y-14.051 E407.84786
G1 X-7.735 Y-13.68 E407.99382
G1 X-6.946 Y-13.527 E408.07401
G1 X-6.485 Y-13.779 E408.12644
G1 X-6.138 Y-14.236 E408.18369
G1 X-5.789 Y-14.949 E408.2629
G1 X-5.612 Y-15.226 E408.2957
G1 X-5.115 Y-15.697 E408.36402
G1 X-4.066 Y-16.522 E408.49718
G1 X-2.676 Y-16.93 E408.64173
G1 X-1.907 Y-17.09 E408.7201
G1 X1.006 Y-16.138 E409.02589
G1 X2.379 Y-15.662 E409.17089
G1 X2.664 Y-15.568 E409.20084
G1 X4.222 Y-15.175 E409.36116
G1 X5.8 Y-14.772 E409.52367
G1 X6.269 Y-14.692 E409.57114
G1 X7.437 Y-14.439 E409.69039
G1 X8.596 Y-14.249 E409.80758
G1 X8.97 Y-14.196 E409.84527
G1 X10.056 Y-14.06 E409.95448
G1 X10.512 Y-13.839 E410.00504
G1 X11.896 Y-13.052 E410.1639
G1 X12.393 Y-12.716 E410.22376
G1 X12.443 Y-12.665 E410.23089
G1 X13.471 Y-10.04 E410.51218
G1 X13.899 Y-9.73 E410.56491
G1 X14.129 Y-9.573 E410.5927
G1 X14.845 Y-9.136 E410.6764
G1 X15.669 Y-8.642 E410.77226
G1 X16.6 Y-8.312 E410.87082
G1 X16.857 Y-8.183 E410.89951
G1 X17.467 Y-7.893 E410.9669
G1 X18.877 Y-5.465 E411.24706
G1 X19.324 Y-4.333 E411.3685
G1 X19.264 Y-3.775 E411.4245
G1 X18.727 Y-1.786 E411.63007
G1 X17.758 Y-.848 E411.76463
G1 X16.609 Y0.017 E411.90814
G1 X14.216 Y0.618 E412.15433
G1 X13.281 Y0.931 E412.25271
G1 X12.745 Y1.533 E412.33314
G1 X12.256 Y1.966 E412.39831
G1 X11.997 Y2.605 E412.46711
G1 X11.592 Y4.739 E412.68384
G1 X11.018 Y5.489 E412.77808
G1 X10.67 Y5.955 E412.83611
G1 X9.976 Y6.577 E412.9291
G1 X8.86 Y6.826 E413.04319
G1 X7.836 Y7.136 E413.14995
G1 X7.619 Y7.097 E413.17195
G1 X7.011 Y7.054 E413.23276
G1 X5.831 Y7.19 E413.35128
G1 X4.569 Y7.36 E413.47834
G1 X4.097 Y7.415 E413.52576
G1 X2.268 Y7.667 E413.70998
G1 X1.038 Y7.852 E413.83409
G1 X0.052 Y8.051 E413.93446
G1 X-.8 Y8.233 E414.02139
G1 X-1.735 Y8.418 E414.11649
G1 X-2.579 Y8.564 E414.20196
G1 X-3.941 Y8.836 E414.34054
G1 X-4.291 Y8.887 E414.37583
G1 X-5.913 Y8.541 E414.54132
G1 X-6.707 Y8.001 E414.63713
G1 X-7.523 Y7.016 E414.76476
G1 X-8.544 Y5.857 E414.91888
G1 X-8.65 Y5.459 E414.95998
G1 X-8.792 Y4.5 E415.05671
G1 X-9.231 Y3.584 E415.15806
G1 X-9.325 Y3.388 E415.17975
G0 F7200 X-9.503 Y3.297
G0 X-9.233 Y2.546
;TYPE:SKIN
G1 F1800 X-10.408 Y2.033 E415.30768
G1 X-11.111 Y1.88 E415.37947
G1 X-11.462 Y1.791 E415.4156
G1 X-12.054 Y1.6 E415.47767
G1 X-13.93 Y0.794 E415.6814
G1 X-14.3 Y0.624 E415.72203
G1 X-14.516 Y0.441 E415.75028
G1 X-15.566 Y-.541 E415.89373
G1 X-15.599 Y-.592 E415.89979
G1 X-15.733 Y-1.508 E415.99216
G1 X-15.753 Y-2.227 E416.06393
G1 X-15.638 Y-2.461 E416.08995
G1 X-15.343 Y-2.721 E416.12918
G1 X-14.804 Y-3.333 E416.21055
G1 X-14.256 Y-3.934 E416.29171
G1 X-13.414 Y-4.582 E416.39772
G1 X-13.394 Y-4.604 E416.40069
G1 X-12.517 Y-5.302 E416.51253
G1 X-12.186 Y-5.94 E416.58425
G1 X-11.985 Y-6.471 E416.6409
G1 X-12.124 Y-6.899 E416.6858
G1 X-12.172 Y-7.585 E416.75442
G1 X-12.556 Y-7.999 E416.81076
G1 X-13.005 Y-8.439 E416.87349
G1 X-13.23 Y-8.683 E416.90661
G1 X-13.758 Y-9.247 E416.98369
G1 X-13.991 Y-9.501 E417.01809
G1 X-14.092 Y-9.892 E417.05838
G1 X-14.224 Y-10.722 E417.14224
G1 X-14.274 Y-11.071 E417.17742
G1 X-14.238 Y-11.649 E417.2352
G1 X-13.878 Y-12.426 E417.32065
G1 X-13.385 Y-13.15 E417.40805
G1 X-12.948 Y-13.439 E417.46033
G1 X-11.941 Y-13.974 E417.57411
G1 X-11.002 Y-13.774 E417.6699
G1 X-9.816 Y-13.437 E417.79292
G1 X-9.373 Y-13.293 E417.8394
G1 X-7.91 Y-12.91 E417.9903
G1 X-6.817 Y-12.697 E418.10141
G1 X-5.958 Y-13.167 E418.19912
G1 X-5.462 Y-13.82 E418.28094
G1 X-5.098 Y-14.565 E418.36367
G1 X-4.997 Y-14.721 E418.38222
G1 X-4.597 Y-15.1 E418.4372
G1 X-3.699 Y-15.806 E418.55118
G1 X-2.489 Y-16.161 E418.677
G1 X-1.951 Y-16.273 E418.73183
G1 X0.747 Y-15.391 E419.01506
G1 X2.126 Y-14.914 E419.16066
G1 X2.443 Y-14.809 E419.19398
G1 X4.027 Y-14.409 E419.35699
G1 X5.637 Y-13.998 E419.52279
G1 X6.111 Y-13.918 E419.57075
G1 X7.289 Y-13.662 E419.69104
G1 X8.477 Y-13.468 E419.81115
G1 X8.865 Y-13.414 E419.85024
G1 X9.83 Y-13.292 E419.94729
G1 X10.136 Y-13.144 E419.98121
G1 X11.493 Y-12.372 E420.13699
G1 X11.788 Y-12.173 E420.17249
G1 X12.819 Y-9.536 E420.45501
G1 X13.445 Y-9.084 E420.53205
G1 X13.7 Y-8.909 E420.56291
G1 X14.436 Y-8.46 E420.64894
G1 X15.331 Y-7.923 E420.75308
G1 X16.287 Y-7.585 E420.85426
G1 X16.908 Y-7.283 E420.92316
G1 X18.16 Y-5.126 E421.17202
G1 X18.518 Y-4.224 E421.26885
G1 X18.483 Y-3.912 E421.30017
G1 X18.023 Y-2.203 E421.47677
G1 X17.248 Y-1.454 E421.58431
G1 X16.259 Y-.709 E421.70786
G1 X13.995 Y-.141 E421.94076
G1 X12.831 Y0.248 E422.06322
G1 X12.19 Y0.969 E422.15948
G1 X11.594 Y1.497 E422.23893
G1 X11.235 Y2.38 E422.33404
G1 X10.851 Y4.407 E422.53989
G1 X10.387 Y5.013 E422.61605
G1 X10.089 Y5.414 E422.6659
G1 X9.6 Y5.853 E422.73147
G1 X8.659 Y6.061 E422.82763
G1 X7.788 Y6.325 E422.91845
G1 X7.716 Y6.312 E422.92575
G1 X6.994 Y6.26 E422.99797
G1 X5.732 Y6.406 E423.12474
G1 X4.478 Y6.575 E423.25099
G1 X3.998 Y6.632 E423.29922
G1 X2.155 Y6.885 E423.48484
G1 X0.901 Y7.074 E423.61138
G1 X-.109 Y7.277 E423.71417
G1 X-1.068 Y7.482 E423.81203
G1 X-1.869 Y7.64 E423.89349
G1 X-2.724 Y7.787 E423.98005
G1 X-4.056 Y8.054 E424.11561
G1 X-4.264 Y8.085 E424.13659
G1 X-5.597 Y7.801 E424.27258
G1 X-6.171 Y7.409 E424.34194
G1 X-6.923 Y6.502 E424.4595
G1 X-7.828 Y5.475 E424.59608
G1 X-7.874 Y5.3 E424.61414
G1 X-8.028 Y4.267 E424.71835
G1 X-8.728 Y2.806 E424.88
G1 X-9.233 Y2.546 E424.93667
G0 F7200 X-15.436 Y-.729
G1 F1800 X-14.482 Y0.224 E425.07122
G1 X-14.412 Y0.294
G0 F7200 X-13.255 Y0.886
G1 F1800 X-15.533 Y-1.391 E425.3926
G0 F7200 X-15.566 Y-1.989
G1 F1800 X-12.263 Y1.313 E425.85862
G1 X-12.193 Y1.383
G0 F7200 X-11.387 Y1.623
G1 F1800 X-15.421 Y-2.41 E426.42779
G0 F7200 X-15.132 Y-2.687
G1 F1800 X-10.648 Y1.796 E427.06046
G1 X-10.578 Y1.866
G0 F7200 X-9.76 Y2.119
G1 F1800 X-14.867 Y-2.988 E427.78111
G0 F7200 X-14.601 Y-3.287
G1 F1800 X-8.691 Y2.622 E428.61501
G0 F7200 X-8.547 Y2.766
G1 F1800 X-3.546 Y7.767 E429.3207
G0 F7200 X-4.017 Y7.861
G1 F1800 X-8.028 Y3.85 E429.8867
G1 X-8.098 Y3.78
G0 F7200 X-7.788 Y4.657
G1 F1800 X-4.621 Y7.823 E430.33353
G0 F7200 X-5.339 Y7.671
G1 F1800 X-7.679 Y5.33 E430.6638
G1 X-7.749 Y5.26
G0 F7200 X-3.075 Y7.672
G1 F1800 X-14.331 Y-3.583 E432.25207
G0 F7200 X-14.048 Y-3.865
G1 F1800 X-2.6 Y7.581 E433.86736
G0 F7200 X-2.117 Y7.498
G1 F1800 X-13.728 Y-4.111 E435.50566
G0 F7200 X-13.408 Y-4.357
G1 F1800 X-1.64 Y7.41 E437.16618
G0 F7200 X-1.168 Y7.317
G1 F1800 X-13.095 Y-4.61 E438.84921
G0 F7200 X-12.78 Y-4.861
G1 F1800 X-.7 Y7.218 E440.55376
G0 F7200 X-.235 Y7.118
G1 F1800 X-12.465 Y-5.111 E442.27947
G0 F7200 X-12.237 Y-5.448
G1 F1800 X0.234 Y7.022 E444.0392
G0 F7200 X0.706 Y6.928
G1 F1800 X-12.044 Y-5.821 E445.83829
G0 F7200 X-11.884 Y-6.227
G1 F1800 X1.19 Y6.847 E447.68317
G0 F7200 X1.682 Y6.773
G1 F1800 X-11.908 Y-6.817 E449.60087
G0 F7200 X-11.981 Y-7.456
G1 F1800 X2.174 Y6.699 E451.59829
G0 F7200 X2.671 Y6.631
G1 F1800 X-13.92 Y-9.96 E453.93946
G0 F7200 X-14.026 Y-10.632
G1 F1800 X3.169 Y6.563 E456.36586
G0 F7200 X3.666 Y6.494
G1 F1800 X-14.082 Y-11.253 E458.87022
G0 F7200 X-13.999 Y-11.736
G1 F1800 X4.166 Y6.429 E461.4335
G0 F7200 X4.669 Y6.366
G1 F1800 X-13.82 Y-12.123 E464.0425
G0 F7200 X-13.618 Y-12.487
G1 F1800 X5.168 Y6.299 E466.69341
G0 F7200 X5.666 Y6.232
G1 F1800 X-13.389 Y-12.823 E469.38227
G0 F7200 X-13.112 Y-13.112
G1 F1800 X6.173 Y6.173 E472.10359
G0 F7200 X6.68 Y6.114
G1 F1800 X-12.764 Y-13.33 E474.84735
G0 F7200 X-12.395 Y-13.526
G1 F1800 X7.227 Y6.095 E477.61616
G0 F7200 X7.823 Y6.126
G1 F1800 X-12.026 Y-13.723 E480.41707
G0 F7200 X-11.413 Y-13.676
G1 F1800 X8.257 Y5.994 E483.19272
G0 F7200 X8.696 Y5.868
G1 F1800 X-10.659 Y-13.488 E485.92399
G1 X-10.729 Y-13.558
G0 F7200 X-9.87 Y-13.264
G1 F1800 X9.159 Y5.765 E488.60918
G0 F7200 X9.583 Y5.623
G1 F1800 X-9.065 Y-13.024 E491.24055
G0 F7200 X-8.298 Y-12.824
G1 F1800 X9.881 Y5.356 E493.80587
G0 F7200 X10.137 Y5.046
G1 F1800 X-7.568 Y-12.659 E496.30424
G0 F7200 X-6.865 Y-12.522
G1 F1800 X10.381 Y4.724 E498.73783
G0 F7200 X10.626 Y4.403
G1 F1800 X-6.462 Y-12.685 E501.14914
G0 F7200 X-6.097 Y-12.885
G1 F1800 X10.75 Y3.962 E503.52643
G0 F7200 X10.841 Y3.487
G1 F1800 X-5.767 Y-13.121 E505.87
G0 F7200 X-5.523 Y-13.442
G1 F1800 X10.931 Y3.012 E508.19183
G0 F7200 X11.021 Y2.536
G1 F1800 X-5.285 Y-13.77 E510.49279
G0 F7200 X-5.099 Y-14.15
G1 F1800 X11.153 Y2.102 E512.78612
G0 F7200 X11.317 Y1.7
G1 F1800 X-4.908 Y-14.525 E515.07564
G0 F7200 X-4.632 Y-14.815
G1 F1800 X11.51 Y1.328 E517.35352
G0 F7200 X11.81 Y1.062
G1 F1800 X-4.33 Y-15.078 E519.63105
G0 F7200 X-4.014 Y-15.327
G1 F1800 X12.106 Y0.792 E521.90569
G0 F7200 X12.372 Y0.492
G1 F1800 X-3.697 Y-15.576 E524.17313
G0 F7200 X-3.291 Y-15.736
G1 F1800 X12.638 Y0.193 E526.42088
G0 F7200 X13.008 Y-0.002
G1 F1800 X-2.854 Y-15.865 E528.65925
G0 F7200 X-2.414 Y-15.991
G1 F1800 X13.432 Y-.143 E530.89543
G0 F7200 X13.857 Y-.284
G1 F1800 X-1.935 Y-16.077 E533.12393
G1 X-2.005 Y-16.147
G0 F7200 X-1.095 Y-15.803
G1 F1800 X14.303 Y-.404 E535.29682
G0 F7200 X14.755 Y-.517
G1 F1800 X-.254 Y-15.528 E537.41489
G1 X-.324 Y-15.598
G0 F7200 X0.585 Y-15.253
G1 F1800 X15.207 Y-.631 E539.47822
G0 F7200 X15.66 Y-.744
G1 F1800 X1.447 Y-14.957 E541.48382
G1 X1.377 Y-15.027
G0 F7200 X2.306 Y-14.663
G1 F1800 X16.112 Y-.858 E543.43193
G0 F7200 X16.453 Y-1.082
G1 F1800 X3.073 Y-14.463 E545.32006
G0 F7200 X3.83 Y-14.271
G1 F1800 X16.776 Y-1.325 E547.14688
G0 F7200 X17.098 Y-1.569
G1 F1800 X4.589 Y-14.078 E548.91204
G0 F7200 X5.348 Y-13.884
G1 F1800 X17.389 Y-1.843 E550.61115
G0 F7200 X17.677 Y-2.121
G1 F1800 X6.054 Y-13.744 E552.25128
G0 F7200 X6.776 Y-13.588
G1 F1800 X17.905 Y-2.459 E553.82171
G0 F7200 X18.025 Y-2.904
G1 F1800 X7.483 Y-13.447 E555.30937
G0 F7200 X8.159 Y-13.336
G1 F1800 X18.145 Y-3.35 E556.7185
G0 F7200 X18.265 Y-3.796
G1 F1800 X8.823 Y-13.237 E558.0508
G0 F7200 X9.472 Y-13.155
G1 F1800 X12.325 Y-10.301 E558.45346
G1 X12.395 Y-10.231
G0 F7200 X11.962 Y-11.23
G1 F1800 X10.417 Y-12.776 E558.67154
G1 X10.347 Y-12.846
G0 F7200 X14.291 Y-8.336
G1 F1800 X18.27 Y-4.356 E559.23309
G1 X18.34 Y-4.286
G0 F7200 X17.792 Y-5.4
G1 F1800 X15.533 Y-7.659 E559.55186
G1 X15.463 Y-7.729
G0 F7200 X16.457 Y-7.301
G1 F1800 X17.008 Y-6.75 E559.62961
;MESH:NONMESH
G0 F600 X17.008 Y-6.75 Z3.3
G0 F7200 X-6.657 Y-12.977
;TIME_ELAPSED:198.645208
;LAYER:5
;TYPE:WALL-INNER
;MESH:bunny.stl
G1 F3600 X-6.332 Y-13.235 E559.67102
G1 X-5.526 Y-13.989 E559.78115
G1 X-5.099 Y-14.611 E559.85643
G1 X-4.064 Y-15.594 E559.99886
G1 X-3.553 Y-15.981 E560.06282
G1 X-2.985 Y-16.218 E560.12423
G1 X-2.059 Y-16.489 E560.2205
G1 X-1.853 Y-16.532 E560.2415
G1 X0.527 Y-15.754 E560.49134
G1 X1.687 Y-15.308 E560.61535
G1 X2.401 Y-15.053 E560.691
G1 X3.286 Y-14.845 E560.78171
G1 X4.344 Y-14.602 E560.89002
G1 X5.353 Y-14.471 E560.99155
G1 X6.279 Y-14.313 E561.08528
G1 X7.115 Y-14.154 E561.17019
G1 X8.587 Y-13.863 E561.31991
G1 X9.974 Y-13.72 E561.45904
G1 X10.391 Y-13.62 E561.50183
G1 X12.43 Y-12.244 E561.74727
G1 X12.769 Y-11.892 E561.79604
G1 X13.462 Y-10.125 E561.98542
G1 X14.235 Y-9.535 E562.08245
G1 X14.741 Y-9.233 E562.14125
G1 X15.25 Y-8.835 E562.20572
G1 X15.607 Y-8.776 E562.24183
G1 X15.918 Y-8.832 E562.27336
G1 X16.101 Y-8.777 E562.29242
G1 X16.884 Y-8.557 E562.37358
G1 X17.654 Y-8.241 E562.45663
G1 X17.83 Y-8.158 E562.47604
G1 X18.901 Y-6.308 E562.68934
G1 X19.868 Y-5.12 E562.84218
G1 X19.928 Y-4.569 E562.89749
G1 X19.81 Y-3.681 E562.98687
G1 X19.351 Y-1.977 E563.16296
G1 X17.566 Y-.25 E563.41078
G1 X17.396 Y-.122 E563.43201
G1 X15.67 Y0.31 E563.60955
G1 X13.814 Y0.718 E563.79916
G1 X13.596 Y0.809 E563.82273
G1 X12.853 Y1.429 E563.91929
G1 X12.513 Y1.774 E563.96762
G1 X12.266 Y2.352 E564.03034
G1 X11.836 Y3.446 E564.14763
G1 X11.651 Y4.424 E564.24695
G1 X10.824 Y5.508 E564.38299
G1 X10.309 Y6.194 E564.46858
G1 X10.203 Y6.29 E564.48285
G1 X9.923 Y6.351 E564.51145
G1 X8.004 Y6.931 E564.71148
G1 X7.532 Y6.856 E564.75917
G1 X6.232 Y6.899 E564.88895
G1 X5.428 Y6.974 E564.96952
G1 X4.161 Y7.081 E565.0964
G1 X1.006 Y7.531 E565.41439
G1 X-1.938 Y8.014 E565.71207
G1 X-2.959 Y8.188 E565.81541
G1 X-3.583 Y8.272 E565.87824
G1 X-3.998 Y8.234 E565.91982
G1 X-4.994 Y8.088 E566.02026
G1 X-5.681 Y7.94 E566.09039
G1 X-5.861 Y7.818 E566.11208
G1 X-6.954 Y6.5 E566.28293
G1 X-7.545 Y5.827 E566.3723
G1 X-7.908 Y4.918 E566.46997
G1 X-7.974 Y4.269 E566.53506
G1 X-8.244 Y3.528 E566.61375
G1 X-8.515 Y3.113 E566.66321
G1 X-8.82 Y2.864 E566.70249
G1 X-9.85 Y2.382 E566.81596
G1 X-10.693 Y2.062 E566.90593
G1 X-10.751 Y2.035 E566.91232
G1 X-11.495 Y1.852 E566.98877
G1 X-11.928 Y1.555 E567.04116
G1 X-12.891 Y1.132 E567.14611
G1 X-13.134 Y1.005 E567.17347
G1 X-13.885 Y0.663 E567.25581
G1 X-14.513 Y0.131 E567.33793
G1 X-15.019 Y-.345 E567.40725
G1 X-15.341 Y-.696 E567.45478
G1 X-15.531 Y-1.026 E567.49277
G1 X-15.638 Y-1.752 E567.56599
G1 X-15.667 Y-2.254 E567.61617
G1 X-15.503 Y-2.669 E567.66069
G1 X-15.364 Y-2.905 E567.68802
G1 X-14.828 Y-3.459 E567.76494
G1 X-14.615 Y-3.623 E567.79176
G1 X-13.636 Y-4.263 E567.90847
G1 X-12.418 Y-5.169 E568.05993
G1 X-12.207 Y-5.41 E568.0919
G1 X-12.15 Y-5.559 E568.10781
G1 X-11.722 Y-6.439 E568.20546
G1 X-11.981 Y-7.365 E568.3014
G1 X-12.328 Y-7.894 E568.36452
G1 X-12.801 Y-8.324 E568.42831
G1 X-13.388 Y-8.967 E568.51518
G1 X-13.723 Y-9.314 E568.56331
G1 X-14.122 Y-9.754 E568.62257
G1 X-14.444 Y-10.995 E568.7505
G1 X-14.49 Y-11.392 E568.79038
G1 X-13.747 Y-12.988 E568.96604
G1 X-13.59 Y-13.219 E568.99391
G1 X-12.702 Y-13.806 E569.10012
G1 X-12.198 Y-14.073 E569.15703
G1 X-10.278 Y-13.706 E569.35208
G1 X-10.066 Y-13.674 E569.37347
G1 X-9.1 Y-13.426 E569.47299
G1 X-8.825 Y-13.346 E569.50156
G1 X-7.028 Y-13.06 E569.68313
G1 X-6.657 Y-12.977 E569.72106
G0 F7200 X-6.756 Y-13.409
;TYPE:WALL-OUTER
G1 F1800 X-6.594 Y-13.538 E569.74172
G1 X-5.831 Y-14.251 E569.84592
G1 X-5.406 Y-14.871 E569.92093
G1 X-4.318 Y-15.904 E570.07062
G1 X-3.756 Y-16.33 E570.14099
G1 X-3.117 Y-16.596 E570.21005
G1 X-2.163 Y-16.875 E570.30923
G1 X-1.83 Y-16.945 E570.34318
G1 X0.663 Y-16.13 E570.60489
G1 X1.826 Y-15.683 E570.72921
G1 X2.514 Y-15.437 E570.80212
G1 X3.376 Y-15.235 E570.89046
G1 X4.415 Y-14.996 E570.99684
G1 X5.404 Y-14.868 E571.09634
G1 X6.354 Y-14.706 E571.1925
G1 X7.19 Y-14.546 E571.27743
G1 X8.646 Y-14.259 E571.42551
G1 X10.043 Y-14.115 E571.56564
G1 X10.497 Y-14.009 E571.61216
G1 X10.581 Y-13.975 E571.6212
G1 X12.689 Y-12.553 E571.87492
G1 X13.111 Y-12.113 E571.93575
G1 X13.793 Y-10.375 E572.12205
G1 X14.46 Y-9.867 E572.2057
G1 X14.968 Y-9.563 E572.26478
G1 X15.416 Y-9.213 E572.3215
G1 X15.596 Y-9.183 E572.33971
G1 X15.813 Y-9.231 E572.36189
G1 X15.974 Y-9.232 E572.37795
G1 X16.212 Y-9.161 E572.40273
G1 X17.011 Y-8.937 E572.48553
G1 X17.35 Y-8.813 E572.52155
G1 X17.816 Y-8.607 E572.57239
G1 X18.113 Y-8.466 E572.60519
G1 X19.231 Y-6.536 E572.82775
G1 X20.253 Y-5.281 E572.98924
G1 X20.331 Y-4.567 E573.06091
G1 X20.202 Y-3.601 E573.15815
G1 X19.708 Y-1.765 E573.34786
G1 X17.826 Y0.055 E573.60909
G1 X17.574 Y0.246 E573.64065
G1 X15.756 Y0.701 E573.82764
G1 X13.935 Y1.101 E574.01367
G1 X13.806 Y1.155 E574.02763
G1 X13.124 Y1.724 E574.11625
G1 X12.851 Y2.001 E574.15506
G1 X12.636 Y2.504 E574.20964
G1 X12.222 Y3.557 E574.32254
G1 X12.026 Y4.592 E574.42765
G1 X11.143 Y5.749 E574.57287
G1 X10.606 Y6.465 E574.66217
G1 X10.392 Y6.658 E574.69093
G1 X10.024 Y6.738 E574.72851
G1 X8.032 Y7.341 E574.93618
G1 X7.507 Y7.257 E574.98923
G1 X6.257 Y7.298 E575.11402
G1 X5.462 Y7.373 E575.1937
G1 X4.206 Y7.479 E575.31947
G1 X1.067 Y7.926 E575.63584
G1 X-1.872 Y8.409 E575.93303
G1 X-2.895 Y8.583 E576.03657
G1 X-3.576 Y8.674 E576.10512
G1 X-4.055 Y8.63 E576.15312
G1 X-5.061 Y8.483 E576.25456
G1 X-5.84 Y8.315 E576.33408
G1 X-6.133 Y8.117 E576.36936
G1 X-7.258 Y6.76 E576.54525
G1 X-7.887 Y6.044 E576.64034
G1 X-8.105 Y5.529 E576.69614
G1 X-8.301 Y5.009 E576.75159
G1 X-8.367 Y4.359 E576.81678
G1 X-8.604 Y3.708 E576.88591
G1 X-8.816 Y3.384 E576.92454
G1 X-9.035 Y3.205 E576.95277
G1 X-10.006 Y2.751 E577.05972
G1 X-10.852 Y2.43 E577.15001
G1 X-10.887 Y2.413 E577.15389
G1 X-11.66 Y2.224 E577.23329
G1 X-12.123 Y1.906 E577.28934
G1 X-13.071 Y1.49 E577.39264
G1 X-13.31 Y1.364 E577.41959
G1 X-14.099 Y1.005 E577.50609
G1 X-14.782 Y0.427 E577.59537
G1 X-15.306 Y-0.066 E577.66715
G1 X-15.667 Y-.46 E577.72047
G1 X-15.916 Y-.892 E577.77023
G1 X-16.036 Y-1.703 E577.85203
G1 X-16.071 Y-2.32 E577.91369
G1 X-15.864 Y-2.845 E577.97
G1 X-15.677 Y-3.161 E578.00664
G1 X-15.438 Y-3.377 E578.03878
G1 X-15.102 Y-3.753 E578.0891
G1 X-14.845 Y-3.951 E578.12147
G1 X-13.865 Y-4.591 E578.23826
G1 X-12.691 Y-5.465 E578.3843
G1 X-12.555 Y-5.62 E578.40488
G1 X-12.517 Y-5.72 E578.41555
G1 X-12.148 Y-6.478 E578.49967
G1 X-12.349 Y-7.197 E578.57416
G1 X-12.635 Y-7.632 E578.62611
G1 X-13.083 Y-8.04 E578.68657
G1 X-13.68 Y-8.693 E578.77485
G1 X-14.011 Y-9.036 E578.82241
G1 X-14.484 Y-9.558 E578.8927
G1 X-14.838 Y-10.919 E579.03302
G1 X-14.892 Y-11.387 E579.08003
G1 X-14.884 Y-11.495 E579.09083
G1 X-14.099 Y-13.181 E579.2764
G1 X-13.874 Y-13.511 E579.31626
G1 X-12.915 Y-14.145 E579.43097
G1 X-12.26 Y-14.492 E579.50493
G1 X-10.21 Y-14.1 E579.71318
G1 X-9.987 Y-14.066 E579.73569
G1 X-8.988 Y-13.81 E579.83859
G1 X-8.737 Y-13.737 E579.86468
G1 X-6.956 Y-13.454 E580.04461
G1 X-6.756 Y-13.409 E580.06507
G0 F7200 X-6.6 Y-13.533
G0 X-6.077 Y-12.939
;TYPE:SKIN
G1 F1800 X-5.228 Y-13.733 E580.18106
G1 X-4.802 Y-14.355 E580.25628
G1 X-3.806 Y-15.301 E580.39334
G1 X-3.358 Y-15.64 E580.4494
G1 X-2.851 Y-15.851 E580.5042
G1 X-1.974 Y-16.108 E580.59538
G1 X-1.876 Y-16.128 E580.60536
G1 X0.396 Y-15.386 E580.84385
G1 X1.551 Y-14.942 E580.96732
G1 X2.29 Y-14.678 E581.04562
G1 X3.198 Y-14.465 E581.13868
G1 X4.275 Y-14.218 E581.24893
G1 X5.287 Y-14.087 E581.35075
G1 X6.21 Y-13.929 E581.44419
G1 X7.041 Y-13.772 E581.52857
G1 X8.529 Y-13.477 E581.67994
G1 X9.91 Y-13.334 E581.81847
G1 X10.232 Y-13.258 E581.85148
G1 X12.175 Y-11.946 E582.08542
G1 X12.435 Y-11.676 E582.12282
G1 X13.138 Y-9.881 E582.31517
G1 X14.016 Y-9.211 E582.42537
G1 X14.515 Y-8.914 E582.48331
G1 X15.088 Y-8.466 E582.55589
G1 X15.609 Y-8.38 E582.60858
G1 X15.895 Y-8.431 E582.63756
G1 X15.992 Y-8.402 E582.64767
G1 X16.761 Y-8.186 E582.72737
G1 X17.498 Y-7.884 E582.80684
G1 X17.554 Y-7.857 E582.81304
G1 X18.579 Y-6.086 E583.01722
G1 X19.492 Y-4.964 E583.16155
G1 X19.536 Y-4.569 E583.20121
G1 X19.427 Y-3.758 E583.28286
G1 X19.003 Y-2.184 E583.44551
G1 X17.313 Y-.549 E583.68014
G1 X17.222 Y-.48 E583.69153
G1 X15.58 Y-0.07 E583.8604
G1 X13.697 Y0.345 E584.0528
G1 X13.391 Y0.472 E584.08586
G1 X12.588 Y1.142 E584.19021
G1 X12.183 Y1.553 E584.24778
G1 X11.905 Y2.204 E584.31842
G1 X11.46 Y3.337 E584.43987
G1 X11.284 Y4.263 E584.53392
G1 X10.514 Y5.272 E584.66057
G1 X10.018 Y5.931 E584.74287
G1 X9.825 Y5.973 E584.76258
G1 X7.979 Y6.531 E584.955
G1 X7.557 Y6.465 E584.99762
G1 X6.207 Y6.509 E585.1324
G1 X5.391 Y6.586 E585.21418
G1 X4.117 Y6.693 E585.34175
G1 X0.947 Y7.145 E585.66125
G1 X-2.002 Y7.63 E585.95946
G1 X-3.021 Y7.804 E586.0626
G1 X-3.591 Y7.88 E586.11998
G1 X-3.941 Y7.848 E586.15505
G1 X-4.916 Y7.705 E586.25338
G1 X-5.525 Y7.574 E586.31553
G1 X-5.597 Y7.525 E586.32422
G1 X-6.657 Y6.247 E586.4899
G1 X-7.207 Y5.621 E586.57304
G1 X-7.526 Y4.824 E586.6587
G1 X-7.591 Y4.181 E586.72319
G1 X-7.893 Y3.353 E586.81113
G1 X-8.221 Y2.849 E586.87113
G1 X-8.611 Y2.531 E586.92134
G1 X-9.698 Y2.023 E587.04106
G1 X-10.548 Y1.7 E587.13179
G1 X-10.619 Y1.665 E587.13969
G1 X-11.334 Y1.49 E587.21314
G1 X-11.737 Y1.212 E587.26199
G1 X-12.722 Y0.781 E587.36927
G1 X-12.963 Y0.654 E587.39645
G1 X-13.674 Y0.331 E587.47438
G1 X-14.255 Y-.162 E587.55041
G1 X-14.746 Y-.623 E587.61761
G1 X-15.022 Y-.924 E587.65836
G1 X-15.155 Y-1.156 E587.68504
G1 X-15.248 Y-1.787 E587.74868
G1 X-15.272 Y-2.191 E587.78906
G1 X-15.054 Y-2.664 E587.84103
G1 X-14.566 Y-3.169 E587.9111
G1 X-14.381 Y-3.311 E587.93437
G1 X-13.412 Y-3.943 E588.04981
G1 X-12.152 Y-4.881 E588.20654
G1 X-11.868 Y-5.205 E588.24954
G1 X-11.795 Y-5.397 E588.27003
G1 X-11.307 Y-6.402 E588.38151
G1 X-11.622 Y-7.529 E588.49827
G1 X-12.029 Y-8.149 E588.57227
G1 X-12.525 Y-8.6 E588.63916
G1 X-13.104 Y-9.234 E588.72484
G1 X-13.768 Y-9.945 E588.82191
G1 X-14.059 Y-11.066 E588.93747
G1 X-14.09 Y-11.33 E588.96399
G1 X-13.408 Y-12.794 E589.12514
G1 X-13.312 Y-12.936 E589.14224
G1 X-12.511 Y-13.465 E589.23802
G1 X-12.136 Y-13.664 E589.28038
G1 X-10.344 Y-13.322 E589.46242
G1 X-10.144 Y-13.291 E589.48261
G1 X-9.197 Y-13.048 E589.58017
G1 X-8.911 Y-12.964 E589.60991
G1 X-7.089 Y-12.675 E589.79398
G1 X-6.56 Y-12.556 E589.84808
G1 X-6.077 Y-12.939 E589.90959
G0 F7200 X-13.688 Y-11.767
G1 F1800 X-12 Y-13.455 E590.14779
G0 F7200 X-11.525 Y-13.365
G1 F1800 X-13.862 Y-11.028 E590.47756
G0 F7200 X-13.745 Y-10.579
G1 F1800 X-11.05 Y-13.273 E590.85779
G0 F7200 X-10.575 Y-13.183
G1 F1800 X-13.629 Y-10.129 E591.28874
G0 F7200 X-13.389 Y-9.804
G1 F1800 X-10.1 Y-13.092 E591.75278
G0 F7200 X-9.649 Y-12.977
G1 F1800 X-13.115 Y-9.512 E592.2418
G0 F7200 X-12.843 Y-9.217
G1 F1800 X-9.2 Y-12.86 E592.75587
G0 F7200 X-8.741 Y-12.754
G1 F1800 X-12.573 Y-8.922 E593.2966
G0 F7200 X-12.295 Y-8.635
G1 F1800 X-8.253 Y-12.677 E593.86697
G0 F7200 X-7.765 Y-12.599
G1 F1800 X-11.998 Y-8.365 E594.46437
G0 F7200 X-11.748 Y-8.05
G1 F1800 X-7.276 Y-12.522 E595.09541
G0 F7200 X-6.806 Y-12.426
G1 F1800 X-11.524 Y-7.708 E595.76117
G0 F7200 X-11.368 Y-7.298
G1 F1800 X-3.128 Y-15.539 E596.924
G1 X-3.058 Y-15.609
G0 F7200 X-2.268 Y-15.833
G1 F1800 X-11.245 Y-6.856 E598.19075
G0 F7200 X-11.121 Y-6.414
G1 F1800 X-1.665 Y-15.87 E599.52509
G0 F7200 X-1.239 Y-15.731
G1 F1800 X-11.613 Y-5.357 E600.98898
G1 X-11.683 Y-5.287
G0 F7200 X-12.783 Y-4.186
G1 F1800 X-15.072 Y-1.897 E601.31198
G0 F7200 X-15.007 Y-1.397
G1 F1800 X-.813 Y-15.591 E603.31491
G0 F7200 X-.386 Y-15.452
G1 F1800 X-14.842 Y-.996 E605.3548
G0 F7200 X-14.569 Y-.704
G1 F1800 X0.039 Y-15.313 E607.41622
G0 F7200 X0.46 Y-15.168
G1 F1800 X-14.277 Y-.43 E609.49584
G0 F7200 X-13.978 Y-.163
G1 F1800 X0.868 Y-15.01 E611.59084
G0 F7200 X1.277 Y-14.853
G1 F1800 X-13.672 Y0.096 E613.70031
G0 F7200 X-13.309 Y0.299
G1 F1800 X1.689 Y-14.7 E615.81676
G0 F7200 X2.107 Y-14.552
G1 F1800 X-12.92 Y0.475 E617.93723
G0 F7200 X-12.542 Y0.663
G1 F1800 X2.551 Y-14.431 E620.06709
G0 F7200 X3.01 Y-14.323
G1 F1800 X-12.148 Y0.835 E622.20604
G0 F7200 X-11.754 Y1.006
G1 F1800 X3.469 Y-14.217 E624.35417
G0 F7200 X3.929 Y-14.111
G1 F1800 X-11.404 Y1.221 E626.51775
G0 F7200 X-11.003 Y1.386
G1 F1800 X4.403 Y-14.019 E628.69164
G0 F7200 X4.904 Y-13.955
G1 F1800 X-10.55 Y1.499 E630.87236
G0 F7200 X-10.146 Y1.66
G1 F1800 X5.4 Y-13.885 E633.066
G0 F7200 X5.883 Y-13.802
G1 F1800 X-9.736 Y1.816 E635.26994
G0 F7200 X-9.344 Y1.99
G1 F1800 X6.363 Y-13.717 E637.48637
G0 F7200 X6.839 Y-13.627
G1 F1800 X-8.958 Y2.17 E639.7155
G0 F7200 X-8.572 Y2.349
G1 F1800 X7.312 Y-13.534 E641.95683
G0 F7200 X7.784 Y-13.441
G1 F1800 X-8.249 Y2.592 E644.21926
G0 F7200 X-7.979 Y2.888
G1 F1800 X8.256 Y-13.348 E646.51026
G0 F7200 X8.747 Y-13.273
G1 F1800 X-7.756 Y3.23 E648.83901
G0 F7200 X-7.597 Y3.637
G1 F1800 X9.26 Y-13.22 E651.21772
G0 F7200 X9.772 Y-13.166
G1 F1800 X-7.445 Y4.051 E653.64722
G0 F7200 X-7.373 Y4.544
G1 F1800 X10.219 Y-13.048 E656.12965
G0 F7200 X10.557 Y-12.82
G1 F1800 X-7.261 Y4.998 E658.64396
G0 F7200 X-7.099 Y5.402
G1 F1800 X10.895 Y-12.592 E661.18311
G0 F7200 X11.233 Y-12.364
G1 F1800 X-6.866 Y5.734 E663.737
G0 F7200 X-6.601 Y6.035
G1 F1800 X11.57 Y-12.136 E666.30112
G0 F7200 X11.908 Y-11.908
G1 F1800 X-6.342 Y6.342 E668.8764
G0 F7200 X-6.085 Y6.651
G1 F1800 X12.211 Y-11.646 E671.45823
G0 F7200 X12.399 Y-11.268
G1 F1800 X-5.829 Y6.96 E674.0304
G0 F7200 X-5.572 Y7.269
G1 F1800 X12.558 Y-10.861 E676.58874
G0 F7200 X12.718 Y-10.455
G1 F1800 X-5.197 Y7.459 E679.11667
G0 F7200 X-4.722 Y7.551
G1 F1800 X12.877 Y-10.049 E681.60014
G0 F7200 X13.087 Y-9.693
G1 F1800 X-4.229 Y7.623 E684.04362
G0 F7200 X-3.727 Y7.686
G1 F1800 X13.408 Y-9.448 E686.46148
G0 F7200 X13.729 Y-9.203
G1 F1800 X-3.109 Y7.634 E688.83744
G0 F7200 X-2.429 Y7.52
G1 F1800 X14.064 Y-8.973 E691.16478
G0 F7200 X14.418 Y-8.761
G1 F1800 X-1.749 Y7.406 E693.44611
G0 F7200 X-1.071 Y7.294
G1 F1800 X14.735 Y-8.512 E695.67651
G0 F7200 X15.074 Y-8.285
G1 F1800 X-.394 Y7.182 E697.85914
G0 F7200 X0.282 Y7.071
G1 F1800 X15.56 Y-8.206 E700.01496
G0 F7200 X16.103 Y-8.184
G1 F1800 X0.958 Y6.96 E702.15202
G0 F7200 X1.618 Y6.866
G1 F1800 X16.544 Y-8.059 E704.25817
G0 F7200 X16.96 Y-7.909
G1 F1800 X2.278 Y6.772 E706.32988
G0 F7200 X2.938 Y6.678
G1 F1800 X17.362 Y-7.745 E708.3652
G0 F7200 X17.599 Y-7.417
G1 F1800 X3.597 Y6.584 E710.34096
G0 F7200 X4.246 Y6.501
G1 F1800 X17.807 Y-7.059 E712.25449
G0 F7200 X18.014 Y-6.7
G1 F1800 X4.864 Y6.449 E714.11003
G0 F7200 X5.482 Y6.396
G1 F1800 X18.221 Y-6.342 E715.90757
G0 F7200 X18.429 Y-5.984
G1 F1800 X6.107 Y6.337 E717.64626
G0 F7200 X6.698 Y6.312
G1 F1800 X18.683 Y-5.672 E719.33741
G0 F7200 X18.937 Y-5.36
G1 F1800 X13.08 Y0.495 E720.16375
G1 X13.01 Y0.565
G0 F7200 X14.062 Y0.079
G1 F1800 X19.19 Y-5.048 E720.8873
G0 F7200 X19.345 Y-4.637
G1 F1800 X14.787 Y-0.079 E721.53048
G0 F7200 X15.512 Y-.239
G1 F1800 X19.277 Y-4.004 E722.06176
G0 F7200 X19.108 Y-3.268
G1 F1800 X16.265 Y-.426 E722.46287
G0 F7200 X17.019 Y-.614
G1 F1800 X18.898 Y-2.493 E722.72802
G1 X18.968 Y-2.563
G0 F7200 X11.959 Y1.617
G1 F1800 X7.282 Y6.293 E723.38792
G0 F7200 X7.818 Y6.323
G1 F1800 X11.563 Y2.578 E723.91638
G1 X11.633 Y2.508
G0 F7200 X11.253 Y3.454
G1 F1800 X8.531 Y6.175 E724.30041
G1 X8.461 Y6.245
G0 F7200 X9.342 Y5.931
G1 F1800 X11.121 Y4.152 E724.55145
G1 X11.191 Y4.082
;MESH:NONMESH
G0 F600 X11.191 Y4.082 Z3.9
G0 F7200 X-6.004 Y-12.77
;TIME_ELAPSED:254.317001
;LAYER:6
;TYPE:WALL-INNER
;MESH:bunny.stl
G1 F3600 X-5.491 Y-13.417 E724.63384
G1 X-5.379 Y-13.527 E724.6495
G1 X-5.086 Y-13.987 E724.70392
G1 X-4.892 Y-14.253 E724.73677
G1 X-4.353 Y-14.769 E724.81123
G1 X-2.952 Y-15.828 E724.98646
G1 X-1.74 Y-16.334 E725.11751
G1 X-1.639 Y-16.302 E725.12808
G1 X0.348 Y-15.539 E725.34046
G1 X0.773 Y-15.381 E725.3857
G1 X1.85 Y-14.991 E725.5
G1 X2.856 Y-14.756 E725.60308
G1 X3.674 Y-14.614 E725.68592
G1 X4.643 Y-14.49 E725.7834
G1 X5.471 Y-14.443 E725.86615
G1 X5.988 Y-14.495 E725.91799
G1 X6.364 Y-14.54 E725.95578
G1 X6.64 Y-14.459 E725.98448
G1 X7.701 Y-14.156 E726.09458
G1 X8.084 Y-14.083 E726.13348
G1 X8.883 Y-13.869 E726.21602
G1 X9.633 Y-13.722 E726.29228
G1 X10.005 Y-13.529 E726.33409
G1 X10.726 Y-13.262 E726.41081
G1 X11.365 Y-12.999 E726.47976
G1 X12.723 Y-12.083 E726.6432
G1 X13.438 Y-11.338 E726.74624
G1 X13.782 Y-10.461 E726.84023
G1 X14.275 Y-10.081 E726.90234
G1 X14.607 Y-9.688 E726.95368
G1 X15.323 Y-9.101 E727.04606
G1 X15.848 Y-9.017 E727.09911
G1 X16.107 Y-9.127 E727.12719
G1 X16.99 Y-9.166 E727.21538
G1 X17.457 Y-9.025 E727.26406
G1 X18.363 Y-8.698 E727.36016
G1 X18.623 Y-8.456 E727.39561
G1 X20.466 Y-6.235 E727.68358
G1 X20.573 Y-5.961 E727.71293
G1 X20.713 Y-4.689 E727.84062
G1 X20.362 Y-2.075 E728.10379
G1 X20.33 Y-1.954 E728.11627
G1 X19.952 Y-1.591 E728.16857
G1 X18.142 Y0.03 E728.41101
G1 X18.039 Y0.106 E728.42378
G1 X17.487 Y0.168 E728.47921
G1 X14.411 Y0.843 E728.79343
G1 X13.942 Y1.038 E728.84411
G1 X13.601 Y1.318 E728.88814
G1 X13.109 Y1.812 E728.95771
G1 X12.739 Y2.673 E729.05122
G1 X12.136 Y4.209 E729.21587
G1 X10.949 Y5.77 E729.41154
G1 X10.545 Y6.306 E729.47851
G1 X9.878 Y6.63 E729.5525
G1 X8.205 Y7.136 E729.7269
G1 X8.033 Y7.105 E729.74434
G1 X7.432 Y7.069 E729.80442
G1 X7.141 Y7.084 E729.83349
G1 X6.127 Y7.255 E729.9361
G1 X5.71 Y7.333 E729.97843
G1 X5.062 Y7.412 E730.04356
G1 X3.767 Y7.522 E730.17325
G1 X2.486 Y7.653 E730.30173
G1 X1.826 Y7.687 E730.36767
G1 X1.084 Y7.792 E730.44245
G1 X0.339 Y7.743 E730.51694
G1 X-.408 Y7.72 E730.59152
G1 X-1.334 Y7.851 E730.68483
G1 X-1.909 Y7.909 E730.7425
G1 X-2.933 Y8.042 E730.84553
G1 X-3.65 Y7.976 E730.91738
G1 X-3.885 Y7.92 E730.94148
G1 X-5.005 Y7.754 E731.05446
G1 X-5.335 Y7.638 E731.08936
G1 X-5.814 Y7.3 E731.14785
G1 X-6.687 Y6.242 E731.28472
G1 X-6.888 Y6.016 E731.3149
G1 X-7.093 Y5.527 E731.36781
G1 X-7.209 Y5.196 E731.4028
G1 X-7.424 Y4.448 E731.48046
G1 X-7.437 Y4.174 E731.50783
G1 X-7.577 Y3.788 E731.5488
G1 X-8.002 Y3.108 E731.62881
G1 X-8.472 Y2.724 E731.68937
G1 X-9.294 Y2.344 E731.77973
G1 X-9.777 Y2.117 E731.83298
G1 X-10.362 Y1.877 E731.89608
G1 X-10.919 Y1.701 E731.95436
G1 X-11.366 Y1.551 E732.00141
G1 X-11.489 Y1.462 E732.01656
G1 X-11.935 Y1.156 E732.07053
G1 X-12.44 Y0.751 E732.13512
G1 X-13.049 Y0.425 E732.20404
G1 X-13.338 Y0.295 E732.23566
G1 X-13.799 Y-0.097 E732.29604
G1 X-14.182 Y-.476 E732.34981
G1 X-14.55 Y-.884 E732.40463
G1 X-15.073 Y-1.792 E732.50919
G1 X-15.11 Y-2.095 E732.53964
G1 X-14.903 Y-2.476 E732.58291
G1 X-14.526 Y-2.762 E732.63013
G1 X-13.639 Y-3.283 E732.73277
G1 X-13.286 Y-3.501 E732.77417
G1 X-12.469 Y-4.089 E732.87461
G1 X-12.038 Y-4.529 E732.93606
G1 X-11.663 Y-4.972 E732.99398
G1 X-11.145 Y-5.702 E733.08329
G1 X-10.958 Y-6.021 E733.12019
G1 X-10.896 Y-6.499 E733.16828
G1 X-11.023 Y-6.984 E733.21831
G1 X-11.296 Y-7.43 E733.27048
G1 X-11.579 Y-7.902 E733.3254
G1 X-12.024 Y-8.498 E733.39961
G1 X-12.621 Y-9.089 E733.48343
G1 X-12.773 Y-9.223 E733.50365
G1 X-13.86 Y-10.157 E733.64665
G1 X-13.927 Y-10.295 E733.66196
G1 X-13.955 Y-11.457 E733.77794
G1 X-13.35 Y-12.874 E733.93168
G1 X-12.562 Y-13.635 E734.04098
G1 X-12.371 Y-13.76 E734.06376
G1 X-12.17 Y-13.722 E734.08417
G1 X-10.448 Y-13.218 E734.2632
G1 X-9.923 Y-13.089 E734.31714
G1 X-9.493 Y-13.194 E734.36131
G1 X-9.375 Y-13.183 E734.37313
G1 X-8.866 Y-13.101 E734.42458
G1 X-8.183 Y-12.926 E734.49493
G1 X-7.399 Y-12.742 E734.57528
G1 X-7.042 Y-12.681 E734.61142
G1 X-6.451 Y-12.685 E734.67039
G1 X-6.004 Y-12.77 E734.71579
G0 F7200 X-6.225 Y-13.135
;TYPE:WALL-OUTER
G1 F1800 X-5.791 Y-13.682 E734.78547
G1 X-5.692 Y-13.78 E734.79937
G1 X-5.42 Y-14.208 E734.84997
G1 X-5.197 Y-14.515 E734.88783
